; GCode generated by RepRap Java Host Software
; Created: 2011-06-06:16-06-43
;#!RECTANGLE: <BOX x:[l:7.0, h:39.99989700317383], y:[l:6.0, h:33.5]>
M110 ; Reset the line numbers
G21 ;metric is good!
G90 ;absolute positioning
M140 S65.0 ;set bed temperature and return
T0; select new extruder
M113; set extruder to use pot for PWM
G92 E0 ;zero the extruded length
G28 X0 ;set x 0
G28 Y0 ;set y 0
G1 F1500.0; feed for start of next move
G1 X4.2 Y0.1 F3500.0 ;horizontal move
G1 X138.8 Y4.9 ;horizontal move
G1 X143.0 Y5.0 F1500.0 ;horizontal move
G28 Z0 ;set z 0
M109 S205.0 ;set temperature and wait
G1 F3500.0; feed for start of next move
G1 E1750.0; extruder dwell
G1 F1500.0; feed for start of next move
G1 F18000.0; feed for start of next move
G1 E1690.0; extruder retraction
G1 F1500.0; feed for start of next move
G92 E0 ;zero the extruded length
;#!LAYER: 1/69
G92 E0 ;zero the extruded length
G92 E0 ;zero the extruded length
G92 E0 ;zero the extruded length
T1; select new extruder
M113; set extruder to use pot for PWM
G92 E0 ;zero the extruded length
T0; select new extruder
M113; set extruder to use pot for PWM
G1 F50.0; feed for start of next move
G1 Z0.2996 ;z move
T0; select new extruder
M113; set extruder to use pot for PWM
G1 F1500.0; feed for start of next move
G1 X18.8 Y19.0 F3500.0 ;horizontal move
G1 X12.8 Y12.1 ;horizontal move
G1 X10.0 Y9.0 F1500.0 ;horizontal move
G1 F18000.0; feed for start of next move
G1 E60.0; extruder dwell
G1 F1500.0; feed for start of next move
G1 F3500.0; feed for start of next move
G1 E85.0; extruder dwell
G1 F1500.0; feed for start of next move
G1 Y13.2 E89.2 F3500.0 ;horizontal move
G1 Y14.8 E90.8 ;horizontal move
G1 Y19.0 E95.0 F1500.0 ;horizontal move
G1 X9.0 E96.0 F2156.4 ;horizontal move
G1 X8.0 E97.0 F1500.0 ;horizontal move
G1 Y14.8 E101.2 F3500.0 ;horizontal move
G1 Y11.2 E104.8 ;horizontal move
G1 Y7.0 E109.0 F1500.0 ;horizontal move
G1 X12.2 E113.2 F3500.0 ;horizontal move
G1 X25.8 E126.8 ;horizontal move
G1 X30.0 E131.0 F1500.0 ;horizontal move
G1 Y8.0 E132.0 F2156.4 ;horizontal move
G1 Y9.0 E133.0 F1500.0 ;horizontal move
G1 X25.8 E137.2 F3500.0 ;horizontal move
G1 X14.2 E148.8 ;horizontal move
G1 X10.0 E153.0 F1500.0 ;horizontal move
G1 F18000.0; feed for start of next move
G1 E93.0; extruder retraction
G1 F1500.0; feed for start of next move
G1 X13.0 Y11.9 F3500.0 ;horizontal move
G1 X20.8 Y19.5 ;horizontal move
G1 X23.8 Y22.4 F1500.0 ;horizontal move
G1 F18000.0; feed for start of next move
G1 E153.0; extruder dwell
G1 F1500.0; feed for start of next move
G1 X23.5 Y22.2 E153.4 F1755.7 ;horizontal move
G1 X23.3 Y22.1 E153.6 F1622.6 ;horizontal move
G1 X22.6 Y21.8 E154.3 F791.9 ;horizontal move
G1 X23.9 E155.6 F1955.1 ;horizontal move
G1 X24.5 E156.2 F1551.5 ;horizontal move
G1 Y24.2 E158.6 F2850.6 ;horizontal move
G1 Y26.7 E161.1 F1476.6 ;horizontal move
G1 X23.5 E162.1 F2144.5 ;horizontal move
G1 X22.6 Y26.6 E163.1 F1551.5 ;horizontal move
G1 Y24.4 E165.3 F2791.6 ;horizontal move
G1 Y21.8 E167.9 F1230.8 ;horizontal move
G1 X23.3 Y22.1 E168.6 F1876.3 ;horizontal move
G1 F18000.0; feed for start of next move
G1 E108.6; extruder retraction
G1 F1500.0; feed for start of next move
G1 X23.8 Y22.4 F3500.0 ;horizontal move
G1 F1500.0; feed for start of next move
G1 X23.7 Y22.7 F1717.5 ;horizontal move
G1 X23.5 Y22.9 F1500.0 ;horizontal move
G1 F18000.0; feed for start of next move
G1 E168.6; extruder dwell
G1 F1500.0; feed for start of next move
G1 X23.9 Y23.3 E169.2 F1862.1 ;horizontal move
G1 X24.2 Y23.6 E169.6 F1512.3 ;horizontal move
G1 Y24.2 E170.2 F995.5 ;horizontal move
G1 X23.5 Y23.6 E171.1 F1769.7 ;horizontal move
G1 X22.9 Y23.0 E172.0 F995.5 ;horizontal move
G1 Y23.6 E172.6 F1559.2 ;horizontal move
G1 X23.5 Y24.3 E173.5 F2185.2 ;horizontal move
G1 X24.2 Y25.0 E174.5 F1559.2 ;horizontal move
G1 Y25.6 E175.1 F995.5 ;horizontal move
G1 X23.5 Y25.0 E176.0 F1769.7 ;horizontal move
G1 X22.9 Y24.4 E176.9 F995.5 ;horizontal move
G1 Y25.0 E177.5 F1512.3 ;horizontal move
G1 X23.7 Y25.9 E178.7 F2298.8 ;horizontal move
G1 X25.0 Y27.2 E180.5 F973.4 ;horizontal move
G1 X23.2 Y27.1 E182.3 F2260.0 ;horizontal move
G1 X22.1 E183.4 F1534.4 ;horizontal move
G1 Y24.2 E186.3 F3043.5 ;horizontal move
G1 Y21.3 E189.2 F1484.4 ;horizontal move
G1 X23.6 E190.7 F2394.9 ;horizontal move
G1 X25.0 Y21.4 E192.1 F1534.4 ;horizontal move
G1 Y24.0 E194.7 F2935.5 ;horizontal move
G1 Y27.2 E197.9 F955.1 ;horizontal move
G1 X23.7 Y25.9 E199.7 F2294.9 ;horizontal move
G1 X22.9 Y25.0 E200.9 F1512.3 ;horizontal move
G1 Y24.4 E201.5 F995.5 ;horizontal move
G1 X23.5 Y25.0 E202.4 F1769.7 ;horizontal move
G1 X24.2 Y25.6 E203.3 F995.5 ;horizontal move
G1 Y25.0 E203.9 F1559.2 ;horizontal move
G1 X23.5 Y24.3 E204.9 F2185.2 ;horizontal move
G1 X22.9 Y23.6 E205.8 F1559.2 ;horizontal move
G1 Y23.0 E206.4 F995.5 ;horizontal move
G1 X23.5 Y23.6 E207.3 F1769.7 ;horizontal move
G1 X24.2 Y24.2 E208.2 F995.5 ;horizontal move
G1 Y23.6 E208.8 F1512.3 ;horizontal move
G1 X23.9 Y23.3 E209.2 F1862.1 ;horizontal move
G1 F18000.0; feed for start of next move
G1 E149.2; extruder retraction
G1 F1500.0; feed for start of next move
G1 X23.5 Y22.9 F3500.0 ;horizontal move
G1 F1500.0; feed for start of next move
G1 X23.2 Y24.0 F2207.0 ;horizontal move
G1 X22.9 Y25.0 F1500.0 ;horizontal move
G1 F18000.0; feed for start of next move
G1 E209.2; extruder dwell
G1 F1500.0; feed for start of next move
G1 X23.3 Y25.5 E209.9 F1981.7 ;horizontal move
G1 X24.1 Y26.4 E211.1 F1006.1 ;horizontal move
G1 X23.6 E211.6 F1519.3 ;horizontal move
G1 X23.4 Y26.3 E211.8 F1673.0 ;horizontal move
G1 X22.9 Y25.8 E212.5 F1019.9 ;horizontal move
G1 Y26.4 E213.1 F1537.9 ;horizontal move
G1 F18000.0; feed for start of next move
G1 E153.1; extruder retraction
G1 F1500.0; feed for start of next move
;#!LAYER: 2/69
G28 X0 ;set x 0
G28 Y0 ;set y 0
G92 E0 ;zero the extruded length
G92 E0 ;zero the extruded length
G92 E0 ;zero the extruded length
T1; select new extruder
M113; set extruder to use pot for PWM
G92 E0 ;zero the extruded length
T0; select new extruder
M113; set extruder to use pot for PWM
G1 F50.0; feed for start of next move
G1 Z0.5996 ;z move
T0; select new extruder
M113; set extruder to use pot for PWM
G1 F1500.0; feed for start of next move
G1 X3.1 Y2.8 F3500.0 ;horizontal move
G1 X6.9 Y6.2 ;horizontal move
G1 X10.0 Y9.0 F1500.0 ;horizontal move
G1 F18000.0; feed for start of next move
G1 E60.0; extruder dwell
G1 F1500.0; feed for start of next move
G1 F3500.0; feed for start of next move
G1 E85.0; extruder dwell
G1 F1500.0; feed for start of next move
G1 Y13.2 E89.2 F3500.0 ;horizontal move
G1 Y14.8 E90.8 ;horizontal move
G1 Y19.0 E95.0 F1500.0 ;horizontal move
G1 X9.0 E96.0 F2156.4 ;horizontal move
G1 X8.0 E97.0 F1500.0 ;horizontal move
G1 Y14.8 E101.2 F3500.0 ;horizontal move
G1 Y11.2 E104.8 ;horizontal move
G1 Y7.0 E109.0 F1500.0 ;horizontal move
G1 X12.2 E113.2 F3500.0 ;horizontal move
G1 X25.8 E126.8 ;horizontal move
G1 X30.0 E131.0 F1500.0 ;horizontal move
G1 Y8.0 E132.0 F2156.4 ;horizontal move
G1 Y9.0 E133.0 F1500.0 ;horizontal move
G1 X25.8 E137.2 F3500.0 ;horizontal move
G1 X14.2 E148.8 ;horizontal move
G1 X10.0 E153.0 F1500.0 ;horizontal move
G1 F18000.0; feed for start of next move
G1 E93.0; extruder retraction
G1 F1500.0; feed for start of next move
G1 X12.8 Y12.1 F3500.0 ;horizontal move
G1 X20.5 Y20.8 ;horizontal move
G1 X23.3 Y23.9 F1500.0 ;horizontal move
G1 F18000.0; feed for start of next move
G1 E153.0; extruder dwell
G1 F1500.0; feed for start of next move
G1 X24.3 Y22.9 E154.4 F2343.2 ;horizontal move
G1 X25.1 Y22.1 E155.5 F1665.1 ;horizontal move
G1 X25.4 E155.8 F1482.1 ;horizontal move
G1 X25.7 Y21.9 E156.2 F1076.2 ;horizontal move
G1 Y24.5 E158.8 F2731.9 ;horizontal move
G1 Y26.7 E161.0 F1499.2 ;horizontal move
G1 X23.4 E163.3 F2758.8 ;horizontal move
G1 X21.2 Y26.6 E165.5 F1522.3 ;horizontal move
G1 Y24.2 E167.9 F2843.6 ;horizontal move
G1 Y21.8 E170.3 F1480.0 ;horizontal move
G1 X23.2 E172.3 F2625.0 ;horizontal move
G1 X25.7 Y21.9 E174.8 F887.3 ;horizontal move
G1 X25.4 Y22.1 E175.2 F1351.2 ;horizontal move
G1 X25.1 E175.5 F1549.7 ;horizontal move
G1 X24.3 Y23.0 E176.7 F2303.3 ;horizontal move
G1 F18000.0; feed for start of next move
G1 E116.7; extruder retraction
G1 F1500.0; feed for start of next move
G1 X23.3 Y23.9 F3500.0 ;horizontal move
G1 F1500.0; feed for start of next move
G1 X23.4 Y24.2 F1701.8 ;horizontal move
G1 X23.5 Y24.4 F1500.0 ;horizontal move
G1 F18000.0; feed for start of next move
G1 E176.7; extruder dwell
G1 F1500.0; feed for start of next move
G1 X22.3 Y25.6 E178.4 F2510.0 ;horizontal move
G1 X21.6 Y26.3 E179.4 F1931.5 ;horizontal move
G1 X20.8 Y27.1 E180.5 F989.7 ;horizontal move
G1 Y24.0 E183.6 F2928.2 ;horizontal move
G1 Y21.3 E186.3 F1483.5 ;horizontal move
G1 X23.5 Y21.4 E189.0 F2972.2 ;horizontal move
G1 X26.2 E191.7 F1536.3 ;horizontal move
G1 Y24.3 E194.6 F3033.9 ;horizontal move
G1 Y27.2 E197.5 F1491.8 ;horizontal move
G1 X23.8 E199.9 F2849.9 ;horizontal move
G1 X20.8 Y27.1 E202.9 F956.0 ;horizontal move
G1 X21.6 Y26.3 E204.0 F1914.5 ;horizontal move
G1 X22.4 Y25.6 E205.1 F2503.4 ;horizontal move
G1 F18000.0; feed for start of next move
G1 E145.1; extruder retraction
G1 F1500.0; feed for start of next move
G1 X23.5 Y24.4 F3500.0 ;horizontal move
G1 F1500.0; feed for start of next move
G1 X22.6 Y25.4 F2339.7 ;horizontal move
G1 X21.6 Y26.3 F1500.0 ;horizontal move
G1 F18000.0; feed for start of next move
G1 E205.1; extruder dwell
G1 F1500.0; feed for start of next move
G1 X22.2 E205.7 F1920.9 ;horizontal move
G1 X23.4 Y25.2 E207.3 F2779.0 ;horizontal move
G1 X25.4 Y23.2 E210.1 F979.8 ;horizontal move
G1 Y23.8 E210.7 F1502.0 ;horizontal move
G1 X24.4 Y24.9 E212.2 F2433.0 ;horizontal move
G1 X23.0 Y26.3 E214.2 F1061.2 ;horizontal move
G1 X23.5 Y26.4 E214.7 F1512.3 ;horizontal move
G1 X24.3 Y25.7 E215.8 F2179.3 ;horizontal move
G1 X25.4 Y24.7 E217.3 F996.4 ;horizontal move
G1 Y25.2 E217.8 F1512.9 ;horizontal move
G1 X25.1 Y25.6 E218.3 F1883.8 ;horizontal move
G1 X24.4 Y26.4 E219.3 F1014.3 ;horizontal move
G1 X25.0 E219.9 F1524.7 ;horizontal move
G1 X25.2 Y26.2 E220.2 F1734.2 ;horizontal move
G1 X25.4 Y26.0 E220.5 F1500.0 ;horizontal move
G1 F18000.0; feed for start of next move
G1 E160.5; extruder retraction
G1 F1500.0; feed for start of next move
G1 X24.5 Y25.2 F2287.1 ;horizontal move
G1 X23.5 Y24.4 F1500.0 ;horizontal move
G1 F18000.0; feed for start of next move
G1 E220.5; extruder dwell
G1 F1500.0; feed for start of next move
G1 X24.6 Y23.3 E222.1 F2420.0 ;horizontal move
G1 X25.4 Y22.4 E223.3 F1686.3 ;horizontal move
G1 Y22.1 E223.6 F1500.0 ;horizontal move
G1 F18000.0; feed for start of next move
G1 E163.6; extruder retraction
G1 F1500.0; feed for start of next move
G1 X24.4 Y23.0 F2359.9 ;horizontal move
G1 X23.3 Y23.9 F1500.0 ;horizontal move
G1 F18000.0; feed for start of next move
G1 E223.6; extruder dwell
G1 F1500.0; feed for start of next move
G1 X22.6 Y24.5 E224.5 F2141.9 ;horizontal move
G1 X21.5 Y25.6 E226.0 F983.4 ;horizontal move
G1 Y25.0 E226.6 F1504.4 ;horizontal move
G1 X22.7 Y23.8 E228.3 F2521.1 ;horizontal move
G1 X24.2 Y22.1 E230.6 F987.0 ;horizontal move
G1 X23.7 E231.1 F1506.7 ;horizontal move
G1 X22.8 Y23.0 E232.4 F2277.2 ;horizontal move
G1 X21.5 Y24.2 E234.1 F985.0 ;horizontal move
G1 Y23.6 E234.7 F1552.5 ;horizontal move
G1 X22.0 Y23.0 E235.5 F2035.5 ;horizontal move
G1 X22.9 Y22.1 E236.8 F992.2 ;horizontal move
G1 X22.3 E237.4 F1557.1 ;horizontal move
G1 X22.2 Y22.2 E237.5 F1713.1 ;horizontal move
G1 X21.5 Y22.8 E238.5 F947.3 ;horizontal move
G1 X21.6 Y22.2 E239.1 F1562.3 ;horizontal move
G1 Y22.1 E239.2 F1500.0 ;horizontal move
G1 F18000.0; feed for start of next move
G1 E179.2; extruder retraction
G1 F1500.0; feed for start of next move
;#!LAYER: 3/69
G28 X0 ;set x 0
G28 Y0 ;set y 0
G92 E0 ;zero the extruded length
G92 E0 ;zero the extruded length
G92 E0 ;zero the extruded length
T1; select new extruder
M113; set extruder to use pot for PWM
G92 E0 ;zero the extruded length
T0; select new extruder
M113; set extruder to use pot for PWM
G1 F50.0; feed for start of next move
G1 Z0.8996 ;z move
T0; select new extruder
M113; set extruder to use pot for PWM
G1 F1500.0; feed for start of next move
G1 X3.1 Y2.8 F3500.0 ;horizontal move
G1 X6.9 Y6.2 ;horizontal move
G1 X10.0 Y9.0 F1500.0 ;horizontal move
G1 F18000.0; feed for start of next move
G1 E60.0; extruder dwell
G1 F1500.0; feed for start of next move
G1 F3500.0; feed for start of next move
G1 E85.0; extruder dwell
G1 F1500.0; feed for start of next move
G1 Y13.2 E89.2 F3500.0 ;horizontal move
G1 Y14.8 E90.8 ;horizontal move
G1 Y19.0 E95.0 F1500.0 ;horizontal move
G1 X9.0 E96.0 F2156.4 ;horizontal move
G1 X8.0 E97.0 F1500.0 ;horizontal move
G1 Y14.8 E101.2 F3500.0 ;horizontal move
G1 Y11.2 E104.8 ;horizontal move
G1 Y7.0 E109.0 F1500.0 ;horizontal move
G1 X12.2 E113.2 F3500.0 ;horizontal move
G1 X25.8 E126.8 ;horizontal move
G1 X30.0 E131.0 F1500.0 ;horizontal move
G1 Y8.0 E132.0 F2156.4 ;horizontal move
G1 Y9.0 E133.0 F1500.0 ;horizontal move
G1 X25.8 E137.2 F3500.0 ;horizontal move
G1 X14.2 E148.8 ;horizontal move
G1 X10.0 E153.0 F1500.0 ;horizontal move
G1 F18000.0; feed for start of next move
G1 E93.0; extruder retraction
G1 F1500.0; feed for start of next move
G1 X12.5 Y12.3 F3500.0 ;horizontal move
G1 X18.9 Y21.0 ;horizontal move
G1 X21.4 Y24.3 F1500.0 ;horizontal move
G1 F18000.0; feed for start of next move
G1 E153.0; extruder dwell
G1 F1500.0; feed for start of next move
G1 X21.0 Y23.9 E153.6 F1881.3 ;horizontal move
G1 X20.7 Y23.5 E154.1 F1559.2 ;horizontal move
G1 Y22.9 E154.7 F995.5 ;horizontal move
G1 X21.4 Y23.5 E155.6 F1769.7 ;horizontal move
G1 X22.0 Y24.1 E156.4 F995.5 ;horizontal move
G1 Y23.6 E156.9 F1512.3 ;horizontal move
G1 X21.2 Y22.6 E158.2 F2312.7 ;horizontal move
G1 X20.7 Y22.1 E158.9 F1929.1 ;horizontal move
G1 X19.9 Y21.3 E160.1 F985.1 ;horizontal move
G1 X23.6 E163.8 F3150.0 ;horizontal move
G1 X23.9 E164.1 ;horizontal move
G1 X27.1 Y21.4 E167.3 F1513.9 ;horizontal move
G1 Y24.3 E170.2 F3039.1 ;horizontal move
G1 Y27.2 E173.1 F1487.4 ;horizontal move
G1 X23.8 Y27.1 E176.4 F3150.0 ;horizontal move
G1 X23.1 E177.1 ;horizontal move
G1 X19.9 E180.3 F1527.7 ;horizontal move
G1 Y24.5 E182.9 F2920.7 ;horizontal move
G1 Y21.3 E186.1 F950.4 ;horizontal move
G1 X20.7 Y22.1 E187.2 F1911.6 ;horizontal move
G1 X21.2 Y22.7 E188.0 F2305.4 ;horizontal move
G1 X22.0 Y23.6 E189.2 F1512.3 ;horizontal move
G1 Y24.1 E189.7 F995.5 ;horizontal move
G1 X21.4 Y23.5 E190.5 F1769.7 ;horizontal move
G1 X20.7 Y22.9 E191.4 F995.5 ;horizontal move
G1 Y23.5 E192.0 F1559.2 ;horizontal move
G1 X21.0 Y23.9 E192.5 F1881.3 ;horizontal move
G1 F18000.0; feed for start of next move
G1 E132.5; extruder retraction
G1 F1500.0; feed for start of next move
G1 X21.4 Y24.3 F3500.0 ;horizontal move
G1 F1500.0; feed for start of next move
G1 X23.5 F2700.0 ;horizontal move
G1 X25.6 F1500.0 ;horizontal move
G1 F18000.0; feed for start of next move
G1 E192.5; extruder dwell
G1 F1500.0; feed for start of next move
G1 X26.0 Y24.7 E193.1 F1862.1 ;horizontal move
G1 X26.3 Y25.0 E193.5 F1512.3 ;horizontal move
G1 Y25.6 E194.1 F995.5 ;horizontal move
G1 X25.6 Y25.0 E195.1 F1769.7 ;horizontal move
G1 X25.0 Y24.4 E195.9 F995.5 ;horizontal move
G1 Y25.0 E196.5 F1559.2 ;horizontal move
G1 X25.5 Y25.6 E197.3 F2124.6 ;horizontal move
G1 X26.5 Y26.7 E198.8 F993.9 ;horizontal move
G1 X23.2 E202.1 F2997.9 ;horizontal move
G1 X20.4 Y26.6 E204.9 F1516.2 ;horizontal move
G1 Y24.2 E207.3 F2845.3 ;horizontal move
G1 Y21.8 E209.7 F1492.7 ;horizontal move
G1 X23.5 E212.8 F3106.8 ;horizontal move
G1 X26.6 E215.9 F1498.0 ;horizontal move
G1 Y24.0 E218.1 F2721.0 ;horizontal move
G1 X26.5 Y26.7 E220.8 F947.8 ;horizontal move
G1 X25.5 Y25.6 E222.3 F2114.0 ;horizontal move
G1 X25.0 Y25.0 E223.0 F1559.2 ;horizontal move
G1 Y24.4 E223.6 F995.5 ;horizontal move
G1 X25.6 Y25.0 E224.5 F1769.7 ;horizontal move
G1 X26.3 Y25.6 E225.4 F995.5 ;horizontal move
G1 Y25.0 E226.0 F1512.3 ;horizontal move
G1 X26.0 Y24.7 E226.4 F1862.1 ;horizontal move
G1 F18000.0; feed for start of next move
G1 E166.4; extruder retraction
G1 F1500.0; feed for start of next move
G1 X25.6 Y24.3 F3500.0 ;horizontal move
G1 F18000.0; feed for start of next move
G1 E226.4; extruder dwell
G1 F1500.0; feed for start of next move
G1 X25.3 Y23.9 E226.9 F1862.1 ;horizontal move
G1 X25.0 Y23.5 E227.4 F1512.3 ;horizontal move
G1 Y23.0 E227.9 F995.5 ;horizontal move
G1 X25.6 Y23.6 E228.8 F1769.7 ;horizontal move
G1 X26.3 Y24.2 E229.7 F995.5 ;horizontal move
G1 Y23.6 E230.3 F1559.2 ;horizontal move
G1 X25.8 Y23.1 E231.0 F2031.6 ;horizontal move
G1 X25.0 Y22.1 E232.3 F1065.7 ;horizontal move
G1 X25.4 E232.7 F1515.5 ;horizontal move
G1 X25.7 Y22.3 E233.1 F1722.7 ;horizontal move
G1 X26.3 Y22.7 E233.8 F1036.6 ;horizontal move
G1 Y22.2 E234.3 F1566.6 ;horizontal move
G1 Y22.1 E234.4 F1500.0 ;horizontal move
G1 F18000.0; feed for start of next move
G1 E174.4; extruder retraction
G1 F1500.0; feed for start of next move
G1 X24.9 F2368.5 ;horizontal move
G1 X23.5 F1500.0 ;horizontal move
G1 F18000.0; feed for start of next move
G1 E234.4; extruder dwell
G1 F1500.0; feed for start of next move
G1 X24.2 Y22.9 E235.4 F2214.8 ;horizontal move
G1 Y23.1 E235.6 F2307.4 ;horizontal move
G1 Y24.9 E237.4 F995.5 ;horizontal move
G1 X23.5 Y24.3 E238.4 F1769.7 ;horizontal move
G1 X22.9 Y23.7 E239.2 F995.5 ;horizontal move
G1 Y25.4 E240.9 F2273.5 ;horizontal move
G1 Y25.7 E241.2 F2143.4 ;horizontal move
G1 X23.5 Y26.4 E242.1 F1500.0 ;horizontal move
G1 F18000.0; feed for start of next move
G1 E182.1; extruder retraction
G1 F1500.0; feed for start of next move
G1 X24.3 F2012.5 ;horizontal move
G1 X25.0 F1500.0 ;horizontal move
G1 F18000.0; feed for start of next move
G1 E242.1; extruder dwell
G1 F1500.0; feed for start of next move
G1 Y26.3 E242.2 F1552.5 ;horizontal move
G1 Y25.7 E242.8 F993.2 ;horizontal move
G1 X25.5 Y26.3 E243.6 F1679.1 ;horizontal move
G1 X25.7 Y26.4 E243.8 F1519.3 ;horizontal move
G1 X26.2 E244.3 F1006.1 ;horizontal move
G1 X25.4 Y25.5 E245.5 F1981.7 ;horizontal move
G1 X25.0 Y25.0 E246.2 F1500.0 ;horizontal move
G1 F18000.0; feed for start of next move
G1 E186.2; extruder retraction
G1 F1500.0; feed for start of next move
G1 X23.2 Y24.7 F2578.9 ;horizontal move
G1 X21.4 Y24.3 F1500.0 ;horizontal move
G1 F18000.0; feed for start of next move
G1 E246.2; extruder dwell
G1 F1500.0; feed for start of next move
G1 X21.7 Y24.7 E246.7 F1862.1 ;horizontal move
G1 X22.0 Y25.0 E247.1 F1512.3 ;horizontal move
G1 Y25.6 E247.7 F995.5 ;horizontal move
G1 X21.4 Y25.0 E248.6 F1769.7 ;horizontal move
G1 X20.7 Y24.4 E249.5 F995.5 ;horizontal move
G1 Y25.0 E250.1 F1559.2 ;horizontal move
G1 X21.2 Y25.5 E250.8 F2013.2 ;horizontal move
G1 X22.0 Y26.4 E252.0 F993.2 ;horizontal move
G1 X21.4 E252.6 F1557.7 ;horizontal move
G1 X21.3 Y26.3 E252.7 F1696.6 ;horizontal move
G1 X20.7 Y25.7 E253.6 F993.2 ;horizontal move
G1 Y26.3 E254.2 F1552.5 ;horizontal move
G1 Y26.4 E254.3 F1500.0 ;horizontal move
G1 F18000.0; feed for start of next move
G1 E194.3; extruder retraction
G1 F1500.0; feed for start of next move
G1 Y24.3 F2722.1 ;horizontal move
G1 Y22.1 F1500.0 ;horizontal move
G1 F18000.0; feed for start of next move
G1 E254.3; extruder dwell
G1 F1500.0; feed for start of next move
G1 X21.2 E254.8 F1875.8 ;horizontal move
G1 X22.0 Y22.7 E255.8 F1015.5 ;horizontal move
G1 Y22.2 E256.3 F1559.7 ;horizontal move
G1 Y22.1 E256.4 F1500.0 ;horizontal move
G1 F18000.0; feed for start of next move
G1 E196.4; extruder retraction
G1 F1500.0; feed for start of next move
;#!LAYER: 4/69
G28 X0 ;set x 0
G28 Y0 ;set y 0
G92 E0 ;zero the extruded length
G92 E0 ;zero the extruded length
G92 E0 ;zero the extruded length
T1; select new extruder
M113; set extruder to use pot for PWM
G92 E0 ;zero the extruded length
T0; select new extruder
M113; set extruder to use pot for PWM
G1 F50.0; feed for start of next move
G1 Z1.1996 ;z move
T0; select new extruder
M113; set extruder to use pot for PWM
G1 F1500.0; feed for start of next move
G1 X3.1 Y2.8 F3500.0 ;horizontal move
G1 X6.9 Y6.2 ;horizontal move
G1 X10.0 Y9.0 F1500.0 ;horizontal move
G1 F18000.0; feed for start of next move
G1 E60.0; extruder dwell
G1 F1500.0; feed for start of next move
G1 F3500.0; feed for start of next move
G1 E85.0; extruder dwell
G1 F1500.0; feed for start of next move
G1 Y13.2 E89.2 F3500.0 ;horizontal move
G1 Y14.8 E90.8 ;horizontal move
G1 Y19.0 E95.0 F1500.0 ;horizontal move
G1 X9.0 E96.0 F2156.4 ;horizontal move
G1 X8.0 E97.0 F1500.0 ;horizontal move
G1 Y14.8 E101.2 F3500.0 ;horizontal move
G1 Y11.2 E104.8 ;horizontal move
G1 Y7.0 E109.0 F1500.0 ;horizontal move
G1 X12.2 E113.2 F3500.0 ;horizontal move
G1 X25.8 E126.8 ;horizontal move
G1 X30.0 E131.0 F1500.0 ;horizontal move
G1 Y8.0 E132.0 F2156.4 ;horizontal move
G1 Y9.0 E133.0 F1500.0 ;horizontal move
G1 X25.8 E137.2 F3500.0 ;horizontal move
G1 X14.2 E148.8 ;horizontal move
G1 X10.0 E153.0 F1500.0 ;horizontal move
G1 F18000.0; feed for start of next move
G1 E93.0; extruder retraction
G1 F1500.0; feed for start of next move
G1 X12.5 Y12.3 F3500.0 ;horizontal move
G1 X17.9 Y19.3 ;horizontal move
G1 X20.4 Y22.6 F1500.0 ;horizontal move
G1 F18000.0; feed for start of next move
G1 E153.0; extruder dwell
G1 F1500.0; feed for start of next move
G1 X20.2 Y22.8 E153.3 F1735.3 ;horizontal move
G1 X20.0 Y23.0 E153.6 F1578.2 ;horizontal move
G1 Y23.6 E154.2 F1025.1 ;horizontal move
G1 X20.4 Y23.3 E154.7 F1440.2 ;horizontal move
G1 X20.7 Y23.0 E155.1 F1025.1 ;horizontal move
G1 Y23.6 E155.7 F1531.9 ;horizontal move
G1 X20.3 Y24.0 E156.3 F1920.2 ;horizontal move
G1 X20.0 Y24.4 E156.8 F1604.7 ;horizontal move
G1 Y25.0 E157.4 F995.5 ;horizontal move
G1 X20.4 Y24.7 E157.9 F1435.7 ;horizontal move
G1 X20.7 Y24.4 E158.3 F995.5 ;horizontal move
G1 Y25.0 E158.9 F1559.2 ;horizontal move
G1 X20.3 Y25.5 E159.5 F2017.1 ;horizontal move
G1 X20.0 Y25.8 E159.9 F1804.0 ;horizontal move
G1 Y26.3 E160.4 F1399.5 ;horizontal move
G1 X19.7 Y26.6 E160.9 F969.7 ;horizontal move
G1 Y23.9 E163.6 F2723.6 ;horizontal move
G1 Y21.8 E165.7 F1494.0 ;horizontal move
G1 X22.9 E168.9 F3150.0 ;horizontal move
G1 X24.0 E170.0 ;horizontal move
G1 X27.2 E173.2 F1496.7 ;horizontal move
G1 Y24.3 E175.7 F2844.0 ;horizontal move
G1 Y26.7 E178.1 F1507.1 ;horizontal move
G1 X24.0 E181.3 F3150.0 ;horizontal move
G1 X23.5 E181.8 ;horizontal move
G1 X19.7 Y26.6 E185.6 F974.0 ;horizontal move
G1 X20.0 Y26.3 E186.0 F1402.4 ;horizontal move
G1 Y25.8 E186.5 F1806.3 ;horizontal move
G1 X20.3 Y25.5 E186.9 F2018.2 ;horizontal move
G1 X20.7 Y25.0 E187.6 F1559.2 ;horizontal move
G1 Y24.4 E188.2 F995.5 ;horizontal move
G1 X20.4 Y24.7 E188.6 F1435.7 ;horizontal move
G1 X20.0 Y25.0 E189.1 F995.5 ;horizontal move
G1 Y24.4 E189.7 F1604.7 ;horizontal move
G1 X20.3 Y24.0 E190.2 F1920.2 ;horizontal move
G1 X20.7 Y23.6 E190.7 F1531.9 ;horizontal move
G1 Y23.0 E191.3 F1025.1 ;horizontal move
G1 X20.4 Y23.3 E191.8 F1440.2 ;horizontal move
G1 X20.0 Y23.6 E192.3 F1025.1 ;horizontal move
G1 Y23.0 E192.9 F1578.2 ;horizontal move
G1 X20.2 Y22.8 E193.2 F1735.3 ;horizontal move
G1 F18000.0; feed for start of next move
G1 E133.2; extruder retraction
G1 F1500.0; feed for start of next move
G1 X20.4 Y22.6 F3500.0 ;horizontal move
G1 F1500.0; feed for start of next move
G1 X23.5 Y22.7 F3113.0 ;horizontal move
G1 X26.6 F1500.0 ;horizontal move
G1 F18000.0; feed for start of next move
G1 E193.2; extruder dwell
G1 F1500.0; feed for start of next move
G1 X27.0 Y22.3 E193.7 F1915.8 ;horizontal move
G1 X27.7 Y21.4 E194.9 F922.0 ;horizontal move
G1 Y24.6 E198.1 F2922.7 ;horizontal move
G1 Y27.2 E200.7 F1505.2 ;horizontal move
G1 X24.5 E203.9 F3150.0 ;horizontal move
G1 X22.4 Y27.1 E206.0 ;horizontal move
G1 X19.3 E209.1 F1511.8 ;horizontal move
G1 Y24.2 E212.0 F3040.4 ;horizontal move
G1 Y21.3 E214.9 F1494.7 ;horizontal move
G1 X22.5 E218.1 F3150.0 ;horizontal move
G1 X24.0 E219.6 ;horizontal move
G1 X27.7 Y21.4 E223.3 F1020.2 ;horizontal move
G1 X27.0 Y22.2 E224.3 F1940.5 ;horizontal move
G1 F18000.0; feed for start of next move
G1 E164.3; extruder retraction
G1 F1500.0; feed for start of next move
G1 X26.6 Y22.7 F3500.0 ;horizontal move
G1 F18000.0; feed for start of next move
G1 E224.3; extruder dwell
G1 F1500.0; feed for start of next move
G1 X26.4 Y23.0 E224.7 F1748.3 ;horizontal move
G1 X26.2 Y23.2 E225.0 F1574.8 ;horizontal move
G1 Y23.8 E225.6 F1019.9 ;horizontal move
G1 X26.6 Y23.5 E226.1 F1471.3 ;horizontal move
G1 X26.9 Y23.2 E226.5 F1019.9 ;horizontal move
G1 Y23.7 E227.0 F1528.4 ;horizontal move
G1 X26.6 Y24.2 E227.6 F1940.2 ;horizontal move
G1 X26.2 Y24.6 E228.1 F1557.7 ;horizontal move
G1 Y25.2 E228.7 F993.2 ;horizontal move
G1 X26.6 Y24.9 E229.2 F1469.2 ;horizontal move
G1 X26.9 Y24.5 E229.7 F993.2 ;horizontal move
G1 Y25.1 E230.3 F1557.7 ;horizontal move
G1 X26.4 Y25.8 E231.2 F2141.3 ;horizontal move
G1 X26.2 Y26.0 E231.5 F2022.0 ;horizontal move
G1 Y26.3 E231.8 F1835.4 ;horizontal move
G1 X26.3 Y26.4 E231.9 F1720.9 ;horizontal move
G1 X26.5 Y26.3 E232.2 F1878.2 ;horizontal move
G1 X26.9 Y25.9 E232.7 F1500.0 ;horizontal move
G1 F18000.0; feed for start of next move
G1 E172.7; extruder retraction
G1 F1500.0; feed for start of next move
G1 X26.2 Y26.0 F2013.5 ;horizontal move
G1 X25.4 F1500.0 ;horizontal move
G1 F18000.0; feed for start of next move
G1 E232.7; extruder dwell
G1 F1500.0; feed for start of next move
G1 X25.0 Y26.4 E233.3 F1920.9 ;horizontal move
G1 X24.6 E233.7 F2157.9 ;horizontal move
G1 X23.0 Y26.3 E235.3 F1006.6 ;horizontal move
G1 X25.0 Y24.2 E238.2 F2814.1 ;horizontal move
G1 X25.4 Y23.8 E238.8 F2523.5 ;horizontal move
G1 Y22.1 E240.5 F1574.0 ;horizontal move
G1 X25.1 E240.8 F1747.4 ;horizontal move
G1 X23.7 Y23.6 E242.8 F2822.9 ;horizontal move
G1 X21.5 Y25.6 E245.8 F983.4 ;horizontal move
G1 Y23.6 E247.8 F2391.5 ;horizontal move
G1 X21.8 Y23.3 E248.2 F2555.4 ;horizontal move
G1 X23.0 Y22.1 E249.9 F1500.0 ;horizontal move
G1 F18000.0; feed for start of next move
G1 E189.9; extruder retraction
G1 F1500.0; feed for start of next move
;#!LAYER: 5/69
G28 X0 ;set x 0
G28 Y0 ;set y 0
G92 E0 ;zero the extruded length
G92 E0 ;zero the extruded length
G92 E0 ;zero the extruded length
T1; select new extruder
M113; set extruder to use pot for PWM
G92 E0 ;zero the extruded length
T0; select new extruder
M113; set extruder to use pot for PWM
G1 F50.0; feed for start of next move
G1 Z1.4996 ;z move
T0; select new extruder
M113; set extruder to use pot for PWM
G1 F1500.0; feed for start of next move
G1 X3.1 Y2.8 F3500.0 ;horizontal move
G1 X6.9 Y6.2 ;horizontal move
G1 X10.0 Y9.0 F1500.0 ;horizontal move
G1 F18000.0; feed for start of next move
G1 E60.0; extruder dwell
G1 F1500.0; feed for start of next move
G1 F3500.0; feed for start of next move
G1 E85.0; extruder dwell
G1 F1500.0; feed for start of next move
G1 Y13.2 E89.2 F3500.0 ;horizontal move
G1 Y14.8 E90.8 ;horizontal move
G1 Y19.0 E95.0 F1500.0 ;horizontal move
G1 X9.0 E96.0 F2156.4 ;horizontal move
G1 X8.0 E97.0 F1500.0 ;horizontal move
G1 Y14.8 E101.2 F3500.0 ;horizontal move
G1 Y11.2 E104.8 ;horizontal move
G1 Y7.0 E109.0 F1500.0 ;horizontal move
G1 X12.2 E113.2 F3500.0 ;horizontal move
G1 X25.8 E126.8 ;horizontal move
G1 X30.0 E131.0 F1500.0 ;horizontal move
G1 Y8.0 E132.0 F2156.4 ;horizontal move
G1 Y9.0 E133.0 F1500.0 ;horizontal move
G1 X25.8 E137.2 F3500.0 ;horizontal move
G1 X14.2 E148.8 ;horizontal move
G1 X10.0 E153.0 F1500.0 ;horizontal move
G1 F18000.0; feed for start of next move
G1 E93.0; extruder retraction
G1 F1500.0; feed for start of next move
G1 X12.2 Y12.5 F3500.0 ;horizontal move
G1 X17.5 Y21.2 ;horizontal move
G1 X19.7 Y24.7 F1500.0 ;horizontal move
G1 F18000.0; feed for start of next move
G1 E153.0; extruder dwell
G1 F1500.0; feed for start of next move
G1 X19.5 Y24.5 E153.3 F1698.3 ;horizontal move
G1 X19.4 Y24.4 E153.4 F1611.3 ;horizontal move
G1 Y23.8 E154.0 F1006.1 ;horizontal move
G1 X19.7 Y24.0 E154.4 F1333.3 ;horizontal move
G1 X19.9 Y24.2 E154.7 F1006.1 ;horizontal move
G1 Y23.6 E155.3 F1566.0 ;horizontal move
G1 X19.4 Y23.0 E156.0 F2072.8 ;horizontal move
G1 Y22.4 E156.6 F1719.2 ;horizontal move
G1 X19.1 Y21.8 E157.3 F1160.0 ;horizontal move
G1 X22.7 E160.9 F3150.0 ;horizontal move
G1 X24.6 E162.8 ;horizontal move
G1 X27.8 E166.0 F1495.9 ;horizontal move
G1 Y24.3 E168.5 F2844.2 ;horizontal move
G1 Y26.7 E170.9 F1508.9 ;horizontal move
G1 X24.6 E174.1 F3150.0 ;horizontal move
G1 X22.3 E176.4 ;horizontal move
G1 X19.1 Y26.6 E179.6 F1511.5 ;horizontal move
G1 Y24.5 E181.7 F2705.2 ;horizontal move
G1 Y21.8 E184.4 F829.2 ;horizontal move
G1 X19.4 Y22.4 E185.1 F1515.8 ;horizontal move
G1 Y23.0 E185.7 F1933.3 ;horizontal move
G1 X19.5 Y23.1 E185.8 F2004.2 ;horizontal move
G1 X19.9 Y23.6 E186.5 F1566.0 ;horizontal move
G1 Y24.2 E187.1 F1006.1 ;horizontal move
G1 X19.7 Y24.0 E187.4 F1333.3 ;horizontal move
G1 X19.4 Y23.8 E187.7 F1006.1 ;horizontal move
G1 Y24.4 E188.3 F1611.3 ;horizontal move
G1 X19.5 Y24.5 E188.5 F1698.3 ;horizontal move
G1 F18000.0; feed for start of next move
G1 E128.5; extruder retraction
G1 F1500.0; feed for start of next move
G1 X19.7 Y24.7 F3500.0 ;horizontal move
G1 F1500.0; feed for start of next move
G1 X23.5 Y24.3 F3379.4 ;horizontal move
G1 X27.3 Y23.9 F1500.0 ;horizontal move
G1 F18000.0; feed for start of next move
G1 E188.5; extruder dwell
G1 F1500.0; feed for start of next move
G1 X27.4 Y24.0 E188.6 F1664.0 ;horizontal move
G1 X27.5 Y24.2 E188.8 F1519.3 ;horizontal move
G1 Y24.7 E189.3 F1006.1 ;horizontal move
G1 X27.3 Y24.5 E189.6 F1333.3 ;horizontal move
G1 X27.1 Y24.3 E189.9 F1006.1 ;horizontal move
G1 Y25.0 E190.6 F1611.3 ;horizontal move
G1 X27.5 Y25.6 E191.3 F2107.2 ;horizontal move
G1 X27.7 Y25.8 E191.6 F2251.2 ;horizontal move
G1 X28.3 Y27.2 E193.1 F1174.6 ;horizontal move
G1 X24.8 E196.6 F3150.0 ;horizontal move
G1 X21.9 E199.5 ;horizontal move
G1 X18.7 E202.7 F1500.0 ;horizontal move
G1 Y24.2 E205.7 F3050.6 ;horizontal move
G1 Y21.3 E208.6 F1500.0 ;horizontal move
G1 X21.9 E211.8 F3150.0 ;horizontal move
G1 X25.1 E215.0 ;horizontal move
G1 X28.3 E218.2 F1500.0 ;horizontal move
G1 Y23.9 E220.8 F2919.0 ;horizontal move
G1 Y27.2 E224.1 F824.2 ;horizontal move
G1 X27.6 Y25.7 E225.8 F2172.0 ;horizontal move
G1 X27.5 Y25.6 E225.9 F2107.2 ;horizontal move
G1 X27.1 Y25.0 E226.6 F1611.3 ;horizontal move
G1 Y24.3 E227.3 F1006.1 ;horizontal move
G1 X27.3 Y24.5 E227.6 F1333.3 ;horizontal move
G1 X27.5 Y24.7 E227.9 F1006.1 ;horizontal move
G1 Y24.2 E228.4 F1519.3 ;horizontal move
G1 X27.4 Y24.0 E228.6 F1664.0 ;horizontal move
G1 F18000.0; feed for start of next move
G1 E168.6; extruder retraction
G1 F1500.0; feed for start of next move
G1 X27.3 Y23.9 F3500.0 ;horizontal move
G1 F18000.0; feed for start of next move
G1 E228.6; extruder dwell
G1 F1500.0; feed for start of next move
G1 X27.1 Y23.6 E229.0 F1698.8 ;horizontal move
G1 Y23.5 E229.1 F1594.5 ;horizontal move
G1 Y22.9 E229.7 F1050.0 ;horizontal move
G1 X27.3 Y23.1 E230.0 F1350.0 ;horizontal move
G1 X27.5 Y23.3 E230.2 F1050.0 ;horizontal move
G1 Y22.7 E230.8 F1548.7 ;horizontal move
G1 X27.3 Y22.5 E231.1 F1801.7 ;horizontal move
G1 X27.1 Y22.1 E231.6 F1500.0 ;horizontal move
G1 F18000.0; feed for start of next move
G1 E171.6; extruder retraction
G1 F1500.0; feed for start of next move
G1 X26.4 F2012.5 ;horizontal move
G1 X25.6 F1500.0 ;horizontal move
G1 F18000.0; feed for start of next move
G1 E231.6; extruder dwell
G1 F1500.0; feed for start of next move
G1 X26.3 Y22.9 E232.6 F2168.5 ;horizontal move
G1 Y23.1 E232.8 F2267.6 ;horizontal move
G1 Y24.8 E234.5 F986.7 ;horizontal move
G1 X24.1 Y22.8 E237.5 F2859.9 ;horizontal move
G1 X23.3 Y22.1 E238.6 F2388.9 ;horizontal move
G1 X21.4 E240.5 F977.2 ;horizontal move
G1 X23.5 Y24.2 E243.4 F2861.0 ;horizontal move
G1 X25.6 Y26.4 E246.5 F977.2 ;horizontal move
G1 X23.6 E248.5 F2388.9 ;horizontal move
G1 X22.9 Y25.7 E249.5 F2842.2 ;horizontal move
G1 X20.7 Y23.7 E252.5 F987.0 ;horizontal move
G1 Y25.4 E254.2 F2260.1 ;horizontal move
G1 Y25.7 E254.5 F2119.0 ;horizontal move
G1 X21.4 Y26.3 E255.4 F1500.0 ;horizontal move
G1 F18000.0; feed for start of next move
G1 E195.4; extruder retraction
G1 F1500.0; feed for start of next move
G1 X20.7 F2012.5 ;horizontal move
G1 X19.9 F1500.0 ;horizontal move
G1 F18000.0; feed for start of next move
G1 E255.4; extruder dwell
G1 F1500.0; feed for start of next move
G1 X19.6 Y26.0 E255.8 F1806.4 ;horizontal move
G1 X19.4 Y25.8 E256.1 F1594.5 ;horizontal move
G1 Y25.2 E256.7 F1050.0 ;horizontal move
G1 X19.7 Y25.4 E257.0 F1350.0 ;horizontal move
G1 X19.9 Y25.6 E257.3 F1050.0 ;horizontal move
G1 Y25.0 E257.9 F1548.7 ;horizontal move
G1 X19.8 Y24.9 E258.1 F1668.9 ;horizontal move
G1 X19.7 Y24.7 E258.3 F1500.0 ;horizontal move
G1 F18000.0; feed for start of next move
G1 E198.3; extruder retraction
G1 F1500.0; feed for start of next move
;#!LAYER: 6/69
G28 X0 ;set x 0
G28 Y0 ;set y 0
G92 E0 ;zero the extruded length
G92 E0 ;zero the extruded length
G92 E0 ;zero the extruded length
T1; select new extruder
M113; set extruder to use pot for PWM
G92 E0 ;zero the extruded length
T0; select new extruder
M113; set extruder to use pot for PWM
G1 F50.0; feed for start of next move
G1 Z1.7996 ;z move
T0; select new extruder
M113; set extruder to use pot for PWM
G1 F1500.0; feed for start of next move
G1 X3.1 Y2.8 F3500.0 ;horizontal move
G1 X6.9 Y6.2 ;horizontal move
G1 X10.0 Y9.0 F1500.0 ;horizontal move
G1 F18000.0; feed for start of next move
G1 E60.0; extruder dwell
G1 F1500.0; feed for start of next move
G1 F3500.0; feed for start of next move
G1 E85.0; extruder dwell
G1 F1500.0; feed for start of next move
G1 Y13.2 E89.2 F3500.0 ;horizontal move
G1 Y14.8 E90.8 ;horizontal move
G1 Y19.0 E95.0 F1500.0 ;horizontal move
G1 X9.0 E96.0 F2156.4 ;horizontal move
G1 X8.0 E97.0 F1500.0 ;horizontal move
G1 Y14.8 E101.2 F3500.0 ;horizontal move
G1 Y11.2 E104.8 ;horizontal move
G1 Y7.0 E109.0 F1500.0 ;horizontal move
G1 X12.2 E113.2 F3500.0 ;horizontal move
G1 X25.8 E126.8 ;horizontal move
G1 X30.0 E131.0 F1500.0 ;horizontal move
G1 Y8.0 E132.0 F2156.4 ;horizontal move
G1 Y9.0 E133.0 F1500.0 ;horizontal move
G1 X25.8 E137.2 F3500.0 ;horizontal move
G1 X14.2 E148.8 ;horizontal move
G1 X10.0 E153.0 F1500.0 ;horizontal move
G1 F18000.0; feed for start of next move
G1 E93.0; extruder retraction
G1 F1500.0; feed for start of next move
G1 X12.0 Y12.7 F3500.0 ;horizontal move
G1 X17.0 Y22.1 ;horizontal move
G1 X19.0 Y25.8 F1500.0 ;horizontal move
G1 F18000.0; feed for start of next move
G1 E153.0; extruder dwell
G1 F1500.0; feed for start of next move
G1 Y26.1 E153.3 F1744.1 ;horizontal move
G1 X18.8 Y26.3 E153.6 F1875.5 ;horizontal move
G1 X18.2 Y27.2 E154.7 F892.0 ;horizontal move
G1 Y23.9 E158.0 F2929.0 ;horizontal move
G1 Y21.3 E160.6 F1500.0 ;horizontal move
G1 X21.4 E163.8 F3150.0 ;horizontal move
G1 X25.6 E168.0 ;horizontal move
G1 X28.8 E171.2 F1500.0 ;horizontal move
G1 Y24.2 E174.1 F3050.6 ;horizontal move
G1 Y27.2 E177.1 F1500.0 ;horizontal move
G1 X25.6 E180.3 F3150.0 ;horizontal move
G1 X21.8 E184.1 ;horizontal move
G1 X18.2 E187.7 F1060.9 ;horizontal move
G1 X19.0 Y26.1 E189.0 F2079.1 ;horizontal move
G1 F18000.0; feed for start of next move
G1 E129.0; extruder retraction
G1 F1500.0; feed for start of next move
G1 Y25.8 F3500.0 ;horizontal move
G1 F1500.0; feed for start of next move
G1 X22.9 Y24.5 F3500.0 ;horizontal move
G1 X24.0 Y24.1 ;horizontal move
G1 X27.9 Y22.8 F1500.0 ;horizontal move
G1 F18000.0; feed for start of next move
G1 E189.0; extruder dwell
G1 F1500.0; feed for start of next move
G1 X28.0 Y22.6 E189.2 F1659.8 ;horizontal move
G1 X28.3 Y21.8 E190.1 F804.2 ;horizontal move
G1 Y24.6 E192.9 F2701.1 ;horizontal move
G1 Y26.7 E195.0 F1510.1 ;horizontal move
G1 X25.1 E198.2 F3150.0 ;horizontal move
G1 X21.8 E201.5 ;horizontal move
G1 X18.7 Y26.6 E204.6 F1510.3 ;horizontal move
G1 Y24.2 E207.0 F2844.4 ;horizontal move
G1 Y21.8 E209.4 F1495.3 ;horizontal move
G1 X21.9 E212.6 F3150.0 ;horizontal move
G1 X24.8 E215.5 ;horizontal move
G1 X28.3 E219.0 F1215.8 ;horizontal move
G1 X28.0 Y22.6 E219.9 F1830.4 ;horizontal move
G1 F18000.0; feed for start of next move
G1 E159.9; extruder retraction
G1 F1500.0; feed for start of next move
G1 X27.9 Y22.8 F3500.0 ;horizontal move
G1 F18000.0; feed for start of next move
G1 E219.9; extruder dwell
G1 F1500.0; feed for start of next move
G1 X27.8 Y23.0 E220.1 F1657.6 ;horizontal move
G1 X27.7 Y23.1 E220.2 F1582.4 ;horizontal move
G1 Y23.7 E220.8 F1031.5 ;horizontal move
G1 X27.9 Y23.6 E221.0 F1234.9 ;horizontal move
G1 X28.0 Y23.5 E221.2 F1031.5 ;horizontal move
G1 Y24.1 E221.8 F1582.4 ;horizontal move
G1 X27.8 Y24.3 E222.1 F1792.2 ;horizontal move
G1 X27.7 Y24.5 E222.3 F1637.5 ;horizontal move
G1 Y25.1 E222.9 F1114.1 ;horizontal move
G1 X27.9 Y25.0 E223.1 F1288.8 ;horizontal move
G1 X28.0 Y24.9 E223.3 F1114.1 ;horizontal move
G1 Y25.4 E223.8 F1547.0 ;horizontal move
G1 X27.8 Y25.7 E224.1 F1805.5 ;horizontal move
G1 X27.7 Y25.9 E224.3 F1626.0 ;horizontal move
G1 Y26.4 E224.8 F1221.5 ;horizontal move
G1 X28.0 Y26.3 E225.2 F1502.9 ;horizontal move
G1 F18000.0; feed for start of next move
G1 E165.2; extruder retraction
G1 F1500.0; feed for start of next move
G1 X27.5 Y25.4 F2186.6 ;horizontal move
G1 X26.9 Y24.5 F1500.0 ;horizontal move
G1 F18000.0; feed for start of next move
G1 E225.2; extruder dwell
G1 F1500.0; feed for start of next move
G1 X25.4 Y26.0 E227.3 F2691.2 ;horizontal move
G1 X25.0 Y26.4 E227.8 F2390.7 ;horizontal move
G1 X23.0 E229.8 F981.6 ;horizontal move
G1 X25.5 Y23.7 E233.5 F3139.7 ;horizontal move
G1 X26.9 Y22.3 E235.5 F2236.7 ;horizontal move
G1 Y22.1 E235.7 F2132.5 ;horizontal move
G1 X25.2 E237.4 F2929.1 ;horizontal move
G1 X24.1 Y23.1 E238.9 F3500.0 ;horizontal move
G1 X23.1 Y24.1 E240.3 ;horizontal move
G1 X20.7 Y26.4 E243.6 F2101.6 ;horizontal move
G1 X20.0 Y26.3 E244.3 F1681.1 ;horizontal move
G1 Y25.1 E245.5 F2418.7 ;horizontal move
G1 X20.8 Y24.3 E246.7 F2897.6 ;horizontal move
G1 X22.9 Y22.1 E249.7 F980.6 ;horizontal move
G1 X21.0 E251.6 F2336.5 ;horizontal move
G1 X20.9 E251.7 F2281.4 ;horizontal move
G1 X20.0 Y22.9 E252.9 F1500.0 ;horizontal move
G1 F18000.0; feed for start of next move
G1 E192.9; extruder retraction
G1 F1500.0; feed for start of next move
G1 X19.7 Y22.6 F1832.0 ;horizontal move
G1 X19.3 Y22.3 F1500.0 ;horizontal move
G1 F18000.0; feed for start of next move
G1 E252.9; extruder dwell
G1 F1500.0; feed for start of next move
G1 X19.1 Y22.5 E253.2 F1719.9 ;horizontal move
G1 X19.0 Y22.6 E253.3 F1627.3 ;horizontal move
G1 Y23.3 E254.0 F1031.5 ;horizontal move
G1 X19.1 Y23.2 E254.2 F1234.9 ;horizontal move
G1 X19.3 Y23.0 E254.5 F1031.5 ;horizontal move
G1 Y23.5 E255.0 F1488.6 ;horizontal move
G1 X19.1 Y23.9 E255.4 F1786.0 ;horizontal move
G1 X19.0 Y24.1 E255.6 F1637.5 ;horizontal move
G1 Y24.7 E256.2 F1114.1 ;horizontal move
G1 X19.1 Y24.6 E256.4 F1288.8 ;horizontal move
G1 X19.3 Y24.5 E256.6 F1114.1 ;horizontal move
G1 Y25.0 E257.1 F1592.9 ;horizontal move
G1 X19.0 Y25.3 E257.5 F1846.3 ;horizontal move
G1 Y25.4 E257.6 F1744.1 ;horizontal move
G1 Y25.8 E258.0 F1500.0 ;horizontal move
G1 F18000.0; feed for start of next move
G1 E198.0; extruder retraction
G1 F1500.0; feed for start of next move
;#!LAYER: 7/69
G28 X0 ;set x 0
G28 Y0 ;set y 0
G92 E0 ;zero the extruded length
G92 E0 ;zero the extruded length
G92 E0 ;zero the extruded length
T1; select new extruder
M113; set extruder to use pot for PWM
G92 E0 ;zero the extruded length
T0; select new extruder
M113; set extruder to use pot for PWM
G1 F50.0; feed for start of next move
G1 Z2.0996 ;z move
T0; select new extruder
M113; set extruder to use pot for PWM
G1 F1500.0; feed for start of next move
G1 X3.1 Y2.8 F3500.0 ;horizontal move
G1 X6.9 Y6.2 ;horizontal move
G1 X10.0 Y9.0 F1500.0 ;horizontal move
G1 F18000.0; feed for start of next move
G1 E60.0; extruder dwell
G1 F1500.0; feed for start of next move
G1 F3500.0; feed for start of next move
G1 E85.0; extruder dwell
G1 F1500.0; feed for start of next move
G1 Y13.2 E89.2 F3500.0 ;horizontal move
G1 Y14.8 E90.8 ;horizontal move
G1 Y19.0 E95.0 F1500.0 ;horizontal move
G1 X9.0 E96.0 F2156.4 ;horizontal move
G1 X8.0 E97.0 F1500.0 ;horizontal move
G1 Y14.8 E101.2 F3500.0 ;horizontal move
G1 Y11.2 E104.8 ;horizontal move
G1 Y7.0 E109.0 F1500.0 ;horizontal move
G1 X12.2 E113.2 F3500.0 ;horizontal move
G1 X25.8 E126.8 ;horizontal move
G1 X30.0 E131.0 F1500.0 ;horizontal move
G1 Y8.0 E132.0 F2156.4 ;horizontal move
G1 Y9.0 E133.0 F1500.0 ;horizontal move
G1 X25.8 E137.2 F3500.0 ;horizontal move
G1 X14.2 E148.8 ;horizontal move
G1 X10.0 E153.0 F1500.0 ;horizontal move
G1 F18000.0; feed for start of next move
G1 E93.0; extruder retraction
G1 F1500.0; feed for start of next move
G1 X13.2 Y11.7 F3500.0 ;horizontal move
G1 X22.4 Y19.4 ;horizontal move
G1 X25.6 Y22.1 F1500.0 ;horizontal move
G1 F18000.0; feed for start of next move
G1 E153.0; extruder dwell
G1 F1500.0; feed for start of next move
G1 X25.4 Y18.9 E156.2 F3150.0 ;horizontal move
G1 X25.2 Y15.6 E159.5 ;horizontal move
G1 X25.0 Y12.3 E162.8 F1384.3 ;horizontal move
G1 X25.5 E163.3 F1761.8 ;horizontal move
G1 X25.6 Y12.4 E163.5 F1686.5 ;horizontal move
G1 X25.7 Y15.3 E166.4 F3150.0 ;horizontal move
G1 Y18.8 E169.9 ;horizontal move
G1 Y21.2 E172.3 F2043.0 ;horizontal move
G1 X26.1 Y21.3 E172.7 F2254.9 ;horizontal move
G1 X27.1 E173.7 F2753.4 ;horizontal move
G1 X29.3 Y21.4 E175.9 F1562.2 ;horizontal move
G1 Y24.3 E178.8 F3041.6 ;horizontal move
G1 Y27.2 E181.7 F1496.1 ;horizontal move
G1 X26.1 E184.9 F3150.0 ;horizontal move
G1 X20.9 Y27.1 E190.1 ;horizontal move
G1 X17.8 E193.2 F1508.6 ;horizontal move
G1 Y24.2 E196.1 F3040.9 ;horizontal move
G1 Y21.3 E199.0 F1500.0 ;horizontal move
G1 X21.0 E202.2 F3150.0 ;horizontal move
G1 X23.8 E205.0 ;horizontal move
G1 X24.7 E205.9 F2786.1 ;horizontal move
G1 X24.8 Y21.2 E206.0 F2691.3 ;horizontal move
G1 X25.0 Y20.6 E206.7 F2927.6 ;horizontal move
G1 Y20.1 E207.2 F3150.0 ;horizontal move
G1 Y16.2 E211.1 ;horizontal move
G1 Y12.3 E215.0 F751.5 ;horizontal move
G1 X25.2 Y16.2 E218.9 F3150.0 ;horizontal move
G1 X25.4 Y18.9 E221.6 ;horizontal move
G1 F18000.0; feed for start of next move
G1 E161.6; extruder retraction
G1 F1500.0; feed for start of next move
G1 X25.6 Y22.1 F3500.0 ;horizontal move
G1 F1500.0; feed for start of next move
G1 X27.1 Y24.3 F2911.0 ;horizontal move
G1 X28.5 Y26.4 F1500.0 ;horizontal move
G1 F18000.0; feed for start of next move
G1 E221.6; extruder dwell
G1 F1500.0; feed for start of next move
G1 X28.7 Y26.7 E221.9 F1024.8 ;horizontal move
G1 X25.0 E225.6 F3150.0 ;horizontal move
G1 X21.4 Y26.6 E229.2 ;horizontal move
G1 X18.2 E232.4 F1518.9 ;horizontal move
G1 Y24.2 E234.8 F2839.2 ;horizontal move
G1 Y21.8 E237.2 F1515.0 ;horizontal move
G1 X21.4 E240.4 F3150.0 ;horizontal move
G1 X23.9 Y21.7 E242.9 ;horizontal move
G1 X24.8 E243.8 F2762.5 ;horizontal move
G1 X25.4 Y21.5 E244.5 F2492.6 ;horizontal move
G1 X25.9 Y21.8 E245.0 F2774.1 ;horizontal move
G1 X26.3 E245.4 F2916.3 ;horizontal move
G1 X28.8 Y21.9 E247.9 F1548.1 ;horizontal move
G1 Y24.0 E250.0 F2717.0 ;horizontal move
G1 X28.7 Y26.7 E252.7 F920.3 ;horizontal move
G1 X28.5 Y26.4 E253.1 F1367.7 ;horizontal move
G1 F18000.0; feed for start of next move
G1 E193.1; extruder retraction
G1 F1500.0; feed for start of next move
G1 F18000.0; feed for start of next move
G1 E253.1; extruder dwell
G1 F1500.0; feed for start of next move
G1 X28.3 Y26.2 E253.4 F1695.7 ;horizontal move
G1 Y25.5 E254.1 F1050.0 ;horizontal move
G1 X28.4 Y25.6 E254.2 F1209.3 ;horizontal move
G1 X28.5 Y25.7 E254.4 F1050.0 ;horizontal move
G1 Y25.2 E254.9 F1501.5 ;horizontal move
G1 X28.3 Y24.9 E255.2 F1780.3 ;horizontal move
G1 Y24.7 E255.4 F1672.2 ;horizontal move
G1 Y24.1 E256.0 F1164.6 ;horizontal move
G1 X28.4 Y24.2 E256.2 F1295.5 ;horizontal move
G1 X28.5 E256.3 F1164.6 ;horizontal move
G1 Y23.8 E256.7 F1583.8 ;horizontal move
G1 X28.4 Y23.5 E257.0 F1782.7 ;horizontal move
G1 X28.3 Y23.3 E257.2 F1639.1 ;horizontal move
G1 Y22.7 E257.8 F1050.0 ;horizontal move
G1 X28.4 Y22.8 E258.0 F1209.3 ;horizontal move
G1 X28.5 Y22.9 E258.1 F1050.0 ;horizontal move
G1 Y22.3 E258.7 F1593.8 ;horizontal move
G1 Y22.1 E258.9 F1500.0 ;horizontal move
G1 F18000.0; feed for start of next move
G1 E198.9; extruder retraction
G1 F1500.0; feed for start of next move
G1 X27.1 F2393.7 ;horizontal move
G1 X25.6 F1500.0 ;horizontal move
G1 F18000.0; feed for start of next move
G1 E258.9; extruder dwell
G1 F1500.0; feed for start of next move
G1 X27.0 Y23.6 E260.9 F2715.5 ;horizontal move
G1 X27.5 Y24.2 E261.7 F2360.3 ;horizontal move
G1 Y26.1 E263.6 F981.4 ;horizontal move
G1 X24.7 Y23.4 E267.5 F3211.2 ;horizontal move
G1 X23.3 Y22.1 E269.4 F2388.9 ;horizontal move
G1 X21.4 E271.3 F977.2 ;horizontal move
G1 X23.5 Y24.2 E274.3 F2861.0 ;horizontal move
G1 X25.6 Y26.4 E277.3 F977.2 ;horizontal move
G1 X23.6 E279.3 F2388.9 ;horizontal move
G1 X22.2 Y25.1 E281.3 F3195.3 ;horizontal move
G1 X19.4 Y22.4 E285.1 F981.6 ;horizontal move
G1 Y24.4 E287.1 F2390.7 ;horizontal move
G1 X19.9 Y24.9 E287.8 F2709.8 ;horizontal move
G1 X21.4 Y26.4 E290.0 F1500.0 ;horizontal move
G1 F18000.0; feed for start of next move
G1 E230.0; extruder retraction
G1 F1500.0; feed for start of next move
G1 X20.0 Y26.1 F2414.5 ;horizontal move
G1 X18.5 Y25.7 F1500.0 ;horizontal move
G1 F18000.0; feed for start of next move
G1 E290.0; extruder dwell
G1 F1500.0; feed for start of next move
G1 X18.6 Y23.9 E291.8 F2549.2 ;horizontal move
G1 Y22.1 E293.6 F1500.0 ;horizontal move
G1 F18000.0; feed for start of next move
G1 E233.6; extruder retraction
G1 F1500.0; feed for start of next move
;#!LAYER: 8/69
G28 X0 ;set x 0
G28 Y0 ;set y 0
G92 E0 ;zero the extruded length
G92 E0 ;zero the extruded length
G92 E0 ;zero the extruded length
T1; select new extruder
M113; set extruder to use pot for PWM
G92 E0 ;zero the extruded length
T0; select new extruder
M113; set extruder to use pot for PWM
G1 F50.0; feed for start of next move
G1 Z2.3996 ;z move
T0; select new extruder
M113; set extruder to use pot for PWM
G1 F1500.0; feed for start of next move
G1 X3.1 Y2.8 F3500.0 ;horizontal move
G1 X6.9 Y6.2 ;horizontal move
G1 X10.0 Y9.0 F1500.0 ;horizontal move
G1 F18000.0; feed for start of next move
G1 E60.0; extruder dwell
G1 F1500.0; feed for start of next move
G1 F3500.0; feed for start of next move
G1 E85.0; extruder dwell
G1 F1500.0; feed for start of next move
G1 Y13.2 E89.2 F3500.0 ;horizontal move
G1 Y14.8 E90.8 ;horizontal move
G1 Y19.0 E95.0 F1500.0 ;horizontal move
G1 X9.0 E96.0 F2156.4 ;horizontal move
G1 X8.0 E97.0 F1500.0 ;horizontal move
G1 Y14.8 E101.2 F3500.0 ;horizontal move
G1 Y11.2 E104.8 ;horizontal move
G1 Y7.0 E109.0 F1500.0 ;horizontal move
G1 X12.2 E113.2 F3500.0 ;horizontal move
G1 X25.8 E126.8 ;horizontal move
G1 X30.0 E131.0 F1500.0 ;horizontal move
G1 Y8.0 E132.0 F2156.4 ;horizontal move
G1 Y9.0 E133.0 F1500.0 ;horizontal move
G1 X25.8 E137.2 F3500.0 ;horizontal move
G1 X14.2 E148.8 ;horizontal move
G1 X10.0 E153.0 F1500.0 ;horizontal move
G1 F18000.0; feed for start of next move
G1 E93.0; extruder retraction
G1 F1500.0; feed for start of next move
G1 X14.1 Y9.9 F3500.0 ;horizontal move
G1 X21.6 Y11.4 ;horizontal move
G1 X25.7 Y12.3 F1500.0 ;horizontal move
G1 F18000.0; feed for start of next move
G1 E153.0; extruder dwell
G1 F1500.0; feed for start of next move
G1 Y15.5 E156.2 F3150.0 ;horizontal move
G1 Y19.6 E160.3 ;horizontal move
G1 Y21.0 E161.7 F2556.3 ;horizontal move
G1 X26.0 Y21.3 E162.1 F2767.6 ;horizontal move
G1 X26.7 E162.8 F3052.4 ;horizontal move
G1 X29.6 Y21.4 E165.7 F1527.5 ;horizontal move
G1 Y24.2 E168.5 F3043.8 ;horizontal move
G1 Y27.2 E171.5 F1492.7 ;horizontal move
G1 X26.4 Y27.1 E174.7 F3150.0 ;horizontal move
G1 X20.5 E180.6 ;horizontal move
G1 X17.3 E183.8 F1516.1 ;horizontal move
G1 Y24.2 E186.7 F3030.9 ;horizontal move
G1 Y21.3 E189.6 F1500.0 ;horizontal move
G1 X19.8 E192.1 F2852.5 ;horizontal move
G1 X20.2 E192.5 F2666.7 ;horizontal move
G1 X20.4 Y21.1 E192.8 F2778.9 ;horizontal move
G1 X20.5 Y20.5 E193.4 F3031.6 ;horizontal move
G1 Y20.2 E193.7 F3150.0 ;horizontal move
G1 Y15.5 E198.4 ;horizontal move
G1 Y12.3 E201.6 F1500.0 ;horizontal move
G1 X20.7 E201.8 F1615.5 ;horizontal move
G1 X20.8 E201.9 F1500.0 ;horizontal move
G1 Y15.5 E205.1 F3150.0 ;horizontal move
G1 Y19.2 E208.8 ;horizontal move
G1 Y21.0 E210.6 F2377.4 ;horizontal move
G1 X20.9 Y21.2 E210.8 F2237.9 ;horizontal move
G1 X22.9 E212.8 F3110.1 ;horizontal move
G1 X24.5 E214.4 F2386.9 ;horizontal move
G1 X24.8 Y21.1 E214.8 F2247.9 ;horizontal move
G1 Y19.1 E216.8 F3150.0 ;horizontal move
G1 Y15.5 E220.4 ;horizontal move
G1 Y12.3 E223.6 F1511.2 ;horizontal move
G1 X25.3 E224.1 F1809.7 ;horizontal move
G1 F18000.0; feed for start of next move
G1 E164.1; extruder retraction
G1 F1500.0; feed for start of next move
G1 X25.7 F3500.0 ;horizontal move
G1 F1500.0; feed for start of next move
G1 X23.7 Y16.0 F3500.0 ;horizontal move
G1 X20.2 Y22.5 ;horizontal move
G1 X18.2 Y26.2 F1500.0 ;horizontal move
G1 F18000.0; feed for start of next move
G1 E224.1; extruder dwell
G1 F1500.0; feed for start of next move
G1 X17.8 Y26.6 E224.6 F930.6 ;horizontal move
G1 Y23.9 E227.3 F2737.8 ;horizontal move
G1 Y21.8 E229.4 F1568.7 ;horizontal move
G1 X20.7 Y21.7 E232.3 F3062.5 ;horizontal move
G1 X20.9 E232.5 F3150.0 ;horizontal move
G1 X21.1 Y21.8 E232.7 F3078.7 ;horizontal move
G1 X21.3 E232.9 F3150.0 ;horizontal move
G1 X22.3 E233.9 ;horizontal move
G1 X24.7 Y21.7 E236.4 F2015.4 ;horizontal move
G1 X25.3 Y21.3 E237.1 F1555.6 ;horizontal move
G1 X25.6 Y21.7 E237.6 F1882.7 ;horizontal move
G1 X25.9 Y21.8 E237.9 F2110.7 ;horizontal move
G1 X27.1 E239.1 F2699.6 ;horizontal move
G1 X29.2 E241.2 F1530.6 ;horizontal move
G1 Y24.2 E243.6 F2850.0 ;horizontal move
G1 Y26.7 E246.1 F1496.0 ;horizontal move
G1 X26.0 E249.3 F3150.0 ;horizontal move
G1 X21.5 E253.8 ;horizontal move
G1 X17.8 Y26.6 E257.5 F1014.9 ;horizontal move
G1 X18.2 Y26.2 E258.1 F1508.5 ;horizontal move
G1 F18000.0; feed for start of next move
G1 E198.1; extruder retraction
G1 F1500.0; feed for start of next move
G1 X19.5 Y24.2 F2853.2 ;horizontal move
G1 X20.9 Y22.1 F1500.0 ;horizontal move
G1 F18000.0; feed for start of next move
G1 E258.1; extruder dwell
G1 F1500.0; feed for start of next move
G1 X19.4 Y23.6 E260.2 F2699.7 ;horizontal move
G1 X19.0 Y24.1 E260.8 F2389.1 ;horizontal move
G1 Y26.0 E262.7 F977.6 ;horizontal move
G1 X21.7 Y23.4 E266.5 F3187.2 ;horizontal move
G1 X23.0 Y22.1 E268.3 F2390.5 ;horizontal move
G1 X25.0 E270.3 F981.1 ;horizontal move
G1 X23.0 Y24.2 E273.2 F2853.5 ;horizontal move
G1 X20.9 Y26.4 E276.2 F981.1 ;horizontal move
G1 X22.8 E278.1 F2360.2 ;horizontal move
G1 X24.8 Y24.5 E280.9 F3500.0 ;horizontal move
G1 X24.9 Y24.4 E281.0 ;horizontal move
G1 X25.1 Y24.2 E281.3 F3407.9 ;horizontal move
G1 X27.3 Y22.1 E284.4 F2031.9 ;horizontal move
G1 X28.0 E285.1 F1595.1 ;horizontal move
G1 Y23.3 E286.3 F2360.5 ;horizontal move
G1 X27.2 Y24.2 E287.5 F2891.1 ;horizontal move
G1 X25.1 Y26.4 E290.5 F980.4 ;horizontal move
G1 X27.0 E292.4 F2347.8 ;horizontal move
G1 X27.1 E292.5 F2304.7 ;horizontal move
G1 X28.0 Y25.6 E293.7 F1500.0 ;horizontal move
G1 F18000.0; feed for start of next move
G1 E233.7; extruder retraction
G1 F1500.0; feed for start of next move
;#!LAYER: 9/69
G28 X0 ;set x 0
G28 Y0 ;set y 0
G92 E0 ;zero the extruded length
G92 E0 ;zero the extruded length
G92 E0 ;zero the extruded length
T1; select new extruder
M113; set extruder to use pot for PWM
G92 E0 ;zero the extruded length
T0; select new extruder
M113; set extruder to use pot for PWM
G1 F50.0; feed for start of next move
G1 Z2.6996 ;z move
T0; select new extruder
M113; set extruder to use pot for PWM
G1 F1500.0; feed for start of next move
G1 X3.1 Y2.8 F3500.0 ;horizontal move
G1 X6.9 Y6.2 ;horizontal move
G1 X10.0 Y9.0 F1500.0 ;horizontal move
G1 F18000.0; feed for start of next move
G1 E60.0; extruder dwell
G1 F1500.0; feed for start of next move
G1 F3500.0; feed for start of next move
G1 E85.0; extruder dwell
G1 F1500.0; feed for start of next move
G1 Y13.2 E89.2 F3500.0 ;horizontal move
G1 Y14.8 E90.8 ;horizontal move
G1 Y19.0 E95.0 F1500.0 ;horizontal move
G1 X9.0 E96.0 F2156.4 ;horizontal move
G1 X8.0 E97.0 F1500.0 ;horizontal move
G1 Y14.8 E101.2 F3500.0 ;horizontal move
G1 Y11.2 E104.8 ;horizontal move
G1 Y7.0 E109.0 F1500.0 ;horizontal move
G1 X12.2 E113.2 F3500.0 ;horizontal move
G1 X25.8 E126.8 ;horizontal move
G1 X30.0 E131.0 F1500.0 ;horizontal move
G1 Y8.0 E132.0 F2156.4 ;horizontal move
G1 Y9.0 E133.0 F1500.0 ;horizontal move
G1 X25.8 E137.2 F3500.0 ;horizontal move
G1 X14.2 E148.8 ;horizontal move
G1 X10.0 E153.0 F1500.0 ;horizontal move
G1 F18000.0; feed for start of next move
G1 E93.0; extruder retraction
G1 F1500.0; feed for start of next move
G1 X12.5 Y12.3 F3500.0 ;horizontal move
G1 X18.8 Y20.9 ;horizontal move
G1 X21.3 Y24.2 F1500.0 ;horizontal move
G1 F18000.0; feed for start of next move
G1 E153.0; extruder dwell
G1 F1500.0; feed for start of next move
G1 X19.9 Y22.7 E155.1 F2673.1 ;horizontal move
G1 X19.3 Y22.1 E155.9 F2227.6 ;horizontal move
G1 X17.5 Y21.8 E157.7 F763.3 ;horizontal move
G1 X19.2 Y21.7 E159.4 F2199.6 ;horizontal move
G1 X20.0 E160.2 F1744.6 ;horizontal move
G1 X20.3 Y21.5 E160.6 F1416.1 ;horizontal move
G1 X20.6 Y21.1 E161.1 F918.9 ;horizontal move
G1 Y21.4 E161.4 F1311.6 ;horizontal move
G1 X21.2 Y21.8 E162.1 F1843.8 ;horizontal move
G1 X22.9 Y21.7 E163.8 F2728.3 ;horizontal move
G1 X24.6 E165.5 F1849.9 ;horizontal move
G1 X24.9 Y21.5 E165.9 F1607.0 ;horizontal move
G1 X25.2 Y21.0 E166.5 F1048.8 ;horizontal move
G1 X25.4 Y21.5 E167.0 F1586.9 ;horizontal move
G1 X25.9 Y21.8 E167.6 F1918.1 ;horizontal move
G1 X27.4 E169.1 F2720.0 ;horizontal move
G1 X29.5 E171.2 F1527.0 ;horizontal move
G1 Y24.3 E173.7 F2849.1 ;horizontal move
G1 Y26.7 E176.1 F1496.3 ;horizontal move
G1 X26.3 E179.3 F3150.0 ;horizontal move
G1 X20.6 E185.0 ;horizontal move
G1 X17.5 Y26.6 E188.1 F1508.2 ;horizontal move
G1 Y24.3 E190.4 F2813.7 ;horizontal move
G1 Y21.8 E192.9 F1376.7 ;horizontal move
G1 X19.3 Y22.1 E194.7 F2505.0 ;horizontal move
G1 X19.7 Y22.5 E195.3 F2793.1 ;horizontal move
G1 F18000.0; feed for start of next move
G1 E135.3; extruder retraction
G1 F1500.0; feed for start of next move
G1 X21.3 Y24.2 F3500.0 ;horizontal move
G1 F1500.0; feed for start of next move
G1 X22.4 F2211.3 ;horizontal move
G1 X23.5 F1500.0 ;horizontal move
G1 F18000.0; feed for start of next move
G1 E195.3; extruder dwell
G1 F1500.0; feed for start of next move
G1 X25.3 Y26.0 E197.8 F2905.2 ;horizontal move
G1 X25.7 Y26.4 E198.4 F2682.6 ;horizontal move
G1 X26.5 E199.2 F3029.6 ;horizontal move
G1 X27.7 E200.4 F2531.4 ;horizontal move
G1 X29.9 Y27.2 E202.7 F790.4 ;horizontal move
G1 X26.1 E206.5 F3150.0 ;horizontal move
G1 X20.2 E212.4 ;horizontal move
G1 X17.0 E215.6 F1500.0 ;horizontal move
G1 Y24.2 E218.6 F3067.1 ;horizontal move
G1 Y21.3 E221.5 F1565.9 ;horizontal move
G1 X18.7 Y21.2 E223.2 F2560.9 ;horizontal move
G1 X20.0 E224.5 F1859.8 ;horizontal move
G1 X20.1 Y20.5 E225.2 F2251.4 ;horizontal move
G1 Y18.5 E227.2 F3150.0 ;horizontal move
G1 Y15.5 E230.2 ;horizontal move
G1 Y12.3 E233.4 F1500.0 ;horizontal move
G1 X20.6 E233.9 F1834.0 ;horizontal move
G1 X21.0 E234.3 F1522.1 ;horizontal move
G1 Y15.5 E237.5 F3150.0 ;horizontal move
G1 X21.1 Y18.1 E240.1 ;horizontal move
G1 Y21.2 E243.2 F1522.1 ;horizontal move
G1 X23.3 E245.4 F2746.9 ;horizontal move
G1 X24.5 E246.6 F2170.1 ;horizontal move
G1 X24.7 Y20.7 E247.2 F2475.4 ;horizontal move
G1 Y19.1 E248.8 F3150.0 ;horizontal move
G1 Y15.6 E252.3 ;horizontal move
G1 Y12.3 E255.6 F1407.0 ;horizontal move
G1 X25.4 Y12.4 E256.3 F1908.4 ;horizontal move
G1 X25.7 E256.6 F1726.9 ;horizontal move
G1 Y15.3 E259.5 F3150.0 ;horizontal move
G1 X25.8 Y18.1 E262.3 ;horizontal move
G1 Y21.2 E265.4 F1569.6 ;horizontal move
G1 X27.9 Y21.3 E267.5 F2728.5 ;horizontal move
G1 X30.0 Y21.4 E269.6 F1530.1 ;horizontal move
G1 Y24.1 E272.3 F2992.4 ;horizontal move
G1 X29.9 Y27.2 E275.4 F1264.6 ;horizontal move
G1 X27.7 Y26.4 E277.7 F2717.1 ;horizontal move
G1 X26.7 E278.7 F3108.9 ;horizontal move
G1 X25.7 E279.7 F2682.6 ;horizontal move
G1 X25.3 Y26.0 E280.3 F2905.2 ;horizontal move
G1 F18000.0; feed for start of next move
G1 E220.3; extruder retraction
G1 F1500.0; feed for start of next move
G1 X23.5 Y24.2 F3500.0 ;horizontal move
G1 F1500.0; feed for start of next move
G1 X25.6 Y25.3 F2817.7 ;horizontal move
G1 X27.7 Y26.4 F1500.0 ;horizontal move
G1 F18000.0; feed for start of next move
G1 E280.3; extruder dwell
G1 F1500.0; feed for start of next move
G1 X25.8 Y24.4 E283.1 F2964.2 ;horizontal move
G1 X23.5 Y22.1 E286.3 F981.1 ;horizontal move
G1 X24.6 E287.4 F1885.3 ;horizontal move
G1 X25.3 Y21.8 E288.2 F2289.1 ;horizontal move
G1 X26.2 Y22.8 E289.5 F2915.1 ;horizontal move
G1 X28.5 Y25.0 E292.7 F979.8 ;horizontal move
G1 Y23.1 E294.6 F2326.0 ;horizontal move
G1 Y23.0 E294.7 F2260.2 ;horizontal move
G1 X27.7 Y22.1 E295.9 F1500.0 ;horizontal move
G1 F18000.0; feed for start of next move
G1 E235.9; extruder retraction
G1 F1500.0; feed for start of next move
G1 X25.6 Y23.2 F2808.0 ;horizontal move
G1 X23.5 Y24.2 F1500.0 ;horizontal move
G1 F18000.0; feed for start of next move
G1 E295.9; extruder dwell
G1 F1500.0; feed for start of next move
G1 X21.6 Y22.5 E298.4 F2888.4 ;horizontal move
G1 X21.2 Y22.1 E299.0 F2646.1 ;horizontal move
G1 X19.3 E300.9 F1500.0 ;horizontal move
G1 F18000.0; feed for start of next move
G1 E240.9; extruder retraction
G1 F1500.0; feed for start of next move
G1 X20.3 Y23.2 F2393.7 ;horizontal move
G1 X21.3 Y24.2 F1500.0 ;horizontal move
G1 F18000.0; feed for start of next move
G1 E300.9; extruder dwell
G1 F1500.0; feed for start of next move
G1 X22.1 Y25.1 E302.1 F2268.4 ;horizontal move
G1 X23.3 Y26.3 E303.8 F981.2 ;horizontal move
G1 X21.4 E305.7 F2390.6 ;horizontal move
G1 X20.7 Y25.7 E306.6 F2832.6 ;horizontal move
G1 X18.5 Y23.6 E309.7 F981.3 ;horizontal move
G1 Y25.4 E311.5 F2281.3 ;horizontal move
G1 Y25.6 E311.7 F2166.5 ;horizontal move
G1 X19.3 Y26.3 E312.7 F1500.0 ;horizontal move
G1 F18000.0; feed for start of next move
G1 E252.7; extruder retraction
G1 F1500.0; feed for start of next move
;#!LAYER: 10/69
G28 X0 ;set x 0
G28 Y0 ;set y 0
G92 E0 ;zero the extruded length
G92 E0 ;zero the extruded length
G92 E0 ;zero the extruded length
T1; select new extruder
M113; set extruder to use pot for PWM
G92 E0 ;zero the extruded length
T0; select new extruder
M113; set extruder to use pot for PWM
G1 F50.0; feed for start of next move
G1 Z2.9996 ;z move
T0; select new extruder
M113; set extruder to use pot for PWM
G1 F1500.0; feed for start of next move
G1 X3.1 Y2.8 F3500.0 ;horizontal move
G1 X6.9 Y6.2 ;horizontal move
G1 X10.0 Y9.0 F1500.0 ;horizontal move
G1 F18000.0; feed for start of next move
G1 E60.0; extruder dwell
G1 F1500.0; feed for start of next move
G1 F3500.0; feed for start of next move
G1 E85.0; extruder dwell
G1 F1500.0; feed for start of next move
G1 Y13.2 E89.2 F3500.0 ;horizontal move
G1 Y14.8 E90.8 ;horizontal move
G1 Y19.0 E95.0 F1500.0 ;horizontal move
G1 X9.0 E96.0 F2156.4 ;horizontal move
G1 X8.0 E97.0 F1500.0 ;horizontal move
G1 Y14.8 E101.2 F3500.0 ;horizontal move
G1 Y11.2 E104.8 ;horizontal move
G1 Y7.0 E109.0 F1500.0 ;horizontal move
G1 X12.2 E113.2 F3500.0 ;horizontal move
G1 X25.8 E126.8 ;horizontal move
G1 X30.0 E131.0 F1500.0 ;horizontal move
G1 Y8.0 E132.0 F2156.4 ;horizontal move
G1 Y9.0 E133.0 F1500.0 ;horizontal move
G1 X25.8 E137.2 F3500.0 ;horizontal move
G1 X14.2 E148.8 ;horizontal move
G1 X10.0 E153.0 F1500.0 ;horizontal move
G1 F18000.0; feed for start of next move
G1 E93.0; extruder retraction
G1 F1500.0; feed for start of next move
G1 X12.7 Y12.1 F3500.0 ;horizontal move
G1 X20.4 Y21.0 ;horizontal move
G1 X23.1 Y24.1 F1500.0 ;horizontal move
G1 F18000.0; feed for start of next move
G1 E153.0; extruder dwell
G1 F1500.0; feed for start of next move
G1 X24.0 Y23.2 E154.3 F2294.3 ;horizontal move
G1 X25.3 Y21.8 E156.2 F889.8 ;horizontal move
G1 X24.3 Y22.0 E157.2 F1770.8 ;horizontal move
G1 X23.1 E158.4 F2452.7 ;horizontal move
G1 X21.9 Y23.2 E160.1 F3150.0 ;horizontal move
G1 X19.6 Y25.4 E163.3 ;horizontal move
G1 X18.7 Y26.3 E164.6 F2600.0 ;horizontal move
G1 X16.6 Y27.1 E166.8 F1232.1 ;horizontal move
G1 Y24.1 E169.8 F2977.9 ;horizontal move
G1 Y21.3 E172.6 F1500.0 ;horizontal move
G1 X19.3 E175.3 F2927.2 ;horizontal move
G1 X19.9 E175.9 F2666.7 ;horizontal move
G1 X20.0 Y21.1 E176.1 F2778.9 ;horizontal move
G1 X20.2 Y20.6 E176.7 F3008.3 ;horizontal move
G1 Y20.2 E177.1 F3150.0 ;horizontal move
G1 Y15.5 E181.8 ;horizontal move
G1 Y12.3 E185.0 F1500.0 ;horizontal move
G1 X20.7 E185.5 F1853.6 ;horizontal move
G1 X21.1 E185.9 F1522.3 ;horizontal move
G1 X21.2 Y15.5 E189.1 F3150.0 ;horizontal move
G1 Y18.8 E192.4 ;horizontal move
G1 Y21.2 E194.8 F2042.9 ;horizontal move
G1 X21.6 Y21.3 E195.2 F2254.8 ;horizontal move
G1 X22.9 Y21.2 E196.5 F2868.5 ;horizontal move
G1 X24.4 E198.0 F2144.5 ;horizontal move
G1 X24.6 Y20.7 E198.5 F2414.4 ;horizontal move
G1 Y19.0 E200.2 F3150.0 ;horizontal move
G1 Y15.6 E203.6 ;horizontal move
G1 Y12.3 E206.9 F1407.0 ;horizontal move
G1 X25.3 Y12.4 E207.6 F1908.4 ;horizontal move
G1 X25.6 E207.9 F1727.1 ;horizontal move
G1 Y15.3 E210.8 F3150.0 ;horizontal move
G1 Y18.7 E214.2 ;horizontal move
G1 X25.7 Y21.2 E216.7 F1975.0 ;horizontal move
G1 X26.1 Y21.3 E217.1 F2224.6 ;horizontal move
G1 X27.7 E218.7 F2953.2 ;horizontal move
G1 X30.4 Y21.4 E221.4 F1506.2 ;horizontal move
G1 X30.3 Y24.3 E224.3 F3042.8 ;horizontal move
G1 Y27.2 E227.2 F1509.8 ;horizontal move
G1 X27.1 E230.4 F3150.0 ;horizontal move
G1 X20.5 Y27.1 E237.0 ;horizontal move
G1 X16.6 E240.9 F800.6 ;horizontal move
G1 X18.7 Y26.3 E243.2 F2425.4 ;horizontal move
G1 X19.9 Y25.2 E244.8 F3150.0 ;horizontal move
G1 X21.9 Y23.2 E247.7 ;horizontal move
G1 X23.1 Y22.0 E249.3 F2452.7 ;horizontal move
G1 X24.3 E250.5 F1770.8 ;horizontal move
G1 X25.3 Y21.8 E251.6 F889.8 ;horizontal move
G1 X24.0 Y23.2 E253.5 F2294.3 ;horizontal move
G1 F18000.0; feed for start of next move
G1 E193.5; extruder retraction
G1 F1500.0; feed for start of next move
G1 X23.1 Y24.1 F3500.0 ;horizontal move
G1 F1500.0; feed for start of next move
G1 X25.1 Y24.3 F2637.1 ;horizontal move
G1 X27.0 Y24.5 F1500.0 ;horizontal move
G1 F18000.0; feed for start of next move
G1 E253.5; extruder dwell
G1 F1500.0; feed for start of next move
G1 X28.2 Y23.2 E255.2 F2537.4 ;horizontal move
G1 X28.9 Y22.5 E256.2 F2027.2 ;horizontal move
G1 X29.9 Y21.8 E257.5 F1092.6 ;horizontal move
G1 Y24.5 E260.2 F2748.4 ;horizontal move
G1 Y26.7 E262.4 F1500.0 ;horizontal move
G1 X26.7 E265.6 F3150.0 ;horizontal move
G1 X20.3 E272.0 ;horizontal move
G1 X17.1 E275.2 F1500.0 ;horizontal move
G1 Y24.2 E277.7 F2864.4 ;horizontal move
G1 Y21.8 E280.1 F1533.7 ;horizontal move
G1 X18.8 Y21.7 E281.8 F2529.6 ;horizontal move
G1 X20.0 E283.0 F1840.7 ;horizontal move
G1 X20.4 Y21.5 E283.4 F1532.9 ;horizontal move
G1 X20.6 Y20.9 E284.0 F965.2 ;horizontal move
G1 X20.8 Y21.4 E284.6 F1470.4 ;horizontal move
G1 X21.5 Y21.8 E285.4 F2023.4 ;horizontal move
G1 X22.9 E286.8 F2692.1 ;horizontal move
G1 X24.5 Y21.7 E288.4 F1828.4 ;horizontal move
G1 X24.9 Y21.4 E288.9 F1450.7 ;horizontal move
G1 X25.1 Y20.9 E289.4 F934.9 ;horizontal move
G1 X25.3 Y21.4 E290.0 F1450.7 ;horizontal move
G1 X25.6 Y21.7 E290.4 F1739.7 ;horizontal move
G1 X26.2 Y21.8 E291.0 F2120.1 ;horizontal move
G1 X27.2 E292.0 F2663.9 ;horizontal move
G1 X29.9 E294.7 F877.0 ;horizontal move
G1 X28.9 Y22.5 E295.9 F1919.6 ;horizontal move
G1 X28.1 Y23.3 E297.0 F2495.2 ;horizontal move
G1 F18000.0; feed for start of next move
G1 E237.0; extruder retraction
G1 F1500.0; feed for start of next move
G1 X27.0 Y24.5 F3500.0 ;horizontal move
G1 F1500.0; feed for start of next move
G1 X28.0 Y23.5 F2358.0 ;horizontal move
G1 X28.9 Y22.5 F1500.0 ;horizontal move
G1 F18000.0; feed for start of next move
G1 E297.0; extruder dwell
G1 F1500.0; feed for start of next move
G1 X28.8 Y22.1 E297.5 F1768.0 ;horizontal move
G1 X27.3 E299.0 F2594.0 ;horizontal move
G1 X25.6 Y23.7 E301.3 F3500.0 ;horizontal move
G1 X24.9 Y24.4 E302.3 ;horizontal move
G1 X22.9 Y26.3 E305.0 F2360.0 ;horizontal move
G1 X20.9 E307.0 F980.6 ;horizontal move
G1 X22.2 Y25.0 E308.9 F2312.7 ;horizontal move
G1 X23.1 Y24.1 E310.2 F1500.0 ;horizontal move
G1 F18000.0; feed for start of next move
G1 E250.2; extruder retraction
G1 F1500.0; feed for start of next move
G1 X25.1 Y24.3 F2637.1 ;horizontal move
G1 X27.0 Y24.5 F1500.0 ;horizontal move
G1 F18000.0; feed for start of next move
G1 E310.2; extruder dwell
G1 F1500.0; feed for start of next move
G1 X26.2 Y25.2 E311.2 F2205.0 ;horizontal move
G1 X25.1 Y26.4 E312.8 F978.0 ;horizontal move
G1 X27.1 E314.8 F2389.3 ;horizontal move
G1 X27.4 Y26.1 E315.3 F2633.2 ;horizontal move
G1 X28.9 Y24.7 E317.3 F1500.0 ;horizontal move
G1 F18000.0; feed for start of next move
G1 E257.3; extruder retraction
G1 F1500.0; feed for start of next move
G1 X24.8 Y25.3 F3500.0 ;horizontal move
G1 X22.8 Y25.7 ;horizontal move
G1 X18.7 Y26.3 F1500.0 ;horizontal move
G1 F18000.0; feed for start of next move
G1 E317.3; extruder dwell
G1 F1500.0; feed for start of next move
G1 X18.2 E317.8 F1804.9 ;horizontal move
G1 X18.1 E317.9 F1720.9 ;horizontal move
G1 Y24.9 E319.3 F2504.7 ;horizontal move
G1 X18.7 Y24.3 E320.2 F2891.6 ;horizontal move
G1 X20.8 Y22.0 E323.3 F987.0 ;horizontal move
G1 X20.5 E323.6 F1355.8 ;horizontal move
G1 X19.1 Y22.1 E325.0 F2271.9 ;horizontal move
G1 X18.8 E325.3 F2143.4 ;horizontal move
G1 X18.1 Y22.7 E326.2 F1500.0 ;horizontal move
G1 F18000.0; feed for start of next move
G1 E266.2; extruder retraction
G1 F1500.0; feed for start of next move
;#!LAYER: 11/69
G28 X0 ;set x 0
G28 Y0 ;set y 0
G92 E0 ;zero the extruded length
G92 E0 ;zero the extruded length
G92 E0 ;zero the extruded length
T1; select new extruder
M113; set extruder to use pot for PWM
G92 E0 ;zero the extruded length
T0; select new extruder
M113; set extruder to use pot for PWM
G1 F50.0; feed for start of next move
G1 Z3.2996 ;z move
T0; select new extruder
M113; set extruder to use pot for PWM
G1 F1500.0; feed for start of next move
G1 X3.1 Y2.8 F3500.0 ;horizontal move
G1 X6.9 Y6.2 ;horizontal move
G1 X10.0 Y9.0 F1500.0 ;horizontal move
G1 F18000.0; feed for start of next move
G1 E60.0; extruder dwell
G1 F1500.0; feed for start of next move
G1 F3500.0; feed for start of next move
G1 E85.0; extruder dwell
G1 F1500.0; feed for start of next move
G1 Y13.2 E89.2 F3500.0 ;horizontal move
G1 Y14.8 E90.8 ;horizontal move
G1 Y19.0 E95.0 F1500.0 ;horizontal move
G1 X9.0 E96.0 F2156.4 ;horizontal move
G1 X8.0 E97.0 F1500.0 ;horizontal move
G1 Y14.8 E101.2 F3500.0 ;horizontal move
G1 Y11.2 E104.8 ;horizontal move
G1 Y7.0 E109.0 F1500.0 ;horizontal move
G1 X12.2 E113.2 F3500.0 ;horizontal move
G1 X25.8 E126.8 ;horizontal move
G1 X30.0 E131.0 F1500.0 ;horizontal move
G1 Y8.0 E132.0 F2156.4 ;horizontal move
G1 Y9.0 E133.0 F1500.0 ;horizontal move
G1 X25.8 E137.2 F3500.0 ;horizontal move
G1 X14.2 E148.8 ;horizontal move
G1 X10.0 E153.0 F1500.0 ;horizontal move
G1 F18000.0; feed for start of next move
G1 E93.0; extruder retraction
G1 F1500.0; feed for start of next move
G1 X12.8 Y12.1 F3500.0 ;horizontal move
G1 X20.7 Y21.1 ;horizontal move
G1 X23.5 Y24.2 F1500.0 ;horizontal move
G1 F18000.0; feed for start of next move
G1 E153.0; extruder dwell
G1 F1500.0; feed for start of next move
G1 X21.6 Y22.4 E155.6 F2938.5 ;horizontal move
G1 X21.2 Y22.1 E156.1 F2754.2 ;horizontal move
G1 Y21.1 E157.1 F3150.0 ;horizontal move
G1 X20.6 Y15.6 E162.6 ;horizontal move
G1 X20.3 Y12.3 E166.0 F1381.7 ;horizontal move
G1 X20.9 E166.6 F1835.5 ;horizontal move
G1 X21.2 Y12.4 E166.9 F1632.1 ;horizontal move
G1 X21.3 Y15.4 E169.9 F3150.0 ;horizontal move
G1 Y18.8 E173.3 ;horizontal move
G1 X21.4 Y21.2 E175.7 F2043.0 ;horizontal move
G1 X21.7 Y21.3 E176.0 F2254.9 ;horizontal move
G1 X23.3 E177.6 F2972.9 ;horizontal move
G1 X24.3 Y21.2 E178.6 F2529.4 ;horizontal move
G1 X24.5 Y21.1 E178.8 F2424.6 ;horizontal move
G1 Y19.4 E180.5 F3150.0 ;horizontal move
G1 Y15.5 E184.4 ;horizontal move
G1 Y12.3 E187.6 F1461.1 ;horizontal move
G1 X25.1 E188.2 F1893.9 ;horizontal move
G1 X25.6 Y12.4 E188.7 F1608.3 ;horizontal move
G1 Y15.4 E191.7 F3150.0 ;horizontal move
G1 Y19.2 E195.5 ;horizontal move
G1 Y21.0 E197.3 F2384.2 ;horizontal move
G1 X26.1 Y21.3 E197.9 F2653.8 ;horizontal move
G1 X27.3 E199.1 F3150.0 ;horizontal move
G1 X27.5 E199.3 ;horizontal move
G1 X30.7 Y21.4 E202.5 F1526.2 ;horizontal move
G1 X30.6 Y24.3 E205.4 F3037.8 ;horizontal move
G1 Y27.2 E208.3 F1517.2 ;horizontal move
G1 X27.4 E211.5 F3150.0 ;horizontal move
G1 X19.5 E219.4 ;horizontal move
G1 X16.3 E222.6 F1500.0 ;horizontal move
G1 Y24.2 E225.6 F3050.6 ;horizontal move
G1 Y21.3 E228.5 F1500.0 ;horizontal move
G1 X19.2 E231.4 F3012.1 ;horizontal move
G1 X20.0 E232.2 F2666.7 ;horizontal move
G1 X20.2 Y21.1 E232.5 F2778.9 ;horizontal move
G1 X20.3 Y20.6 E233.0 F3008.3 ;horizontal move
G1 Y20.2 E233.4 F3150.0 ;horizontal move
G1 Y16.2 E237.4 ;horizontal move
G1 Y12.3 E241.3 F753.7 ;horizontal move
G1 X20.7 Y16.2 E245.2 F3150.0 ;horizontal move
G1 X21.2 Y21.1 E250.2 ;horizontal move
G1 Y22.1 E251.2 F2754.2 ;horizontal move
G1 X21.6 Y22.4 E251.7 F2938.5 ;horizontal move
G1 F18000.0; feed for start of next move
G1 E191.7; extruder retraction
G1 F1500.0; feed for start of next move
G1 X23.5 Y24.2 F3500.0 ;horizontal move
G1 F1500.0; feed for start of next move
G1 X24.6 F2184.0 ;horizontal move
G1 X25.6 F1500.0 ;horizontal move
G1 F18000.0; feed for start of next move
G1 E251.7; extruder dwell
G1 F1500.0; feed for start of next move
G1 X24.7 Y23.4 E252.9 F2279.5 ;horizontal move
G1 X23.5 Y22.1 E254.6 F981.1 ;horizontal move
G1 X24.4 E255.5 F1725.8 ;horizontal move
G1 X25.1 Y21.8 E256.3 F2218.3 ;horizontal move
G1 X26.7 Y23.2 E258.4 F3150.0 ;horizontal move
G1 X27.5 Y24.1 E259.6 ;horizontal move
G1 X29.2 Y25.7 E262.0 F2067.0 ;horizontal move
G1 X30.1 Y26.7 E263.3 F1003.8 ;horizontal move
G1 X26.4 E267.0 F3150.0 ;horizontal move
G1 X20.0 E273.4 ;horizontal move
G1 X16.8 E276.6 F1500.0 ;horizontal move
G1 Y24.2 E279.1 F2863.3 ;horizontal move
G1 Y21.8 E281.5 F1529.5 ;horizontal move
G1 X18.7 Y21.7 E283.4 F2632.9 ;horizontal move
G1 X20.2 E284.9 F1859.9 ;horizontal move
G1 X20.5 Y21.5 E285.3 F1555.9 ;horizontal move
G1 X20.7 Y20.9 E285.9 F1027.1 ;horizontal move
G1 X21.1 Y21.6 E286.7 F1712.4 ;horizontal move
G1 X21.7 Y21.8 E287.3 F2073.3 ;horizontal move
G1 X23.7 Y21.7 E289.3 F3036.9 ;horizontal move
G1 X24.5 E290.1 F2715.3 ;horizontal move
G1 X24.7 Y21.4 E290.5 F2846.2 ;horizontal move
G1 X25.0 Y21.2 E290.9 F2683.3 ;horizontal move
G1 Y20.0 E292.1 F3150.0 ;horizontal move
G1 Y16.7 E295.4 ;horizontal move
G1 X25.1 Y12.8 E299.3 F750.3 ;horizontal move
G1 Y16.7 E303.2 F3150.0 ;horizontal move
G1 X25.2 Y20.4 E306.9 ;horizontal move
G1 Y21.3 E307.8 F2802.8 ;horizontal move
G1 X25.4 Y21.5 E308.1 F2910.6 ;horizontal move
G1 Y21.6 E308.2 F2857.5 ;horizontal move
G1 X26.0 Y21.8 E308.8 F3101.5 ;horizontal move
G1 X26.2 E309.0 F3150.0 ;horizontal move
G1 X27.0 E309.8 ;horizontal move
G1 X30.2 Y21.9 E313.0 F1527.2 ;horizontal move
G1 Y24.0 E315.1 F2715.2 ;horizontal move
G1 X30.1 Y26.7 E317.8 F943.9 ;horizontal move
G1 X29.2 Y25.7 E319.1 F2038.5 ;horizontal move
G1 X27.5 Y24.0 E321.5 F3150.0 ;horizontal move
G1 X26.7 Y23.2 E322.7 ;horizontal move
G1 X25.1 Y21.8 E324.8 F2204.0 ;horizontal move
G1 X24.4 Y22.1 E325.6 F1725.8 ;horizontal move
G1 X23.5 E326.5 F981.1 ;horizontal move
G1 X24.7 Y23.4 E328.2 F2279.5 ;horizontal move
G1 F18000.0; feed for start of next move
G1 E268.2; extruder retraction
G1 F1500.0; feed for start of next move
G1 X25.6 Y24.2 F3500.0 ;horizontal move
G1 F1500.0; feed for start of next move
G1 X24.6 F2184.0 ;horizontal move
G1 X23.5 F1500.0 ;horizontal move
G1 F18000.0; feed for start of next move
G1 E328.2; extruder dwell
G1 F1500.0; feed for start of next move
G1 X25.1 Y25.8 E330.5 F2774.7 ;horizontal move
G1 X25.7 Y26.4 E331.3 F2390.5 ;horizontal move
G1 X27.7 E333.3 F981.1 ;horizontal move
G1 X26.4 Y25.1 E335.2 F2279.5 ;horizontal move
G1 X25.6 Y24.2 E336.4 F1500.0 ;horizontal move
G1 F18000.0; feed for start of next move
G1 E276.4; extruder retraction
G1 F1500.0; feed for start of next move
G1 X23.4 Y23.2 F2846.1 ;horizontal move
G1 X21.2 Y22.1 F1500.0 ;horizontal move
G1 F18000.0; feed for start of next move
G1 E336.4; extruder dwell
G1 F1500.0; feed for start of next move
G1 X20.6 Y21.9 E337.0 F1972.8 ;horizontal move
G1 X20.5 E337.1 F2010.7 ;horizontal move
G1 X20.0 Y22.1 E337.7 F1640.3 ;horizontal move
G1 X19.3 E338.4 F981.1 ;horizontal move
G1 X21.3 Y24.2 E341.3 F2853.5 ;horizontal move
G1 X23.4 Y26.4 E344.3 F981.1 ;horizontal move
G1 X21.4 E346.3 F2390.5 ;horizontal move
G1 X20.3 Y25.3 E347.8 F3073.5 ;horizontal move
G1 X17.8 Y22.9 E351.3 F978.6 ;horizontal move
G1 Y24.8 E353.2 F2389.5 ;horizontal move
G1 X18.0 Y25.1 E353.6 F2574.3 ;horizontal move
G1 X19.3 Y26.4 E355.4 F1500.0 ;horizontal move
G1 F18000.0; feed for start of next move
G1 E295.4; extruder retraction
G1 F1500.0; feed for start of next move
;#!LAYER: 12/69
G28 X0 ;set x 0
G28 Y0 ;set y 0
G92 E0 ;zero the extruded length
G92 E0 ;zero the extruded length
G92 E0 ;zero the extruded length
T1; select new extruder
M113; set extruder to use pot for PWM
G92 E0 ;zero the extruded length
T0; select new extruder
M113; set extruder to use pot for PWM
G1 F50.0; feed for start of next move
G1 Z3.5996 ;z move
T0; select new extruder
M113; set extruder to use pot for PWM
G1 F1500.0; feed for start of next move
G1 X3.1 Y2.8 F3500.0 ;horizontal move
G1 X6.9 Y6.2 ;horizontal move
G1 X10.0 Y9.0 F1500.0 ;horizontal move
G1 F18000.0; feed for start of next move
G1 E60.0; extruder dwell
G1 F1500.0; feed for start of next move
G1 F3500.0; feed for start of next move
G1 E85.0; extruder dwell
G1 F1500.0; feed for start of next move
G1 Y13.2 E89.2 F3500.0 ;horizontal move
G1 Y14.8 E90.8 ;horizontal move
G1 Y19.0 E95.0 F1500.0 ;horizontal move
G1 X9.0 E96.0 F2156.4 ;horizontal move
G1 X8.0 E97.0 F1500.0 ;horizontal move
G1 Y14.8 E101.2 F3500.0 ;horizontal move
G1 Y11.2 E104.8 ;horizontal move
G1 Y7.0 E109.0 F1500.0 ;horizontal move
G1 X12.2 E113.2 F3500.0 ;horizontal move
G1 X25.8 E126.8 ;horizontal move
G1 X30.0 E131.0 F1500.0 ;horizontal move
G1 Y8.0 E132.0 F2156.4 ;horizontal move
G1 Y9.0 E133.0 F1500.0 ;horizontal move
G1 X25.8 E137.2 F3500.0 ;horizontal move
G1 X14.2 E148.8 ;horizontal move
G1 X10.0 E153.0 F1500.0 ;horizontal move
G1 F18000.0; feed for start of next move
G1 E93.0; extruder retraction
G1 F1500.0; feed for start of next move
G1 X12.7 Y12.2 F3500.0 ;horizontal move
G1 X20.3 Y21.0 ;horizontal move
G1 X23.0 Y24.2 F1500.0 ;horizontal move
G1 F18000.0; feed for start of next move
G1 E153.0; extruder dwell
G1 F1500.0; feed for start of next move
G1 X21.3 Y25.8 E155.3 F2801.6 ;horizontal move
G1 X20.7 Y26.4 E156.2 F2388.9 ;horizontal move
G1 X18.7 E158.2 F977.2 ;horizontal move
G1 X20.8 Y24.2 E161.2 F2864.2 ;horizontal move
G1 X22.9 Y22.1 E164.2 F996.0 ;horizontal move
G1 X21.4 Y22.0 E165.7 F2174.6 ;horizontal move
G1 X21.2 E165.9 F2070.7 ;horizontal move
G1 X21.1 E166.0 F1991.4 ;horizontal move
G1 X19.3 Y23.7 E168.5 F3150.0 ;horizontal move
G1 X19.1 Y24.0 E168.8 ;horizontal move
G1 X16.5 Y26.7 E172.6 F959.5 ;horizontal move
G1 Y23.9 E175.4 F2744.0 ;horizontal move
G1 Y21.8 E177.5 F1526.6 ;horizontal move
G1 X19.6 Y21.7 E180.6 F3130.3 ;horizontal move
G1 X20.2 E181.2 F2887.5 ;horizontal move
G1 X20.3 E181.3 F2913.6 ;horizontal move
G1 X20.6 Y21.5 E181.6 F2757.2 ;horizontal move
G1 X20.8 Y20.7 E182.5 F3103.9 ;horizontal move
G1 Y20.6 E182.6 F3093.4 ;horizontal move
G1 Y20.5 E182.7 F3150.0 ;horizontal move
G1 X20.9 Y16.9 E186.3 ;horizontal move
G1 Y13.0 E190.2 F750.3 ;horizontal move
G1 X21.0 Y16.9 E194.1 F3150.0 ;horizontal move
G1 Y20.2 E197.4 ;horizontal move
G1 X21.1 Y21.4 E198.6 F2683.3 ;horizontal move
G1 X21.3 Y21.6 E198.9 F2831.0 ;horizontal move
G1 X21.8 Y21.8 E199.4 F3057.5 ;horizontal move
G1 X22.1 E199.7 F3150.0 ;horizontal move
G1 X23.7 Y21.7 E201.3 ;horizontal move
G1 X24.3 E201.9 F2894.8 ;horizontal move
G1 X24.7 Y21.5 E202.3 F2720.9 ;horizontal move
G1 X24.9 Y20.6 E203.3 F3113.9 ;horizontal move
G1 Y20.5 E203.4 F3100.7 ;horizontal move
G1 Y20.4 E203.5 F3150.0 ;horizontal move
G1 Y16.4 E207.5 ;horizontal move
G1 Y12.8 E211.1 F1084.0 ;horizontal move
G1 X25.1 Y12.9 E211.3 F1301.6 ;horizontal move
G1 Y16.3 E214.7 F3150.0 ;horizontal move
G1 X25.2 Y20.5 E218.9 ;horizontal move
G1 Y21.4 E219.8 F2802.9 ;horizontal move
G1 X25.4 Y21.5 E220.0 F2904.5 ;horizontal move
G1 Y21.7 E220.2 F2845.0 ;horizontal move
G1 X25.9 Y21.8 E220.7 F3023.7 ;horizontal move
G1 X26.2 E221.0 F3150.0 ;horizontal move
G1 X27.3 E222.1 ;horizontal move
G1 X30.5 E225.3 F1501.1 ;horizontal move
G1 X30.4 Y24.3 E227.8 F2848.6 ;horizontal move
G1 Y26.7 E230.2 F1520.4 ;horizontal move
G1 X27.2 E233.4 F3150.0 ;horizontal move
G1 X20.2 E240.4 ;horizontal move
G1 X16.5 E244.1 F980.0 ;horizontal move
G1 X19.1 Y24.0 E247.9 F3150.0 ;horizontal move
G1 X19.3 Y23.7 E248.2 ;horizontal move
G1 X21.1 Y22.0 E250.7 F1991.4 ;horizontal move
G1 X21.2 E250.8 F2070.7 ;horizontal move
G1 X21.4 E251.0 F2174.6 ;horizontal move
G1 X22.9 Y22.1 E252.5 F996.0 ;horizontal move
G1 X20.8 Y24.2 E255.5 F2864.2 ;horizontal move
G1 X18.7 Y26.4 E258.5 F977.2 ;horizontal move
G1 X20.7 E260.5 F2388.9 ;horizontal move
G1 X21.3 Y25.8 E261.4 F2801.6 ;horizontal move
G1 F18000.0; feed for start of next move
G1 E201.4; extruder retraction
G1 F1500.0; feed for start of next move
G1 X23.0 Y24.2 F3500.0 ;horizontal move
G1 F1500.0; feed for start of next move
G1 X25.1 F2700.0 ;horizontal move
G1 X27.2 F1500.0 ;horizontal move
G1 F18000.0; feed for start of next move
G1 E261.4; extruder dwell
G1 F1500.0; feed for start of next move
G1 X25.6 Y25.8 E263.6 F2784.1 ;horizontal move
G1 X25.0 Y26.4 E264.5 F2390.5 ;horizontal move
G1 X23.0 E266.5 F981.1 ;horizontal move
G1 X25.1 Y24.2 E269.5 F2857.1 ;horizontal move
G1 X27.1 Y22.1 E272.4 F1001.5 ;horizontal move
G1 X26.0 Y22.0 E273.5 F1910.3 ;horizontal move
G1 X25.5 E274.0 F1550.8 ;horizontal move
G1 Y18.9 E277.1 F3150.0 ;horizontal move
G1 Y16.3 E279.7 ;horizontal move
G1 X25.6 Y12.4 E283.6 F750.1 ;horizontal move
G1 Y16.3 E287.5 F3150.0 ;horizontal move
G1 Y19.4 E290.6 ;horizontal move
G1 Y21.1 E292.3 F2424.8 ;horizontal move
G1 X26.0 Y21.3 E292.8 F2630.2 ;horizontal move
G1 X27.2 E294.0 F3150.0 ;horizontal move
G1 X27.8 E294.6 ;horizontal move
G1 X31.0 Y21.4 E297.8 F1539.7 ;horizontal move
G1 Y24.3 E300.7 F3036.1 ;horizontal move
G1 Y27.2 E303.6 F1497.0 ;horizontal move
G1 X27.8 E306.8 F3150.0 ;horizontal move
G1 X19.2 Y27.1 E315.4 ;horizontal move
G1 X16.0 E318.6 F1506.6 ;horizontal move
G1 Y24.2 E321.5 F3046.4 ;horizontal move
G1 Y21.3 E324.4 F1524.3 ;horizontal move
G1 X19.1 E327.5 F3108.0 ;horizontal move
G1 X20.1 Y21.2 E328.5 F2683.8 ;horizontal move
G1 X20.2 E328.6 F2739.5 ;horizontal move
G1 X20.3 Y21.1 E328.7 F2682.6 ;horizontal move
G1 Y19.9 E329.9 F3150.0 ;horizontal move
G1 X20.4 Y15.6 E334.2 ;horizontal move
G1 Y12.3 E337.5 F1422.6 ;horizontal move
G1 X21.1 Y12.4 E338.2 F1927.5 ;horizontal move
G1 X21.4 E338.5 F1715.2 ;horizontal move
G1 X21.5 Y15.3 E341.4 F3150.0 ;horizontal move
G1 Y18.8 E344.9 ;horizontal move
G1 Y21.2 E347.3 F2043.2 ;horizontal move
G1 X21.9 Y21.3 E347.8 F2255.1 ;horizontal move
G1 X23.6 E349.5 F3014.6 ;horizontal move
G1 X24.1 E350.0 F2786.1 ;horizontal move
G1 X24.3 Y21.2 E350.2 F2691.3 ;horizontal move
G1 X24.4 Y20.6 E350.8 F2927.6 ;horizontal move
G1 Y20.1 E351.3 F3150.0 ;horizontal move
G1 Y15.6 E355.8 ;horizontal move
G1 Y12.3 E359.1 F1421.5 ;horizontal move
G1 X25.1 Y12.4 E359.8 F1941.1 ;horizontal move
G1 X25.6 E360.3 F1662.5 ;horizontal move
G1 X25.5 Y15.4 E363.3 F3150.0 ;horizontal move
G1 Y18.9 E366.8 ;horizontal move
G1 Y22.0 E369.9 F1550.8 ;horizontal move
G1 X26.0 E370.4 F1910.3 ;horizontal move
G1 X27.1 Y22.1 E371.5 F1001.5 ;horizontal move
G1 X25.1 Y24.2 E374.4 F2857.1 ;horizontal move
G1 X23.0 Y26.4 E377.4 F981.1 ;horizontal move
G1 X25.0 E379.4 F2390.5 ;horizontal move
G1 X25.6 Y25.8 E380.3 F2784.1 ;horizontal move
G1 F18000.0; feed for start of next move
G1 E320.3; extruder retraction
G1 F1500.0; feed for start of next move
G1 X27.2 Y24.2 F3500.0 ;horizontal move
G1 F18000.0; feed for start of next move
G1 E380.3; extruder dwell
G1 F1500.0; feed for start of next move
G1 X28.2 Y23.3 E381.6 F2323.0 ;horizontal move
G1 X29.5 Y22.1 E383.4 F1002.6 ;horizontal move
G1 X29.6 Y23.9 E385.2 F2308.2 ;horizontal move
G1 X29.0 Y24.5 E386.1 F2698.2 ;horizontal move
G1 X27.2 Y26.4 E388.7 F989.7 ;horizontal move
G1 X28.7 E390.2 F2121.1 ;horizontal move
G1 X29.2 E390.7 F1846.9 ;horizontal move
G1 X29.6 Y26.2 E391.1 F1500.0 ;horizontal move
G1 F18000.0; feed for start of next move
G1 E331.1; extruder retraction
G1 F1500.0; feed for start of next move
G1 X25.9 Y24.4 F3500.0 ;horizontal move
G1 X24.8 Y23.8 ;horizontal move
G1 X21.1 Y22.0 F1500.0 ;horizontal move
G1 F18000.0; feed for start of next move
G1 E391.1; extruder dwell
G1 F1500.0; feed for start of next move
G1 X19.4 Y23.5 E393.4 F2769.3 ;horizontal move
G1 X17.4 Y25.4 E396.1 F983.2 ;horizontal move
G1 Y23.5 E398.0 F2361.1 ;horizontal move
G1 X17.6 Y23.3 E398.3 F2511.1 ;horizontal move
G1 X18.8 Y22.1 E400.0 F1500.0 ;horizontal move
G1 F18000.0; feed for start of next move
G1 E340.0; extruder retraction
G1 F1500.0; feed for start of next move
;#!LAYER: 13/69
G28 X0 ;set x 0
G28 Y0 ;set y 0
G92 E0 ;zero the extruded length
G92 E0 ;zero the extruded length
G92 E0 ;zero the extruded length
T1; select new extruder
M113; set extruder to use pot for PWM
G92 E0 ;zero the extruded length
T0; select new extruder
M113; set extruder to use pot for PWM
G1 F50.0; feed for start of next move
G1 Z3.8996 ;z move
T0; select new extruder
M113; set extruder to use pot for PWM
G1 F1500.0; feed for start of next move
G1 X3.1 Y2.8 F3500.0 ;horizontal move
G1 X6.9 Y6.2 ;horizontal move
G1 X10.0 Y9.0 F1500.0 ;horizontal move
G1 F18000.0; feed for start of next move
G1 E60.0; extruder dwell
G1 F1500.0; feed for start of next move
G1 F3500.0; feed for start of next move
G1 E85.0; extruder dwell
G1 F1500.0; feed for start of next move
G1 Y13.2 E89.2 F3500.0 ;horizontal move
G1 Y14.8 E90.8 ;horizontal move
G1 Y19.0 E95.0 F1500.0 ;horizontal move
G1 X9.0 E96.0 F2156.4 ;horizontal move
G1 X8.0 E97.0 F1500.0 ;horizontal move
G1 Y14.8 E101.2 F3500.0 ;horizontal move
G1 Y11.2 E104.8 ;horizontal move
G1 Y7.0 E109.0 F1500.0 ;horizontal move
G1 X12.2 E113.2 F3500.0 ;horizontal move
G1 X25.8 E126.8 ;horizontal move
G1 X30.0 E131.0 F1500.0 ;horizontal move
G1 Y8.0 E132.0 F2156.4 ;horizontal move
G1 Y9.0 E133.0 F1500.0 ;horizontal move
G1 X25.8 E137.2 F3500.0 ;horizontal move
G1 X14.2 E148.8 ;horizontal move
G1 X10.0 E153.0 F1500.0 ;horizontal move
G1 F18000.0; feed for start of next move
G1 E93.0; extruder retraction
G1 F1500.0; feed for start of next move
G1 X12.5 Y12.3 F3500.0 ;horizontal move
G1 X18.8 Y20.9 ;horizontal move
G1 X21.3 Y24.2 F1500.0 ;horizontal move
G1 F18000.0; feed for start of next move
G1 E153.0; extruder dwell
G1 F1500.0; feed for start of next move
G1 X23.0 Y25.8 E155.3 F2787.8 ;horizontal move
G1 X23.6 Y26.4 E156.2 F2388.9 ;horizontal move
G1 X25.6 E158.2 F977.1 ;horizontal move
G1 X23.4 Y24.2 E161.3 F2876.0 ;horizontal move
G1 X21.3 Y22.0 E164.3 F961.5 ;horizontal move
G1 X23.3 Y22.1 E166.3 F2413.0 ;horizontal move
G1 X24.6 Y23.3 E168.1 F3150.0 ;horizontal move
G1 X27.0 Y25.6 E171.4 ;horizontal move
G1 X27.8 Y26.4 E172.6 F2690.3 ;horizontal move
G1 X28.2 E173.0 F2860.3 ;horizontal move
G1 X29.8 E174.6 F2125.4 ;horizontal move
G1 X31.1 Y27.2 E176.1 F844.2 ;horizontal move
G1 X27.3 E179.9 F3150.0 ;horizontal move
G1 X19.0 Y27.1 E188.2 ;horizontal move
G1 X15.8 E191.4 F1512.9 ;horizontal move
G1 Y24.2 E194.3 F3030.1 ;horizontal move
G1 Y21.3 E197.2 F1500.0 ;horizontal move
G1 X19.0 E200.4 F3140.8 ;horizontal move
G1 X20.1 E201.5 F2666.7 ;horizontal move
G1 X20.3 Y21.1 E201.8 F2778.9 ;horizontal move
G1 X20.4 Y20.6 E202.3 F3008.3 ;horizontal move
G1 Y20.2 E202.7 F3150.0 ;horizontal move
G1 Y15.5 E207.4 ;horizontal move
G1 Y12.3 E210.6 F1462.5 ;horizontal move
G1 X21.1 E211.3 F1939.9 ;horizontal move
G1 X21.6 Y12.4 E211.8 F1582.4 ;horizontal move
G1 Y15.5 E214.9 F3150.0 ;horizontal move
G1 Y19.4 E218.8 ;horizontal move
G1 Y20.9 E220.3 F2490.0 ;horizontal move
G1 X22.1 Y21.3 E220.9 F2764.1 ;horizontal move
G1 X22.8 E221.6 F3069.0 ;horizontal move
G1 X24.1 Y21.2 E222.9 F2538.3 ;horizontal move
G1 X24.2 Y21.1 E223.1 F2433.8 ;horizontal move
G1 X24.3 Y19.5 E224.7 F3150.0 ;horizontal move
G1 Y15.5 E228.7 ;horizontal move
G1 X24.4 Y12.3 E231.9 F1522.4 ;horizontal move
G1 X24.9 E232.4 F1915.5 ;horizontal move
G1 X25.5 E233.0 F1511.4 ;horizontal move
G1 Y15.5 E236.2 F3150.0 ;horizontal move
G1 Y19.2 E239.9 ;horizontal move
G1 X25.6 Y21.0 E241.7 F2384.1 ;horizontal move
G1 X26.0 Y21.3 E242.2 F2653.8 ;horizontal move
G1 X27.2 E243.4 F3150.0 ;horizontal move
G1 X28.0 E244.2 ;horizontal move
G1 X31.2 Y21.4 E247.4 F1502.2 ;horizontal move
G1 Y24.1 E250.1 F2959.7 ;horizontal move
G1 X31.1 Y27.2 E253.2 F1137.7 ;horizontal move
G1 X29.8 Y26.4 E254.7 F2258.1 ;horizontal move
G1 X28.4 E256.1 F2910.7 ;horizontal move
G1 X27.8 E256.7 F2690.3 ;horizontal move
G1 X27.0 Y25.6 E257.8 F3150.0 ;horizontal move
G1 X24.6 Y23.3 E261.2 ;horizontal move
G1 X23.3 Y22.1 E262.9 F2413.0 ;horizontal move
G1 X21.3 Y22.0 E264.9 F961.5 ;horizontal move
G1 X23.4 Y24.2 E268.0 F2876.0 ;horizontal move
G1 X25.6 Y26.4 E271.1 F977.1 ;horizontal move
G1 X23.6 E273.1 F2388.9 ;horizontal move
G1 X23.0 Y25.8 E273.9 F2787.8 ;horizontal move
G1 F18000.0; feed for start of next move
G1 E213.9; extruder retraction
G1 F1500.0; feed for start of next move
G1 X21.3 Y24.2 F3500.0 ;horizontal move
G1 F1500.0; feed for start of next move
G1 X23.2 Y22.8 F2826.0 ;horizontal move
G1 X25.1 Y21.3 F1500.0 ;horizontal move
G1 F18000.0; feed for start of next move
G1 E273.9; extruder dwell
G1 F1500.0; feed for start of next move
G1 X25.4 Y21.6 E274.4 F1781.0 ;horizontal move
G1 X26.0 Y21.8 E275.0 F2162.3 ;horizontal move
G1 X27.9 E276.9 F3030.3 ;horizontal move
G1 X30.7 E279.7 F1520.9 ;horizontal move
G1 Y24.3 E282.2 F2847.6 ;horizontal move
G1 Y26.7 E284.6 F1496.9 ;horizontal move
G1 X27.5 E287.8 F3150.0 ;horizontal move
G1 X19.4 E295.9 ;horizontal move
G1 X16.3 Y26.6 E299.0 F1506.8 ;horizontal move
G1 Y24.2 E301.4 F2851.2 ;horizontal move
G1 Y21.8 E303.8 F1524.6 ;horizontal move
G1 X19.4 Y21.7 E306.9 F3150.0 ;horizontal move
G1 X19.6 E307.1 ;horizontal move
G1 X20.3 E307.8 F2886.4 ;horizontal move
G1 X20.6 Y21.5 E308.2 F2720.9 ;horizontal move
G1 X20.9 Y20.5 E309.2 F3115.4 ;horizontal move
G1 Y20.4 E309.3 F3150.0 ;horizontal move
G1 Y16.5 E313.2 ;horizontal move
G1 Y12.8 E316.9 F973.8 ;horizontal move
G1 X21.1 Y13.0 E317.2 F1248.7 ;horizontal move
G1 Y16.4 E320.6 F3150.0 ;horizontal move
G1 Y20.6 E324.8 ;horizontal move
G1 Y20.9 E325.1 F3007.8 ;horizontal move
G1 Y21.0 E325.2 F3033.7 ;horizontal move
G1 X21.4 Y21.5 E325.8 F2818.0 ;horizontal move
G1 X21.7 Y21.7 E326.1 F2996.2 ;horizontal move
G1 X21.9 Y21.8 E326.4 F2920.8 ;horizontal move
G1 X22.5 E327.0 F3150.0 ;horizontal move
G1 X23.5 Y21.7 E328.0 ;horizontal move
G1 X24.2 E328.7 F2896.5 ;horizontal move
G1 X24.5 Y21.5 E329.0 F2778.5 ;horizontal move
G1 X24.8 Y20.7 E329.9 F3094.1 ;horizontal move
G1 Y20.5 E330.1 F3150.0 ;horizontal move
G1 Y16.2 E334.4 ;horizontal move
G1 Y12.8 E337.8 F1318.1 ;horizontal move
G1 X25.0 E338.0 F1526.8 ;horizontal move
G1 X25.1 Y16.0 E341.2 F3150.0 ;horizontal move
G1 Y18.1 E343.3 ;horizontal move
G1 F18000.0; feed for start of next move
G1 E283.3; extruder retraction
G1 F1500.0; feed for start of next move
G1 Y21.3 F3500.0 ;horizontal move
G1 F1500.0; feed for start of next move
G1 X27.5 Y21.7 F2844.2 ;horizontal move
G1 X29.9 Y22.1 F1500.0 ;horizontal move
G1 F18000.0; feed for start of next move
G1 E343.3; extruder dwell
G1 F1500.0; feed for start of next move
G1 Y22.9 E344.1 F2032.1 ;horizontal move
G1 Y24.2 E345.4 F984.2 ;horizontal move
G1 X28.0 Y22.5 E347.9 F2666.5 ;horizontal move
G1 X27.6 Y22.1 E348.5 F2390.5 ;horizontal move
G1 X25.6 E350.5 F981.1 ;horizontal move
G1 X27.9 Y24.4 E353.7 F2964.2 ;horizontal move
G1 X29.8 Y26.4 E356.5 F1500.0 ;horizontal move
G1 F18000.0; feed for start of next move
G1 E296.5; extruder retraction
G1 F1500.0; feed for start of next move
G1 X25.8 Y25.4 F3500.0 ;horizontal move
G1 X25.3 Y25.2 ;horizontal move
G1 X21.3 Y24.2 F1500.0 ;horizontal move
G1 F18000.0; feed for start of next move
G1 E356.5; extruder dwell
G1 F1500.0; feed for start of next move
G1 X19.7 Y22.6 E358.8 F2778.1 ;horizontal move
G1 X19.0 Y22.0 E359.7 F2366.2 ;horizontal move
G1 X17.1 Y22.1 E361.6 F994.2 ;horizontal move
G1 X19.2 Y24.2 E364.6 F2863.9 ;horizontal move
G1 X21.3 Y26.4 E367.6 F977.2 ;horizontal move
G1 X19.3 E369.6 F2388.9 ;horizontal move
G1 X18.9 Y26.0 E370.2 F2643.9 ;horizontal move
G1 X17.1 Y24.3 E372.6 F969.2 ;horizontal move
G1 Y25.6 E373.9 F2028.7 ;horizontal move
G1 X17.2 Y26.4 E374.8 F1500.0 ;horizontal move
G1 F18000.0; feed for start of next move
G1 E314.8; extruder retraction
G1 F1500.0; feed for start of next move
;#!LAYER: 14/69
G28 X0 ;set x 0
G28 Y0 ;set y 0
G92 E0 ;zero the extruded length
G92 E0 ;zero the extruded length
G92 E0 ;zero the extruded length
T1; select new extruder
M113; set extruder to use pot for PWM
G92 E0 ;zero the extruded length
T0; select new extruder
M113; set extruder to use pot for PWM
G1 F50.0; feed for start of next move
G1 Z4.1996 ;z move
T0; select new extruder
M113; set extruder to use pot for PWM
G1 F1500.0; feed for start of next move
G1 X3.1 Y2.8 F3500.0 ;horizontal move
G1 X6.9 Y6.2 ;horizontal move
G1 X10.0 Y9.0 F1500.0 ;horizontal move
G1 F18000.0; feed for start of next move
G1 E60.0; extruder dwell
G1 F1500.0; feed for start of next move
G1 F3500.0; feed for start of next move
G1 E85.0; extruder dwell
G1 F1500.0; feed for start of next move
G1 Y13.2 E89.2 F3500.0 ;horizontal move
G1 Y14.8 E90.8 ;horizontal move
G1 Y19.0 E95.0 F1500.0 ;horizontal move
G1 X9.0 E96.0 F2156.4 ;horizontal move
G1 X8.0 E97.0 F1500.0 ;horizontal move
G1 Y14.8 E101.2 F3500.0 ;horizontal move
G1 Y11.2 E104.8 ;horizontal move
G1 Y7.0 E109.0 F1500.0 ;horizontal move
G1 X12.2 E113.2 F3500.0 ;horizontal move
G1 X25.8 E126.8 ;horizontal move
G1 X30.0 E131.0 F1500.0 ;horizontal move
G1 Y8.0 E132.0 F2156.4 ;horizontal move
G1 Y9.0 E133.0 F1500.0 ;horizontal move
G1 X25.8 E137.2 F3500.0 ;horizontal move
G1 X14.2 E148.8 ;horizontal move
G1 X10.0 E153.0 F1500.0 ;horizontal move
G1 F18000.0; feed for start of next move
G1 E93.0; extruder retraction
G1 F1500.0; feed for start of next move
G1 X13.5 Y11.3 F3500.0 ;horizontal move
G1 X19.3 Y15.0 ;horizontal move
G1 X22.8 Y17.3 F1500.0 ;horizontal move
G1 F18000.0; feed for start of next move
G1 E153.0; extruder dwell
G1 F1500.0; feed for start of next move
G1 X23.6 Y16.4 E154.2 F2243.7 ;horizontal move
G1 X24.4 Y15.6 E155.3 F1505.6 ;horizontal move
G1 Y15.1 E155.8 F985.3 ;horizontal move
G1 X22.8 Y16.6 E158.0 F2493.4 ;horizontal move
G1 X21.2 Y18.1 E160.2 F985.3 ;horizontal move
G1 Y17.5 E160.8 F1505.6 ;horizontal move
G1 X22.8 Y15.8 E163.2 F2798.8 ;horizontal move
G1 X24.4 Y14.2 E165.4 F1549.3 ;horizontal move
G1 Y13.6 E166.0 F980.0 ;horizontal move
G1 X22.8 Y15.2 E168.3 F2501.2 ;horizontal move
G1 X21.2 Y16.7 E170.5 F980.0 ;horizontal move
G1 Y16.1 E171.1 F1502.1 ;horizontal move
G1 X22.9 Y14.7 E173.3 F2757.9 ;horizontal move
G1 X25.0 Y12.8 E176.1 F1010.2 ;horizontal move
G1 Y16.5 E179.8 F3150.0 ;horizontal move
G1 X25.1 Y19.5 E182.8 ;horizontal move
G1 Y21.4 E184.7 F2351.4 ;horizontal move
G1 X25.8 Y21.8 E185.5 F2744.0 ;horizontal move
G1 X26.8 E186.5 F3150.0 ;horizontal move
G1 X28.0 E187.7 ;horizontal move
G1 X29.0 E188.7 F2727.6 ;horizontal move
G1 X29.3 Y21.7 E189.0 F2606.9 ;horizontal move
G1 X31.0 Y21.8 E190.7 F1655.5 ;horizontal move
G1 X30.9 Y24.2 E193.1 F2891.1 ;horizontal move
G1 Y26.7 E195.6 F1520.4 ;horizontal move
G1 X27.7 E198.8 F3150.0 ;horizontal move
G1 X19.2 E207.3 ;horizontal move
G1 X16.0 E210.5 F1500.0 ;horizontal move
G1 Y24.2 E213.0 F2861.6 ;horizontal move
G1 Y21.8 E215.4 F1522.9 ;horizontal move
G1 X19.2 Y21.7 E218.6 F3150.0 ;horizontal move
G1 X19.7 E219.1 ;horizontal move
G1 X20.3 E219.7 F2885.5 ;horizontal move
G1 X20.4 E219.8 F2922.7 ;horizontal move
G1 X20.7 Y21.5 E220.2 F2778.5 ;horizontal move
G1 X20.9 Y20.7 E221.0 F3094.1 ;horizontal move
G1 Y20.5 E221.2 F3150.0 ;horizontal move
G1 Y16.0 E225.7 ;horizontal move
G1 Y12.8 E228.9 F1488.8 ;horizontal move
G1 X22.7 E230.7 F2526.0 ;horizontal move
G1 X25.0 E233.0 F946.4 ;horizontal move
G1 X22.9 Y14.7 E235.9 F2746.5 ;horizontal move
G1 X21.2 Y16.1 E238.1 F1502.1 ;horizontal move
G1 Y16.7 E238.7 F980.0 ;horizontal move
G1 X22.8 Y15.2 E240.9 F2501.2 ;horizontal move
G1 X24.4 Y13.6 E243.1 F980.0 ;horizontal move
G1 Y14.2 E243.7 F1549.3 ;horizontal move
G1 X22.8 Y15.8 E246.0 F2798.8 ;horizontal move
G1 X21.2 Y17.5 E248.3 F1505.6 ;horizontal move
G1 Y18.1 E248.9 F985.3 ;horizontal move
G1 X22.8 Y16.6 E251.1 F2493.4 ;horizontal move
G1 X24.4 Y15.1 E253.3 F985.3 ;horizontal move
G1 Y15.6 E253.8 F1505.6 ;horizontal move
G1 X23.6 Y16.4 E254.9 F2243.7 ;horizontal move
G1 F18000.0; feed for start of next move
G1 E194.9; extruder retraction
G1 F1500.0; feed for start of next move
G1 X22.8 Y17.3 F3500.0 ;horizontal move
G1 F1500.0; feed for start of next move
G1 X22.9 Y20.8 F3245.5 ;horizontal move
G1 X23.0 Y24.2 F1500.0 ;horizontal move
G1 F18000.0; feed for start of next move
G1 E254.9; extruder dwell
G1 F1500.0; feed for start of next move
G1 X21.3 Y25.8 E257.3 F2801.6 ;horizontal move
G1 X20.7 Y26.4 E258.1 F2388.9 ;horizontal move
G1 X18.7 E260.1 F977.2 ;horizontal move
G1 X20.8 Y24.2 E263.2 F2864.9 ;horizontal move
G1 X22.9 Y22.1 E266.1 F1000.0 ;horizontal move
G1 X21.5 Y22.0 E267.5 F2111.6 ;horizontal move
G1 X21.2 Y21.8 E267.9 F1943.8 ;horizontal move
G1 X19.3 Y23.6 E270.5 F3150.0 ;horizontal move
G1 X18.2 Y24.6 E272.0 ;horizontal move
G1 X15.5 Y27.2 E275.7 F984.4 ;horizontal move
G1 Y24.0 E278.9 F2949.1 ;horizontal move
G1 Y21.3 E281.6 F1521.2 ;horizontal move
G1 X18.7 E284.8 F3150.0 ;horizontal move
G1 X19.1 E285.2 ;horizontal move
G1 X20.2 Y21.2 E286.3 F2681.6 ;horizontal move
G1 X20.3 E286.4 F2734.6 ;horizontal move
G1 X20.4 Y21.1 E286.6 F2674.7 ;horizontal move
G1 Y19.9 E287.8 F3150.0 ;horizontal move
G1 Y15.5 E292.2 ;horizontal move
G1 X20.5 Y12.3 E295.4 F1511.3 ;horizontal move
G1 X23.0 E297.9 F2876.9 ;horizontal move
G1 X25.4 E300.3 F1522.3 ;horizontal move
G1 X25.5 Y15.5 E303.5 F3150.0 ;horizontal move
G1 Y18.8 E306.8 ;horizontal move
G1 X25.6 Y21.2 E309.2 F2042.9 ;horizontal move
G1 X25.9 Y21.3 E309.5 F2254.8 ;horizontal move
G1 X27.9 E311.5 F3150.0 ;horizontal move
G1 X28.0 E311.6 ;horizontal move
G1 X28.9 E312.5 F2786.1 ;horizontal move
G1 X29.1 Y21.2 E312.7 F2691.3 ;horizontal move
G1 X29.2 Y20.6 E313.3 F2927.6 ;horizontal move
G1 Y20.1 E313.8 F3150.0 ;horizontal move
G1 X29.3 Y16.3 E317.6 ;horizontal move
G1 Y12.4 E321.5 F750.3 ;horizontal move
G1 X29.4 Y16.3 E325.4 F3150.0 ;horizontal move
G1 Y18.2 E327.3 ;horizontal move
G1 X29.5 Y21.2 E330.3 F1622.2 ;horizontal move
G1 X30.4 Y21.3 E331.2 F2230.7 ;horizontal move
G1 X31.4 Y21.4 E332.3 F1599.8 ;horizontal move
G1 Y24.2 E335.1 F3064.1 ;horizontal move
G1 Y27.2 E338.1 F1500.0 ;horizontal move
G1 X28.2 E341.3 F3150.0 ;horizontal move
G1 X19.3 E350.2 ;horizontal move
G1 X15.5 E354.0 F955.4 ;horizontal move
G1 X18.3 Y24.6 E357.8 F3150.0 ;horizontal move
G1 X19.3 Y23.6 E359.2 ;horizontal move
G1 X21.2 Y21.8 E361.8 F1943.8 ;horizontal move
G1 X21.5 Y22.0 E362.2 F2130.4 ;horizontal move
G1 X22.9 Y22.1 E363.6 F1000.0 ;horizontal move
G1 X20.8 Y24.2 E366.5 F2864.9 ;horizontal move
G1 X18.7 Y26.4 E369.6 F977.2 ;horizontal move
G1 X20.7 E371.6 F2388.9 ;horizontal move
G1 X21.3 Y25.8 E372.4 F2801.6 ;horizontal move
G1 F18000.0; feed for start of next move
G1 E312.4; extruder retraction
G1 F1500.0; feed for start of next move
G1 X23.0 Y24.2 F3500.0 ;horizontal move
G1 F18000.0; feed for start of next move
G1 E372.4; extruder dwell
G1 F1500.0; feed for start of next move
G1 X24.6 Y22.7 E374.6 F2716.0 ;horizontal move
G1 X25.4 Y22.0 E375.7 F2182.2 ;horizontal move
G1 X25.5 E375.8 F2233.5 ;horizontal move
G1 X27.1 Y22.1 E377.4 F1001.5 ;horizontal move
G1 X25.1 Y24.2 E380.3 F2857.1 ;horizontal move
G1 X23.0 Y26.4 E383.3 F981.1 ;horizontal move
G1 X25.0 E385.3 F2390.5 ;horizontal move
G1 X26.9 Y24.5 E388.0 F3500.0 ;horizontal move
G1 X27.0 Y24.4 E388.2 ;horizontal move
G1 X29.3 Y22.1 E391.4 F2109.1 ;horizontal move
G1 X30.1 E392.2 F1605.1 ;horizontal move
G1 X30.2 Y23.3 E393.4 F2305.7 ;horizontal move
G1 X29.3 Y24.2 E394.7 F2878.9 ;horizontal move
G1 X27.2 Y26.4 E397.7 F985.6 ;horizontal move
G1 X29.1 E399.6 F2348.9 ;horizontal move
G1 X29.2 E399.7 F2304.7 ;horizontal move
G1 X30.2 Y25.6 E401.0 F1500.0 ;horizontal move
G1 F18000.0; feed for start of next move
G1 E341.0; extruder retraction
G1 F1500.0; feed for start of next move
G1 X27.3 Y23.2 F3370.7 ;horizontal move
G1 X24.4 Y20.7 F1500.0 ;horizontal move
G1 F18000.0; feed for start of next move
G1 E401.0; extruder dwell
G1 F1500.0; feed for start of next move
G1 X24.0 Y21.0 E401.5 F1860.9 ;horizontal move
G1 X23.7 Y21.3 E401.9 F1557.7 ;horizontal move
G1 X23.1 E402.5 F993.2 ;horizontal move
G1 X23.9 Y20.4 E403.7 F1994.6 ;horizontal move
G1 X24.4 Y19.9 E404.4 F1510.8 ;horizontal move
G1 Y19.3 E405.0 F993.2 ;horizontal move
G1 X23.1 Y20.5 E406.8 F2268.2 ;horizontal move
G1 X22.3 Y21.3 E407.9 F1506.7 ;horizontal move
G1 X21.7 E408.5 F987.0 ;horizontal move
G1 X23.3 Y19.7 E410.8 F2520.4 ;horizontal move
G1 X24.4 Y18.4 E412.5 F1502.0 ;horizontal move
G1 Y17.9 E413.0 F979.8 ;horizontal move
G1 X22.8 Y19.4 E415.2 F2512.5 ;horizontal move
G1 X21.2 Y21.0 E417.5 F933.0 ;horizontal move
G1 Y20.3 E418.2 F1568.8 ;horizontal move
G1 X22.8 Y18.7 E420.4 F2804.2 ;horizontal move
G1 X24.4 Y17.0 E422.8 F1505.6 ;horizontal move
G1 Y16.5 E423.3 F985.3 ;horizontal move
G1 X22.8 Y18.0 E425.5 F2493.4 ;horizontal move
G1 X21.2 Y19.5 E427.7 F985.3 ;horizontal move
G1 Y19.0 E428.2 F1505.6 ;horizontal move
G1 X22.0 Y18.1 E429.4 F2243.7 ;horizontal move
G1 X22.8 Y17.3 E430.5 F1500.0 ;horizontal move
G1 F18000.0; feed for start of next move
G1 E370.5; extruder retraction
G1 F1500.0; feed for start of next move
G1 X22.0 Y16.7 F2156.4 ;horizontal move
G1 X21.2 Y16.1 F1500.0 ;horizontal move
G1 F18000.0; feed for start of next move
G1 E430.5; extruder dwell
G1 F1500.0; feed for start of next move
G1 X22.5 Y14.8 E432.3 F2579.5 ;horizontal move
G1 X24.1 Y13.1 E434.7 F986.0 ;horizontal move
G1 X23.6 E435.2 F1506.0 ;horizontal move
G1 X22.6 Y14.0 E436.5 F2333.8 ;horizontal move
G1 X21.2 Y15.2 E438.4 F991.3 ;horizontal move
G1 Y14.7 E438.9 F1509.5 ;horizontal move
G1 X21.8 Y14.1 E439.7 F2068.6 ;horizontal move
G1 X22.7 Y13.1 E441.0 F990.4 ;horizontal move
G1 X22.1 E441.6 F1555.9 ;horizontal move
G1 X21.9 Y13.3 E441.9 F1782.2 ;horizontal move
G1 X21.2 Y13.9 E442.8 F988.3 ;horizontal move
G1 Y13.3 E443.4 F1600.2 ;horizontal move
G1 X21.3 Y13.2 E443.6 F1646.5 ;horizontal move
G1 X21.4 Y13.1 E443.7 F1500.0 ;horizontal move
G1 F18000.0; feed for start of next move
G1 E383.7; extruder retraction
G1 F1500.0; feed for start of next move
G1 X21.3 Y17.3 F3500.0 ;horizontal move
G1 Y17.6 ;horizontal move
G1 X21.2 Y21.8 F1500.0 ;horizontal move
G1 F18000.0; feed for start of next move
G1 E443.7; extruder dwell
G1 F1500.0; feed for start of next move
G1 X19.2 Y23.8 E446.6 F2981.3 ;horizontal move
G1 X16.8 Y26.0 E449.8 F980.9 ;horizontal move
G1 Y24.1 E451.7 F2360.1 ;horizontal move
G1 X17.3 Y23.6 E452.4 F2724.6 ;horizontal move
G1 X18.8 Y22.0 E454.6 F1500.0 ;horizontal move
G1 F18000.0; feed for start of next move
G1 E394.6; extruder retraction
G1 F1500.0; feed for start of next move
;#!LAYER: 15/69
G28 X0 ;set x 0
G28 Y0 ;set y 0
G92 E0 ;zero the extruded length
G92 E0 ;zero the extruded length
G92 E0 ;zero the extruded length
T1; select new extruder
M113; set extruder to use pot for PWM
G92 E0 ;zero the extruded length
T0; select new extruder
M113; set extruder to use pot for PWM
G1 F50.0; feed for start of next move
G1 Z4.4996 ;z move
