; GCode generated by RepRap Java Host Software
; Created: 2011-06-07:07-28-47
;#!RECTANGLE: <BOX x:[l:9.0, h:31.0], y:[l:6.0, h:28.0]>
M110 ; Reset the line numbers
G21 ;metric is good!
G90 ;absolute positioning
M140 S65.0 ;set bed temperature and return
T0; select new extruder
M113; set extruder to use pot for PWM
G92 E0 ;zero the extruded length
G28 X0 ;set x 0
G28 Y0 ;set y 0
G1 F1500.0; feed for start of next move
G1 X4.2 Y0.1 F3500.0 ;horizontal move
G1 X138.8 Y4.9 ;horizontal move
G1 X143.0 Y5.0 F1500.0 ;horizontal move
G28 Z0 ;set z 0
M109 S205.0 ;set temperature and wait
G1 F3500.0; feed for start of next move
G1 E1750.0; extruder dwell
G1 F1500.0; feed for start of next move
G1 F18000.0; feed for start of next move
G1 E1690.0; extruder retraction
G1 F1500.0; feed for start of next move
G92 E0 ;zero the extruded length
;#!LAYER: 1/33
G92 E0 ;zero the extruded length
G92 E0 ;zero the extruded length
G92 E0 ;zero the extruded length
T1; select new extruder
M113; set extruder to use pot for PWM
G92 E0 ;zero the extruded length
T0; select new extruder
M113; set extruder to use pot for PWM
G1 F50.0; feed for start of next move
G1 Z0.1 ;z move
T0; select new extruder
M113; set extruder to use pot for PWM
G1 F1500.0; feed for start of next move
G1 X20.9 Y17.8 F3500.0 ;horizontal move
G1 X15.0 Y11.9 ;horizontal move
G1 X12.0 Y9.0 F1500.0 ;horizontal move
G1 F18000.0; feed for start of next move
G1 E60.0; extruder dwell
G1 F1500.0; feed for start of next move
G1 F3500.0; feed for start of next move
G1 E85.0; extruder dwell
G1 F1500.0; feed for start of next move
G1 Y13.2 E89.2 F3500.0 ;horizontal move
G1 Y14.8 E90.8 ;horizontal move
G1 Y19.0 E95.0 F1500.0 ;horizontal move
G1 X11.0 E96.0 F2156.4 ;horizontal move
G1 X10.0 E97.0 F1500.0 ;horizontal move
G1 Y14.8 E101.2 F3500.0 ;horizontal move
G1 Y11.2 E104.8 ;horizontal move
G1 Y7.0 E109.0 F1500.0 ;horizontal move
G1 X14.2 E113.2 F3500.0 ;horizontal move
G1 X27.8 E126.8 ;horizontal move
G1 X32.0 E131.0 F1500.0 ;horizontal move
G1 Y8.0 E132.0 F2156.4 ;horizontal move
G1 Y9.0 E133.0 F1500.0 ;horizontal move
G1 X27.8 E137.2 F3500.0 ;horizontal move
G1 X16.2 E148.8 ;horizontal move
G1 X12.0 E153.0 F1500.0 ;horizontal move
G1 F18000.0; feed for start of next move
G1 E93.0; extruder retraction
G1 F1500.0; feed for start of next move
G1 X14.8 Y12.1 F3500.0 ;horizontal move
G1 X16.7 Y14.3 ;horizontal move
G1 X19.5 Y17.4 F1500.0 ;horizontal move
G1 F18000.0; feed for start of next move
G1 E153.0; extruder dwell
G1 F1500.0; feed for start of next move
G1 X17.5 Y15.3 E155.9 F3004.9 ;horizontal move
G1 X16.1 Y13.9 E157.9 F2011.8 ;horizontal move
G1 Y13.3 E158.5 F1658.7 ;horizontal move
G1 X15.8 Y12.8 E159.1 F1126.4 ;horizontal move
G1 X19.4 E162.7 F3150.0 ;horizontal move
G1 X21.0 Y12.9 E164.3 ;horizontal move
G1 X24.2 E167.5 F1511.6 ;horizontal move
G1 Y16.1 E170.7 F3150.0 ;horizontal move
G1 X24.1 Y18.0 E172.6 ;horizontal move
G1 Y21.2 E175.8 F1512.0 ;horizontal move
G1 X20.9 E179.0 F3150.0 ;horizontal move
G1 X19.0 E180.9 ;horizontal move
G1 X15.8 E184.1 F1500.0 ;horizontal move
G1 Y18.0 E187.3 F3150.0 ;horizontal move
G1 Y16.6 E188.7 ;horizontal move
G1 Y12.8 E192.5 F844.4 ;horizontal move
G1 X16.1 Y13.3 E193.1 F1481.7 ;horizontal move
G1 Y13.9 E193.7 F1868.6 ;horizontal move
G1 X17.6 Y15.4 E195.8 F2958.3 ;horizontal move
G1 F18000.0; feed for start of next move
G1 E135.8; extruder retraction
G1 F1500.0; feed for start of next move
G1 X19.5 Y17.4 F3500.0 ;horizontal move
G1 F1500.0; feed for start of next move
G1 X19.9 Y17.0 F1877.7 ;horizontal move
G1 X20.3 Y16.7 F1500.0 ;horizontal move
G1 F18000.0; feed for start of next move
G1 E195.8; extruder dwell
G1 F1500.0; feed for start of next move
G1 X22.4 Y18.9 E198.8 F3108.5 ;horizontal move
G1 X23.9 Y20.4 E200.9 F2180.6 ;horizontal move
G1 X24.6 Y21.7 E202.4 F1127.9 ;horizontal move
G1 X21.0 E206.0 F3150.0 ;horizontal move
G1 X18.5 E208.5 ;horizontal move
G1 X15.3 E211.7 F1500.0 ;horizontal move
G1 Y18.5 E214.9 F3150.0 ;horizontal move
G1 Y15.5 E217.9 ;horizontal move
G1 Y12.3 E221.1 F1490.4 ;horizontal move
G1 X18.5 E224.3 F3150.0 ;horizontal move
G1 X21.5 Y12.4 E227.3 ;horizontal move
G1 X24.7 E230.5 F1510.4 ;horizontal move
G1 X24.6 Y15.6 E233.7 F3150.0 ;horizontal move
G1 Y17.8 E235.9 ;horizontal move
G1 Y21.7 E239.8 F851.2 ;horizontal move
G1 X23.9 Y20.4 E241.3 F2051.2 ;horizontal move
G1 X22.4 Y18.9 E243.4 F3064.2 ;horizontal move
G1 F18000.0; feed for start of next move
G1 E183.4; extruder retraction
G1 F1500.0; feed for start of next move
G1 X20.3 Y16.7 F3500.0 ;horizontal move
G1 F1500.0; feed for start of next move
G1 X22.1 Y18.5 F2906.0 ;horizontal move
G1 X23.9 Y20.4 F1500.0 ;horizontal move
G1 F18000.0; feed for start of next move
G1 E243.4; extruder dwell
G1 F1500.0; feed for start of next move
G1 X23.8 Y20.9 E243.9 F1046.5 ;horizontal move
G1 X20.5 Y17.6 E248.6 F3500.0 ;horizontal move
G1 X19.1 Y16.2 E250.6 ;horizontal move
G1 X16.1 Y13.3 E254.7 F1500.0 ;horizontal move
G1 F18000.0; feed for start of next move
G1 E194.7; extruder retraction
G1 F1500.0; feed for start of next move
G1 X17.8 Y15.4 F2939.7 ;horizontal move
G1 X19.5 Y17.4 F1500.0 ;horizontal move
G1 F18000.0; feed for start of next move
G1 E254.7; extruder dwell
G1 F1500.0; feed for start of next move
G1 X21.0 Y18.9 E256.9 F2735.4 ;horizontal move
G1 X22.9 Y20.9 E259.6 F976.6 ;horizontal move
G1 X22.4 E260.1 F1499.9 ;horizontal move
G1 X19.4 Y18.0 E264.3 F3484.6 ;horizontal move
G1 X16.1 Y14.8 E268.9 F977.4 ;horizontal move
G1 Y15.3 E269.4 F1500.4 ;horizontal move
G1 X18.6 Y17.9 E273.0 F3304.9 ;horizontal move
G1 X21.5 Y20.9 E277.2 F978.4 ;horizontal move
G1 X20.9 E277.8 F1501.1 ;horizontal move
G1 X18.7 Y18.7 E280.9 F3122.5 ;horizontal move
G1 X16.1 Y16.1 E284.6 F976.3 ;horizontal move
G1 Y16.7 E285.2 F1547.0 ;horizontal move
G1 X17.9 Y18.6 E287.8 F2932.4 ;horizontal move
G1 X20.1 Y20.9 E291.0 F977.5 ;horizontal move
G1 X19.6 E291.5 F1500.5 ;horizontal move
G1 X18.0 Y19.4 E293.7 F2713.8 ;horizontal move
G1 X16.1 Y17.6 E296.3 F983.9 ;horizontal move
G1 Y18.1 E296.8 F1504.7 ;horizontal move
G1 X17.2 Y19.3 E298.4 F2480.7 ;horizontal move
G1 X18.7 Y20.9 E300.6 F987.8 ;horizontal move
G1 X18.1 E301.2 F1507.3 ;horizontal move
G1 X17.3 Y20.1 E302.3 F2232.4 ;horizontal move
G1 X16.1 Y19.0 E304.0 F986.0 ;horizontal move
G1 Y19.6 E304.6 F1553.1 ;horizontal move
G1 X16.5 Y20.0 E305.1 F1960.2 ;horizontal move
G1 X17.3 Y20.9 E306.3 F995.5 ;horizontal move
G1 X16.7 E306.9 F1559.2 ;horizontal move
G1 X16.4 Y20.6 E307.3 F1832.7 ;horizontal move
G1 X16.1 Y20.3 E307.8 F1500.0 ;horizontal move
G1 F18000.0; feed for start of next move
G1 E247.8; extruder retraction
G1 F1500.0; feed for start of next move
G1 X18.2 Y18.5 F2981.3 ;horizontal move
G1 X20.3 Y16.7 F1500.0 ;horizontal move
G1 F18000.0; feed for start of next move
G1 E307.8; extruder dwell
G1 F1500.0; feed for start of next move
G1 X18.7 Y15.1 E310.0 F2785.7 ;horizontal move
G1 X16.7 Y13.1 E312.9 F974.1 ;horizontal move
G1 X17.2 E313.4 F1498.3 ;horizontal move
G1 X20.2 Y16.0 E317.5 F3500.0 ;horizontal move
G1 X20.5 Y16.3 E318.0 ;horizontal move
G1 X23.9 Y19.6 E322.7 F977.0 ;horizontal move
G1 Y19.0 E323.3 F1500.2 ;horizontal move
G1 X21.2 Y16.2 E327.2 F3395.9 ;horizontal move
G1 X18.1 Y13.1 E331.6 F977.9 ;horizontal move
G1 X18.7 E332.2 F1500.8 ;horizontal move
G1 X21.1 Y15.4 E335.5 F3218.6 ;horizontal move
G1 X23.9 Y18.2 E339.5 F975.9 ;horizontal move
G1 Y17.6 E340.1 F1546.7 ;horizontal move
G1 X21.9 Y15.6 E342.9 F3027.3 ;horizontal move
G1 X19.5 Y13.1 E346.3 F930.4 ;horizontal move
G1 X20.2 E347.0 F1567.2 ;horizontal move
G1 X21.8 Y14.7 E349.3 F2814.0 ;horizontal move
G1 X23.9 Y16.7 E352.2 F978.4 ;horizontal move
G1 Y16.2 E352.7 F1501.1 ;horizontal move
G1 X22.6 Y14.9 E354.5 F2579.8 ;horizontal move
G1 X21.0 Y13.1 E357.0 F986.0 ;horizontal move
G1 X21.5 E357.5 F1506.0 ;horizontal move
G1 X22.5 Y14.0 E358.8 F2333.8 ;horizontal move
G1 X23.9 Y15.3 E360.7 F991.3 ;horizontal move
G1 Y14.8 E361.2 F1509.5 ;horizontal move
G1 X23.3 Y14.1 E362.1 F2068.6 ;horizontal move
G1 X22.4 Y13.1 E363.5 F990.4 ;horizontal move
G1 X23.0 E364.1 F1555.9 ;horizontal move
G1 X23.2 Y13.3 E364.4 F1774.4 ;horizontal move
G1 X23.9 Y13.9 E365.3 F1008.8 ;horizontal move
G1 Y13.6 E365.6 F1318.2 ;horizontal move
G1 X23.8 Y13.3 E365.9 F1608.6 ;horizontal move
G1 Y13.1 E366.1 F1500.0 ;horizontal move
G1 F18000.0; feed for start of next move
G1 E306.1; extruder retraction
G1 F1500.0; feed for start of next move
;#!LAYER: 2/33
G28 X0 ;set x 0
G28 Y0 ;set y 0
G92 E0 ;zero the extruded length
G92 E0 ;zero the extruded length
G92 E0 ;zero the extruded length
T1; select new extruder
M113; set extruder to use pot for PWM
G92 E0 ;zero the extruded length
T0; select new extruder
M113; set extruder to use pot for PWM
G1 F50.0; feed for start of next move
G1 Z0.4 ;z move
T0; select new extruder
M113; set extruder to use pot for PWM
G1 F1500.0; feed for start of next move
G1 X3.3 Y2.5 F3500.0 ;horizontal move
G1 X8.7 Y6.5 ;horizontal move
G1 X12.0 Y9.0 F1500.0 ;horizontal move
G1 F18000.0; feed for start of next move
G1 E60.0; extruder dwell
G1 F1500.0; feed for start of next move
G1 F3500.0; feed for start of next move
G1 E85.0; extruder dwell
G1 F1500.0; feed for start of next move
G1 Y13.2 E89.2 F3500.0 ;horizontal move
G1 Y14.8 E90.8 ;horizontal move
G1 Y19.0 E95.0 F1500.0 ;horizontal move
G1 X11.0 E96.0 F2156.4 ;horizontal move
G1 X10.0 E97.0 F1500.0 ;horizontal move
G1 Y14.8 E101.2 F3500.0 ;horizontal move
G1 Y11.2 E104.8 ;horizontal move
G1 Y7.0 E109.0 F1500.0 ;horizontal move
G1 X14.2 E113.2 F3500.0 ;horizontal move
G1 X27.8 E126.8 ;horizontal move
G1 X32.0 E131.0 F1500.0 ;horizontal move
G1 Y8.0 E132.0 F2156.4 ;horizontal move
G1 Y9.0 E133.0 F1500.0 ;horizontal move
G1 X27.8 E137.2 F3500.0 ;horizontal move
G1 X16.2 E148.8 ;horizontal move
G1 X12.0 E153.0 F1500.0 ;horizontal move
G1 F18000.0; feed for start of next move
G1 E93.0; extruder retraction
G1 F1500.0; feed for start of next move
G1 X15.0 Y11.9 F3500.0 ;horizontal move
G1 X16.6 Y13.6 ;horizontal move
G1 X19.6 Y16.5 F1500.0 ;horizontal move
G1 F18000.0; feed for start of next move
G1 E153.0; extruder dwell
G1 F1500.0; feed for start of next move
G1 X21.6 Y14.5 E155.8 F3019.6 ;horizontal move
G1 X23.0 Y13.1 E157.8 F2080.0 ;horizontal move
G1 X23.6 E158.4 F1740.9 ;horizontal move
G1 X24.2 Y12.9 E159.0 F1216.4 ;horizontal move
G1 Y16.4 E162.5 F3150.0 ;horizontal move
G1 X24.1 Y18.0 E164.1 ;horizontal move
G1 Y21.2 E167.3 F1512.0 ;horizontal move
G1 X20.9 E170.5 F3150.0 ;horizontal move
G1 X19.0 E172.4 ;horizontal move
G1 X15.8 E175.6 F1500.0 ;horizontal move
G1 Y18.0 E178.8 F3150.0 ;horizontal move
G1 Y16.0 E180.8 ;horizontal move
G1 Y12.8 E184.0 F1489.3 ;horizontal move
G1 X19.0 E187.2 F3150.0 ;horizontal move
G1 X20.3 E188.5 ;horizontal move
G1 X24.2 Y12.9 E192.4 F807.7 ;horizontal move
G1 X23.6 Y13.1 E193.1 F1484.3 ;horizontal move
G1 X23.0 E193.7 F1870.6 ;horizontal move
G1 X21.5 Y14.7 E195.9 F2950.3 ;horizontal move
G1 F18000.0; feed for start of next move
G1 E135.9; extruder retraction
G1 F1500.0; feed for start of next move
G1 X19.6 Y16.5 F3500.0 ;horizontal move
G1 F1500.0; feed for start of next move
G1 X19.9 Y16.9 F1857.4 ;horizontal move
G1 X20.2 Y17.3 F1500.0 ;horizontal move
G1 F18000.0; feed for start of next move
G1 E195.9; extruder dwell
G1 F1500.0; feed for start of next move
G1 X18.0 Y19.4 E198.9 F3110.4 ;horizontal move
G1 X16.6 Y20.9 E201.0 F2185.9 ;horizontal move
G1 X15.3 Y21.7 E202.5 F1105.2 ;horizontal move
G1 Y18.0 E206.2 F3150.0 ;horizontal move
G1 Y15.5 E208.7 ;horizontal move
G1 Y12.3 E211.9 F1490.4 ;horizontal move
G1 X18.5 E215.1 F3150.0 ;horizontal move
G1 X21.5 Y12.4 E218.1 ;horizontal move
G1 X24.7 E221.3 F1510.4 ;horizontal move
G1 X24.6 Y15.6 E224.5 F3150.0 ;horizontal move
G1 Y18.5 E227.4 ;horizontal move
G1 Y21.7 E230.6 F1510.7 ;horizontal move
G1 X21.4 E233.8 F3150.0 ;horizontal move
G1 X19.1 E236.1 ;horizontal move
G1 X15.3 E239.9 F862.3 ;horizontal move
G1 X16.6 Y20.9 E241.4 F2073.7 ;horizontal move
G1 X18.1 Y19.4 E243.5 F3071.7 ;horizontal move
G1 F18000.0; feed for start of next move
G1 E183.5; extruder retraction
G1 F1500.0; feed for start of next move
G1 X20.2 Y17.3 F3500.0 ;horizontal move
G1 F1500.0; feed for start of next move
G1 X18.4 Y19.1 F2891.3 ;horizontal move
G1 X16.6 Y20.9 F1500.0 ;horizontal move
G1 F18000.0; feed for start of next move
G1 E243.5; extruder dwell
G1 F1500.0; feed for start of next move
G1 X16.1 Y20.8 E244.1 F1046.6 ;horizontal move
G1 X19.3 Y17.5 E248.6 F3500.0 ;horizontal move
G1 X20.7 Y16.1 E250.6 ;horizontal move
G1 X23.6 Y13.1 E254.8 F1500.0 ;horizontal move
G1 F18000.0; feed for start of next move
G1 E194.8; extruder retraction
G1 F1500.0; feed for start of next move
G1 X21.6 Y14.8 F2924.0 ;horizontal move
G1 X19.6 Y16.5 F1500.0 ;horizontal move
G1 F18000.0; feed for start of next move
G1 E254.8; extruder dwell
G1 F1500.0; feed for start of next move
G1 X18.0 Y18.0 E257.0 F2726.1 ;horizontal move
G1 X16.1 Y19.9 E259.7 F976.7 ;horizontal move
G1 Y19.4 E260.2 F1500.0 ;horizontal move
G1 X18.9 Y16.5 E264.2 F3470.0 ;horizontal move
G1 X22.1 Y13.1 E268.9 F977.5 ;horizontal move
G1 X21.6 E269.4 F1500.5 ;horizontal move
G1 X19.0 Y15.6 E273.0 F3289.5 ;horizontal move
G1 X16.1 Y18.5 E277.1 F978.5 ;horizontal move
G1 Y17.9 E277.7 F1501.2 ;horizontal move
G1 X18.2 Y15.7 E280.7 F3106.1 ;horizontal move
G1 X20.8 Y13.1 E284.4 F976.4 ;horizontal move
G1 X20.2 E285.0 F1547.1 ;horizontal move
G1 X18.3 Y14.9 E287.6 F2915.1 ;horizontal move
G1 X16.1 Y17.1 E290.7 F977.6 ;horizontal move
G1 Y16.6 E291.2 F1500.6 ;horizontal move
G1 X17.5 Y15.0 E293.4 F2713.9 ;horizontal move
G1 X19.4 Y13.1 E296.0 F983.9 ;horizontal move
G1 X18.8 E296.6 F1504.7 ;horizontal move
G1 X17.7 Y14.2 E298.2 F2480.7 ;horizontal move
G1 X16.1 Y15.7 E300.4 F987.8 ;horizontal move
G1 Y15.1 E301.0 F1507.3 ;horizontal move
G1 X16.9 Y14.3 E302.1 F2232.4 ;horizontal move
G1 X18.0 Y13.1 E303.8 F986.0 ;horizontal move
G1 X17.4 E304.4 F1553.1 ;horizontal move
G1 X17.0 Y13.5 E304.9 F1960.2 ;horizontal move
G1 X16.1 Y14.3 E306.1 F995.5 ;horizontal move
G1 Y13.7 E306.7 F1559.2 ;horizontal move
G1 X16.4 Y13.4 E307.2 F1832.7 ;horizontal move
G1 X16.7 Y13.1 E307.6 F1500.0 ;horizontal move
G1 F18000.0; feed for start of next move
G1 E247.6; extruder retraction
G1 F1500.0; feed for start of next move
G1 X18.5 Y15.2 F2968.3 ;horizontal move
G1 X20.2 Y17.3 F1500.0 ;horizontal move
G1 F18000.0; feed for start of next move
G1 E307.6; extruder dwell
G1 F1500.0; feed for start of next move
G1 X21.9 Y15.7 E309.9 F2785.7 ;horizontal move
G1 X23.9 Y13.7 E312.7 F974.1 ;horizontal move
G1 Y14.2 E313.2 F1498.3 ;horizontal move
G1 X21.0 Y17.2 E317.4 F3500.0 ;horizontal move
G1 X20.7 Y17.5 E317.8 ;horizontal move
G1 X17.4 Y20.9 E322.6 F977.0 ;horizontal move
G1 X17.9 E323.1 F1500.2 ;horizontal move
G1 X20.7 Y18.2 E327.0 F3395.9 ;horizontal move
G1 X23.9 Y15.1 E331.4 F977.9 ;horizontal move
G1 Y15.7 E332.0 F1500.8 ;horizontal move
G1 X21.5 Y18.1 E335.4 F3218.6 ;horizontal move
G1 X18.8 Y20.9 E339.3 F975.9 ;horizontal move
G1 X19.4 E339.9 F1546.7 ;horizontal move
G1 X21.4 Y18.9 E342.7 F3034.6 ;horizontal move
G1 X23.9 Y16.5 E346.2 F976.9 ;horizontal move
G1 Y17.1 E346.8 F1547.4 ;horizontal move
G1 X22.3 Y18.8 E349.1 F2826.6 ;horizontal move
G1 X20.2 Y20.9 E352.1 F978.3 ;horizontal move
G1 X20.8 E352.7 F1501.0 ;horizontal move
G1 X22.1 Y19.6 E354.5 F2599.4 ;horizontal move
G1 X23.9 Y17.9 E357.0 F985.6 ;horizontal move
G1 Y18.5 E357.6 F1505.8 ;horizontal move
G1 X23.0 Y19.5 E359.0 F2355.4 ;horizontal move
G1 X21.7 Y20.9 E360.9 F990.7 ;horizontal move
G1 X22.2 E361.4 F1509.1 ;horizontal move
G1 X22.8 Y20.3 E362.2 F2092.7 ;horizontal move
G1 X23.9 Y19.3 E363.7 F989.7 ;horizontal move
G1 Y19.9 E364.3 F1555.5 ;horizontal move
G1 X23.7 Y20.2 E364.7 F1801.8 ;horizontal move
G1 X23.0 Y20.9 E365.7 F1006.1 ;horizontal move
G1 X23.5 E366.2 F1471.1 ;horizontal move
G1 X23.7 Y20.8 E366.4 F1640.2 ;horizontal move
G1 X23.9 Y20.7 E366.6 F1500.0 ;horizontal move
G1 F18000.0; feed for start of next move
G1 E306.6; extruder retraction
G1 F1500.0; feed for start of next move
;#!LAYER: 3/33
G28 X0 ;set x 0
G28 Y0 ;set y 0
G92 E0 ;zero the extruded length
G92 E0 ;zero the extruded length
G92 E0 ;zero the extruded length
T1; select new extruder
M113; set extruder to use pot for PWM
G92 E0 ;zero the extruded length
T0; select new extruder
M113; set extruder to use pot for PWM
G1 F50.0; feed for start of next move
G1 Z0.7 ;z move
T0; select new extruder
M113; set extruder to use pot for PWM
G1 F1500.0; feed for start of next move
G1 X3.3 Y2.5 F3500.0 ;horizontal move
G1 X8.7 Y6.5 ;horizontal move
G1 X12.0 Y9.0 F1500.0 ;horizontal move
G1 F18000.0; feed for start of next move
G1 E60.0; extruder dwell
G1 F1500.0; feed for start of next move
G1 F3500.0; feed for start of next move
G1 E85.0; extruder dwell
G1 F1500.0; feed for start of next move
G1 Y13.2 E89.2 F3500.0 ;horizontal move
G1 Y14.8 E90.8 ;horizontal move
G1 Y19.0 E95.0 F1500.0 ;horizontal move
G1 X11.0 E96.0 F2156.4 ;horizontal move
G1 X10.0 E97.0 F1500.0 ;horizontal move
G1 Y14.8 E101.2 F3500.0 ;horizontal move
G1 Y11.2 E104.8 ;horizontal move
G1 Y7.0 E109.0 F1500.0 ;horizontal move
G1 X14.2 E113.2 F3500.0 ;horizontal move
G1 X27.8 E126.8 ;horizontal move
G1 X32.0 E131.0 F1500.0 ;horizontal move
G1 Y8.0 E132.0 F2156.4 ;horizontal move
G1 Y9.0 E133.0 F1500.0 ;horizontal move
G1 X27.8 E137.2 F3500.0 ;horizontal move
G1 X16.2 E148.8 ;horizontal move
G1 X12.0 E153.0 F1500.0 ;horizontal move
G1 F18000.0; feed for start of next move
G1 E93.0; extruder retraction
G1 F1500.0; feed for start of next move
G1 X15.2 Y11.7 F3500.0 ;horizontal move
G1 X17.3 Y13.6 ;horizontal move
G1 X20.5 Y16.3 F1500.0 ;horizontal move
G1 F18000.0; feed for start of next move
G1 E153.0; extruder dwell
G1 F1500.0; feed for start of next move
G1 X18.4 Y14.2 E156.0 F3083.6 ;horizontal move
G1 X17.2 Y13.1 E157.6 F2369.9 ;horizontal move
G1 X15.3 Y12.3 E159.7 F801.6 ;horizontal move
G1 X19.2 E163.6 F3150.0 ;horizontal move
G1 X21.5 Y12.4 E165.9 ;horizontal move
G1 X24.7 E169.1 F1510.4 ;horizontal move
G1 X24.6 Y15.6 E172.3 F3150.0 ;horizontal move
G1 Y18.5 E175.2 ;horizontal move
G1 Y21.7 E178.4 F1510.7 ;horizontal move
G1 X21.4 E181.6 F3150.0 ;horizontal move
G1 X18.5 E184.5 ;horizontal move
G1 X15.3 E187.7 F1500.0 ;horizontal move
G1 Y18.5 E190.9 F3150.0 ;horizontal move
G1 Y15.8 E193.6 ;horizontal move
G1 Y12.3 E197.1 F1217.7 ;horizontal move
G1 X17.2 Y13.1 E199.1 F2541.0 ;horizontal move
G1 X18.3 Y14.1 E200.6 F3150.0 ;horizontal move
G1 F18000.0; feed for start of next move
G1 E140.6; extruder retraction
G1 F1500.0; feed for start of next move
G1 X20.5 Y16.3 F3500.0 ;horizontal move
G1 F1500.0; feed for start of next move
G1 X19.5 Y17.4 F2412.0 ;horizontal move
G1 X18.5 Y18.5 F1500.0 ;horizontal move
G1 F18000.0; feed for start of next move
G1 E200.6; extruder dwell
G1 F1500.0; feed for start of next move
G1 X20.5 Y20.4 E203.4 F2965.3 ;horizontal move
G1 X20.9 Y20.9 E204.0 F2681.2 ;horizontal move
G1 X21.2 E204.3 F2784.4 ;horizontal move
G1 X22.9 E206.0 F1888.2 ;horizontal move
G1 X24.1 Y21.2 E207.2 F772.4 ;horizontal move
G1 X20.2 E211.1 F3150.0 ;horizontal move
G1 X19.0 E212.3 ;horizontal move
G1 X15.8 E215.5 F1500.0 ;horizontal move
G1 Y18.0 E218.7 F3150.0 ;horizontal move
G1 Y16.0 E220.7 ;horizontal move
G1 Y12.8 E223.9 F1489.3 ;horizontal move
G1 X19.0 E227.1 F3150.0 ;horizontal move
G1 X21.0 Y12.9 E229.1 ;horizontal move
G1 X24.2 E232.3 F1511.6 ;horizontal move
G1 Y16.1 E235.5 F3150.0 ;horizontal move
G1 X24.1 Y17.8 E237.3 ;horizontal move
G1 Y21.2 E240.7 F1323.4 ;horizontal move
G1 X22.9 Y20.9 E241.9 F2172.5 ;horizontal move
G1 X21.4 E243.4 F2886.3 ;horizontal move
G1 X20.9 E243.9 F2681.2 ;horizontal move
G1 X20.5 Y20.4 E244.5 F2965.3 ;horizontal move
G1 F18000.0; feed for start of next move
G1 E184.5; extruder retraction
G1 F1500.0; feed for start of next move
G1 X18.5 Y18.5 F3500.0 ;horizontal move
G1 F1500.0; feed for start of next move
G1 X20.7 Y19.7 F2874.8 ;horizontal move
G1 X22.9 Y20.9 F1500.0 ;horizontal move
G1 F18000.0; feed for start of next move
G1 E244.5; extruder dwell
G1 F1500.0; feed for start of next move
G1 X20.0 Y17.9 E248.7 F3500.0 ;horizontal move
G1 X18.4 Y16.2 E251.0 ;horizontal move
G1 X16.1 Y13.9 E254.3 F2074.7 ;horizontal move
G1 Y13.1 E255.1 F1605.1 ;horizontal move
G1 X16.6 E255.6 F1945.0 ;horizontal move
G1 X17.2 E256.2 F1500.0 ;horizontal move
G1 F18000.0; feed for start of next move
G1 E196.2; extruder retraction
G1 F1500.0; feed for start of next move
G1 X18.9 Y14.7 F2786.8 ;horizontal move
G1 X20.5 Y16.3 F1500.0 ;horizontal move
G1 F18000.0; feed for start of next move
G1 E256.2; extruder dwell
G1 F1500.0; feed for start of next move
G1 X22.0 Y17.8 E258.3 F2679.1 ;horizontal move
G1 X23.9 Y19.6 E260.9 F977.0 ;horizontal move
G1 Y17.6 E262.9 F2388.8 ;horizontal move
G1 X22.4 Y16.0 E265.1 F3294.1 ;horizontal move
G1 X19.5 Y13.1 E269.2 F961.3 ;horizontal move
G1 X21.5 E271.2 F2412.9 ;horizontal move
G1 X22.0 Y13.5 E271.9 F2687.7 ;horizontal move
G1 X23.9 Y15.3 E274.5 F991.3 ;horizontal move
G1 Y13.9 E275.9 F2055.7 ;horizontal move
G1 Y13.6 E276.2 F1854.0 ;horizontal move
G1 X23.8 Y13.1 E276.7 F1500.0 ;horizontal move
G1 F18000.0; feed for start of next move
G1 E216.7; extruder retraction
G1 F1500.0; feed for start of next move
G1 X21.2 Y15.8 F3366.0 ;horizontal move
G1 X18.5 Y18.5 F1500.0 ;horizontal move
G1 F18000.0; feed for start of next move
G1 E276.7; extruder dwell
G1 F1500.0; feed for start of next move
G1 X17.5 Y17.5 E278.1 F2382.2 ;horizontal move
G1 X16.1 Y16.1 E280.1 F976.3 ;horizontal move
G1 Y18.1 E282.1 F2388.6 ;horizontal move
G1 X16.7 Y18.8 E283.0 F2806.1 ;horizontal move
G1 X18.7 Y20.9 E285.9 F987.8 ;horizontal move
G1 X17.0 E287.6 F2237.7 ;horizontal move
G1 X16.7 E287.9 F2070.4 ;horizontal move
G1 X16.1 Y20.3 E288.8 F1500.0 ;horizontal move
G1 F18000.0; feed for start of next move
G1 E228.8; extruder retraction
G1 F1500.0; feed for start of next move
;#!LAYER: 4/33
G28 X0 ;set x 0
G28 Y0 ;set y 0
G92 E0 ;zero the extruded length
G92 E0 ;zero the extruded length
G92 E0 ;zero the extruded length
T1; select new extruder
M113; set extruder to use pot for PWM
G92 E0 ;zero the extruded length
T0; select new extruder
M113; set extruder to use pot for PWM
G1 F50.0; feed for start of next move
G1 Z1.0 ;z move
T0; select new extruder
M113; set extruder to use pot for PWM
G1 F1500.0; feed for start of next move
G1 X3.3 Y2.5 F3500.0 ;horizontal move
G1 X8.7 Y6.5 ;horizontal move
G1 X12.0 Y9.0 F1500.0 ;horizontal move
G1 F18000.0; feed for start of next move
G1 E60.0; extruder dwell
G1 F1500.0; feed for start of next move
G1 F3500.0; feed for start of next move
G1 E85.0; extruder dwell
G1 F1500.0; feed for start of next move
G1 Y13.2 E89.2 F3500.0 ;horizontal move
G1 Y14.8 E90.8 ;horizontal move
G1 Y19.0 E95.0 F1500.0 ;horizontal move
G1 X11.0 E96.0 F2156.4 ;horizontal move
G1 X10.0 E97.0 F1500.0 ;horizontal move
G1 Y14.8 E101.2 F3500.0 ;horizontal move
G1 Y11.2 E104.8 ;horizontal move
G1 Y7.0 E109.0 F1500.0 ;horizontal move
G1 X14.2 E113.2 F3500.0 ;horizontal move
G1 X27.8 E126.8 ;horizontal move
G1 X32.0 E131.0 F1500.0 ;horizontal move
G1 Y8.0 E132.0 F2156.4 ;horizontal move
G1 Y9.0 E133.0 F1500.0 ;horizontal move
G1 X27.8 E137.2 F3500.0 ;horizontal move
G1 X16.2 E148.8 ;horizontal move
G1 X12.0 E153.0 F1500.0 ;horizontal move
G1 F18000.0; feed for start of next move
G1 E93.0; extruder retraction
G1 F1500.0; feed for start of next move
G1 X14.9 Y12.0 F3500.0 ;horizontal move
G1 X15.5 Y12.5 ;horizontal move
G1 X18.4 Y15.5 F1500.0 ;horizontal move
G1 F18000.0; feed for start of next move
G1 E153.0; extruder dwell
G1 F1500.0; feed for start of next move
G1 X16.5 Y17.5 E155.8 F2956.7 ;horizontal move
G1 X16.1 Y17.9 E156.3 F2681.4 ;horizontal move
G1 Y18.2 E156.6 F2796.8 ;horizontal move
G1 Y19.9 E158.3 F1924.1 ;horizontal move
G1 X15.8 Y21.2 E159.7 F770.4 ;horizontal move
G1 Y17.3 E163.6 F3150.0 ;horizontal move
G1 Y16.0 E164.9 ;horizontal move
G1 Y12.8 E168.1 F1489.3 ;horizontal move
G1 X19.0 E171.3 F3150.0 ;horizontal move
G1 X21.0 Y12.9 E173.3 ;horizontal move
G1 X24.2 E176.5 F1511.6 ;horizontal move
G1 Y16.1 E179.7 F3150.0 ;horizontal move
G1 X24.1 Y18.0 E181.6 ;horizontal move
G1 Y21.2 E184.8 F1512.0 ;horizontal move
G1 X20.9 E188.0 F3150.0 ;horizontal move
G1 X19.2 E189.7 ;horizontal move
G1 X15.8 E193.1 F1326.3 ;horizontal move
G1 X16.1 Y19.9 E194.4 F2206.3 ;horizontal move
G1 Y18.4 E195.9 F2899.1 ;horizontal move
G1 Y17.9 E196.4 F2681.4 ;horizontal move
G1 X16.5 Y17.5 E197.0 F2956.7 ;horizontal move
G1 F18000.0; feed for start of next move
G1 E137.0; extruder retraction
G1 F1500.0; feed for start of next move
G1 X18.4 Y15.5 F3500.0 ;horizontal move
G1 F1500.0; feed for start of next move
G1 X19.5 Y16.5 F2412.0 ;horizontal move
G1 X20.6 Y17.5 F1500.0 ;horizontal move
G1 F18000.0; feed for start of next move
G1 E197.0; extruder dwell
G1 F1500.0; feed for start of next move
G1 X22.7 Y15.4 E199.9 F3063.1 ;horizontal move
G1 X23.9 Y14.2 E201.6 F2316.1 ;horizontal move
G1 X24.7 Y12.4 E203.6 F809.9 ;horizontal move
G1 X24.6 Y16.3 E207.5 F3150.0 ;horizontal move
G1 Y18.5 E209.7 ;horizontal move
G1 Y21.7 E212.9 F1510.7 ;horizontal move
G1 X21.4 E216.1 F3150.0 ;horizontal move
G1 X18.5 E219.0 ;horizontal move
G1 X15.3 E222.2 F1500.0 ;horizontal move
G1 Y18.5 E225.4 F3150.0 ;horizontal move
G1 Y15.5 E228.4 ;horizontal move
G1 Y12.3 E231.6 F1490.4 ;horizontal move
G1 X18.5 E234.8 F3150.0 ;horizontal move
G1 X21.1 Y12.4 E237.4 ;horizontal move
G1 X24.7 E241.0 F1210.6 ;horizontal move
G1 X23.9 Y14.2 E243.0 F2484.7 ;horizontal move
G1 X22.8 Y15.3 E244.5 F3128.5 ;horizontal move
G1 F18000.0; feed for start of next move
G1 E184.5; extruder retraction
G1 F1500.0; feed for start of next move
G1 X20.6 Y17.5 F3500.0 ;horizontal move
G1 F1500.0; feed for start of next move
G1 X22.3 Y15.9 F2801.8 ;horizontal move
G1 X23.9 Y14.2 F1500.0 ;horizontal move
G1 F18000.0; feed for start of next move
G1 E244.5; extruder dwell
G1 F1500.0; feed for start of next move
G1 X23.8 Y13.6 E245.1 F1928.9 ;horizontal move
G1 Y13.1 E245.6 F1610.9 ;horizontal move
G1 X23.0 E246.4 F2113.6 ;horizontal move
G1 X20.7 Y15.4 E249.7 F3500.0 ;horizontal move
G1 X19.1 Y17.0 E252.0 ;horizontal move
G1 X16.1 Y19.9 E256.1 F1500.0 ;horizontal move
G1 F18000.0; feed for start of next move
G1 E196.1; extruder retraction
G1 F1500.0; feed for start of next move
G1 X17.3 Y17.7 F2864.9 ;horizontal move
G1 X18.4 Y15.5 F1500.0 ;horizontal move
G1 F18000.0; feed for start of next move
G1 E256.1; extruder dwell
G1 F1500.0; feed for start of next move
G1 X19.4 Y14.5 E257.5 F2375.0 ;horizontal move
G1 X20.8 Y13.1 E259.5 F993.5 ;horizontal move
G1 X18.8 E261.5 F2365.8 ;horizontal move
G1 X18.2 Y13.7 E262.4 F2796.5 ;horizontal move
G1 X16.1 Y15.7 E265.3 F987.8 ;horizontal move
G1 Y14.0 E267.0 F2237.7 ;horizontal move
G1 Y13.7 E267.3 F2070.4 ;horizontal move
G1 X16.7 Y13.1 E268.1 F1500.0 ;horizontal move
G1 F18000.0; feed for start of next move
G1 E208.1; extruder retraction
G1 F1500.0; feed for start of next move
G1 X18.7 Y15.3 F3050.5 ;horizontal move
G1 X20.6 Y17.5 F1500.0 ;horizontal move
G1 F18000.0; feed for start of next move
G1 E268.1; extruder dwell
G1 F1500.0; feed for start of next move
G1 X19.2 Y19.0 E270.2 F2679.1 ;horizontal move
G1 X17.4 Y20.9 E272.8 F977.0 ;horizontal move
G1 X19.4 E274.8 F2388.8 ;horizontal move
G1 X20.9 Y19.4 E276.9 F3296.4 ;horizontal move
G1 X23.9 Y16.5 E281.1 F976.9 ;horizontal move
G1 Y18.5 E283.1 F2388.8 ;horizontal move
G1 X23.4 Y19.0 E283.8 F2695.8 ;horizontal move
G1 X21.7 Y20.9 E286.3 F990.7 ;horizontal move
G1 X23.1 E287.7 F2081.0 ;horizontal move
G1 X23.5 E288.1 F1793.3 ;horizontal move
G1 X23.9 Y20.7 E288.6 F1500.0 ;horizontal move
G1 F18000.0; feed for start of next move
G1 E228.6; extruder retraction
G1 F1500.0; feed for start of next move
;#!LAYER: 5/33
G28 X0 ;set x 0
G28 Y0 ;set y 0
G92 E0 ;zero the extruded length
G92 E0 ;zero the extruded length
G92 E0 ;zero the extruded length
T1; select new extruder
M113; set extruder to use pot for PWM
G92 E0 ;zero the extruded length
T0; select new extruder
M113; set extruder to use pot for PWM
G1 F50.0; feed for start of next move
G1 Z1.3 ;z move
T0; select new extruder
M113; set extruder to use pot for PWM
G1 F1500.0; feed for start of next move
G1 X3.3 Y2.5 F3500.0 ;horizontal move
G1 X8.7 Y6.5 ;horizontal move
G1 X12.0 Y9.0 F1500.0 ;horizontal move
G1 F18000.0; feed for start of next move
G1 E60.0; extruder dwell
G1 F1500.0; feed for start of next move
G1 F3500.0; feed for start of next move
G1 E85.0; extruder dwell
G1 F1500.0; feed for start of next move
G1 Y13.2 E89.2 F3500.0 ;horizontal move
G1 Y14.8 E90.8 ;horizontal move
G1 Y19.0 E95.0 F1500.0 ;horizontal move
G1 X11.0 E96.0 F2156.4 ;horizontal move
G1 X10.0 E97.0 F1500.0 ;horizontal move
G1 Y14.8 E101.2 F3500.0 ;horizontal move
G1 Y11.2 E104.8 ;horizontal move
G1 Y7.0 E109.0 F1500.0 ;horizontal move
G1 X14.2 E113.2 F3500.0 ;horizontal move
G1 X27.8 E126.8 ;horizontal move
G1 X32.0 E131.0 F1500.0 ;horizontal move
G1 Y8.0 E132.0 F2156.4 ;horizontal move
G1 Y9.0 E133.0 F1500.0 ;horizontal move
G1 X27.8 E137.2 F3500.0 ;horizontal move
G1 X16.2 E148.8 ;horizontal move
G1 X12.0 E153.0 F1500.0 ;horizontal move
G1 F18000.0; feed for start of next move
G1 E93.0; extruder retraction
G1 F1500.0; feed for start of next move
G1 X14.8 Y12.1 F3500.0 ;horizontal move
G1 X16.7 Y14.3 ;horizontal move
G1 X19.5 Y17.4 F1500.0 ;horizontal move
G1 F18000.0; feed for start of next move
G1 E153.0; extruder dwell
G1 F1500.0; feed for start of next move
G1 X21.8 Y19.3 E156.0 F3090.5 ;horizontal move
G1 X24.6 Y21.7 E159.7 F926.1 ;horizontal move
G1 X20.8 E163.5 F3150.0 ;horizontal move
G1 X18.5 E165.8 ;horizontal move
G1 X15.3 E169.0 F1500.0 ;horizontal move
G1 Y18.5 E172.2 F3150.0 ;horizontal move
G1 Y15.5 E175.2 ;horizontal move
G1 Y12.3 E178.4 F1490.4 ;horizontal move
G1 X18.5 E181.6 F3150.0 ;horizontal move
G1 X21.5 Y12.4 E184.6 ;horizontal move
G1 X24.7 E187.8 F1510.4 ;horizontal move
G1 X24.6 Y15.6 E191.0 F3150.0 ;horizontal move
G1 Y18.0 E193.4 ;horizontal move
G1 Y21.7 E197.1 F1020.9 ;horizontal move
G1 X21.9 Y19.4 E200.6 F3105.4 ;horizontal move
G1 F18000.0; feed for start of next move
G1 E140.6; extruder retraction
G1 F1500.0; feed for start of next move
G1 X19.5 Y17.4 F3500.0 ;horizontal move
G1 F1500.0; feed for start of next move
G1 X20.0 Y16.9 F2008.5 ;horizontal move
G1 X20.5 Y16.3 F1500.0 ;horizontal move
G1 F18000.0; feed for start of next move
G1 E200.6; extruder dwell
G1 F1500.0; feed for start of next move
G1 X18.6 Y14.4 E203.3 F2959.2 ;horizontal move
G1 X17.2 Y13.1 E205.2 F2028.1 ;horizontal move
G1 X15.8 Y12.8 E206.7 F763.7 ;horizontal move
G1 X19.7 E210.6 F3150.0 ;horizontal move
G1 X21.0 Y12.9 E211.9 ;horizontal move
G1 X24.2 E215.1 F1511.6 ;horizontal move
G1 Y16.1 E218.3 F3150.0 ;horizontal move
G1 X24.1 Y18.0 E220.2 ;horizontal move
G1 Y21.2 E223.4 F1512.0 ;horizontal move
G1 X20.9 E226.6 F3150.0 ;horizontal move
G1 X19.0 E228.5 ;horizontal move
G1 X15.8 E231.7 F1500.0 ;horizontal move
G1 Y18.0 E234.9 F3150.0 ;horizontal move
G1 Y16.2 E236.7 ;horizontal move
G1 Y12.8 E240.1 F1347.0 ;horizontal move
G1 X17.2 Y13.1 E241.5 F2311.9 ;horizontal move
G1 X18.4 Y14.3 E243.2 F3061.5 ;horizontal move
G1 F18000.0; feed for start of next move
G1 E183.2; extruder retraction
G1 F1500.0; feed for start of next move
G1 X20.5 Y16.3 F3500.0 ;horizontal move
G1 F1500.0; feed for start of next move
G1 X18.9 Y14.7 F2786.8 ;horizontal move
G1 X17.2 Y13.1 F1500.0 ;horizontal move
G1 F18000.0; feed for start of next move
G1 E243.2; extruder dwell
G1 F1500.0; feed for start of next move
G1 X16.6 E243.8 F1945.0 ;horizontal move
G1 X16.1 E244.3 F1605.1 ;horizontal move
G1 Y13.9 E245.1 F2074.7 ;horizontal move
G1 X17.5 Y15.3 E247.1 F3026.2 ;horizontal move
G1 X19.5 Y17.4 E250.0 F1500.0 ;horizontal move
G1 F18000.0; feed for start of next move
G1 E190.0; extruder retraction
G1 F1500.0; feed for start of next move
G1 F18000.0; feed for start of next move
G1 E250.0; extruder dwell
G1 F1500.0; feed for start of next move
G1 X21.0 Y18.9 E252.1 F2735.4 ;horizontal move
G1 X22.9 Y20.9 E254.8 F976.6 ;horizontal move
G1 X20.9 E256.8 F2388.7 ;horizontal move
G1 X19.2 Y19.2 E259.2 F3387.6 ;horizontal move
G1 X16.1 Y16.1 E263.6 F976.3 ;horizontal move
G1 Y18.1 E265.6 F2388.6 ;horizontal move
G1 X16.7 Y18.8 E266.6 F2806.1 ;horizontal move
G1 X18.7 Y20.9 E269.5 F987.8 ;horizontal move
G1 X17.0 E271.2 F2237.7 ;horizontal move
G1 X16.7 E271.5 F2070.4 ;horizontal move
G1 X16.1 Y20.3 E272.3 F1500.0 ;horizontal move
G1 F18000.0; feed for start of next move
G1 E212.3; extruder retraction
G1 F1500.0; feed for start of next move
G1 X18.3 Y18.3 F3063.6 ;horizontal move
G1 X20.5 Y16.3 F1500.0 ;horizontal move
G1 F18000.0; feed for start of next move
G1 E272.3; extruder dwell
G1 F1500.0; feed for start of next move
G1 X22.0 Y17.8 E274.4 F2679.1 ;horizontal move
G1 X23.9 Y19.6 E277.0 F977.0 ;horizontal move
G1 Y17.6 E279.0 F2388.8 ;horizontal move
G1 X22.4 Y16.0 E281.2 F3294.1 ;horizontal move
G1 X19.5 Y13.1 E285.3 F961.3 ;horizontal move
G1 X21.5 E287.3 F2412.9 ;horizontal move
G1 X22.0 Y13.5 E288.0 F2687.7 ;horizontal move
G1 X23.9 Y15.3 E290.6 F991.3 ;horizontal move
G1 Y13.9 E292.0 F2055.7 ;horizontal move
G1 Y13.6 E292.3 F1854.0 ;horizontal move
G1 X23.8 Y13.1 E292.8 F1500.0 ;horizontal move
G1 F18000.0; feed for start of next move
G1 E232.8; extruder retraction
G1 F1500.0; feed for start of next move
;#!LAYER: 6/33
G28 X0 ;set x 0
G28 Y0 ;set y 0
G92 E0 ;zero the extruded length
G92 E0 ;zero the extruded length
G92 E0 ;zero the extruded length
T1; select new extruder
M113; set extruder to use pot for PWM
G92 E0 ;zero the extruded length
T0; select new extruder
M113; set extruder to use pot for PWM
G1 F50.0; feed for start of next move
G1 Z1.6 ;z move
T0; select new extruder
M113; set extruder to use pot for PWM
G1 F1500.0; feed for start of next move
G1 X3.3 Y2.5 F3500.0 ;horizontal move
G1 X8.7 Y6.5 ;horizontal move
G1 X12.0 Y9.0 F1500.0 ;horizontal move
G1 F18000.0; feed for start of next move
G1 E60.0; extruder dwell
G1 F1500.0; feed for start of next move
G1 F3500.0; feed for start of next move
G1 E85.0; extruder dwell
G1 F1500.0; feed for start of next move
G1 Y13.2 E89.2 F3500.0 ;horizontal move
G1 Y14.8 E90.8 ;horizontal move
G1 Y19.0 E95.0 F1500.0 ;horizontal move
G1 X11.0 E96.0 F2156.4 ;horizontal move
G1 X10.0 E97.0 F1500.0 ;horizontal move
G1 Y14.8 E101.2 F3500.0 ;horizontal move
G1 Y11.2 E104.8 ;horizontal move
G1 Y7.0 E109.0 F1500.0 ;horizontal move
G1 X14.2 E113.2 F3500.0 ;horizontal move
G1 X27.8 E126.8 ;horizontal move
G1 X32.0 E131.0 F1500.0 ;horizontal move
G1 Y8.0 E132.0 F2156.4 ;horizontal move
G1 Y9.0 E133.0 F1500.0 ;horizontal move
G1 X27.8 E137.2 F3500.0 ;horizontal move
G1 X16.2 E148.8 ;horizontal move
G1 X12.0 E153.0 F1500.0 ;horizontal move
G1 F18000.0; feed for start of next move
G1 E93.0; extruder retraction
G1 F1500.0; feed for start of next move
G1 X15.0 Y11.9 F3500.0 ;horizontal move
G1 X16.6 Y13.6 ;horizontal move
G1 X19.6 Y16.5 F1500.0 ;horizontal move
G1 F18000.0; feed for start of next move
G1 E153.0; extruder dwell
G1 F1500.0; feed for start of next move
G1 X17.6 Y18.9 E156.1 F3090.8 ;horizontal move
G1 X15.3 Y21.7 E159.7 F923.0 ;horizontal move
G1 Y17.9 E163.5 F3150.0 ;horizontal move
G1 Y15.5 E165.9 ;horizontal move
G1 Y12.3 E169.1 F1490.4 ;horizontal move
G1 X18.5 E172.3 F3150.0 ;horizontal move
G1 X21.5 Y12.4 E175.3 ;horizontal move
G1 X24.7 E178.5 F1510.4 ;horizontal move
G1 X24.6 Y15.6 E181.8 F3150.0 ;horizontal move
G1 Y18.5 E184.7 ;horizontal move
G1 Y21.7 E187.9 F1510.7 ;horizontal move
G1 X21.4 E191.1 F3150.0 ;horizontal move
G1 X19.0 E193.5 ;horizontal move
G1 X15.3 E197.2 F1020.9 ;horizontal move
G1 X17.6 Y18.9 E200.8 F3106.1 ;horizontal move
G1 F18000.0; feed for start of next move
G1 E140.8; extruder retraction
G1 F1500.0; feed for start of next move
G1 X19.6 Y16.5 F3500.0 ;horizontal move
G1 F1500.0; feed for start of next move
G1 X20.1 Y17.0 F1986.7 ;horizontal move
G1 X20.6 Y17.5 F1500.0 ;horizontal move
G1 F18000.0; feed for start of next move
G1 E200.8; extruder dwell
G1 F1500.0; feed for start of next move
G1 X22.5 Y15.6 E203.5 F2935.9 ;horizontal move
G1 X23.9 Y14.2 E205.4 F1959.0 ;horizontal move
G1 X24.2 Y12.9 E206.8 F767.5 ;horizontal move
G1 Y16.8 E210.7 F3150.0 ;horizontal move
G1 X24.1 Y18.0 E211.9 ;horizontal move
G1 Y21.2 E215.1 F1512.0 ;horizontal move
G1 X20.9 E218.3 F3150.0 ;horizontal move
G1 X19.0 E220.2 ;horizontal move
G1 X15.8 E223.4 F1500.0 ;horizontal move
G1 Y18.0 E226.6 F3150.0 ;horizontal move
G1 Y16.0 E228.6 ;horizontal move
G1 Y12.8 E231.8 F1489.3 ;horizontal move
G1 X19.0 E235.0 F3150.0 ;horizontal move
G1 X20.8 Y12.9 E236.8 ;horizontal move
G1 X24.2 E240.2 F1344.2 ;horizontal move
G1 X23.9 Y14.2 E241.5 F2248.5 ;horizontal move
G1 X22.7 Y15.5 E243.3 F3037.8 ;horizontal move
G1 F18000.0; feed for start of next move
G1 E183.3; extruder retraction
G1 F1500.0; feed for start of next move
G1 X20.6 Y17.5 F3500.0 ;horizontal move
G1 F1500.0; feed for start of next move
G1 X22.3 Y15.9 F2801.8 ;horizontal move
G1 X23.9 Y14.2 F1500.0 ;horizontal move
G1 F18000.0; feed for start of next move
G1 E243.3; extruder dwell
G1 F1500.0; feed for start of next move
G1 X23.8 Y13.6 E243.9 F1928.9 ;horizontal move
G1 Y13.1 E244.4 F1610.9 ;horizontal move
G1 X23.0 E245.2 F2113.6 ;horizontal move
G1 X21.6 Y14.5 E247.2 F3031.2 ;horizontal move
G1 X19.6 Y16.5 E250.0 F1500.0 ;horizontal move
G1 F18000.0; feed for start of next move
G1 E190.0; extruder retraction
G1 F1500.0; feed for start of next move
G1 F18000.0; feed for start of next move
G1 E250.0; extruder dwell
G1 F1500.0; feed for start of next move
G1 X18.0 Y18.0 E252.2 F2726.1 ;horizontal move
G1 X16.1 Y19.9 E254.9 F976.7 ;horizontal move
G1 Y17.9 E256.9 F2388.7 ;horizontal move
G1 X17.7 Y16.2 E259.2 F3375.1 ;horizontal move
G1 X20.8 Y13.1 E263.6 F993.5 ;horizontal move
G1 X18.8 E265.6 F2365.8 ;horizontal move
G1 X18.2 Y13.7 E266.4 F2796.5 ;horizontal move
G1 X16.1 Y15.7 E269.3 F987.8 ;horizontal move
G1 Y14.0 E271.0 F2237.7 ;horizontal move
G1 Y13.7 E271.3 F2070.4 ;horizontal move
G1 X16.7 Y13.1 E272.2 F1500.0 ;horizontal move
G1 F18000.0; feed for start of next move
G1 E212.2; extruder retraction
G1 F1500.0; feed for start of next move
G1 X18.7 Y15.3 F3050.5 ;horizontal move
G1 X20.6 Y17.5 F1500.0 ;horizontal move
G1 F18000.0; feed for start of next move
G1 E272.2; extruder dwell
G1 F1500.0; feed for start of next move
G1 X19.2 Y19.0 E274.2 F2679.1 ;horizontal move
G1 X17.4 Y20.9 E276.9 F977.0 ;horizontal move
G1 X19.4 E278.9 F2388.8 ;horizontal move
G1 X20.9 Y19.4 E281.0 F3296.4 ;horizontal move
G1 X23.9 Y16.5 E285.2 F976.9 ;horizontal move
G1 Y18.5 E287.2 F2388.8 ;horizontal move
G1 X23.4 Y19.0 E287.9 F2695.8 ;horizontal move
G1 X21.7 Y20.9 E290.4 F990.7 ;horizontal move
G1 X23.1 E291.8 F2081.0 ;horizontal move
G1 X23.5 E292.2 F1793.3 ;horizontal move
G1 X23.9 Y20.7 E292.7 F1500.0 ;horizontal move
G1 F18000.0; feed for start of next move
G1 E232.7; extruder retraction
G1 F1500.0; feed for start of next move
;#!LAYER: 7/33
G28 X0 ;set x 0
G28 Y0 ;set y 0
G92 E0 ;zero the extruded length
G92 E0 ;zero the extruded length
G92 E0 ;zero the extruded length
T1; select new extruder
M113; set extruder to use pot for PWM
G92 E0 ;zero the extruded length
T0; select new extruder
M113; set extruder to use pot for PWM
G1 F50.0; feed for start of next move
G1 Z1.9 ;z move
T0; select new extruder
M113; set extruder to use pot for PWM
G1 F1500.0; feed for start of next move
G1 X3.3 Y2.5 F3500.0 ;horizontal move
G1 X8.7 Y6.5 ;horizontal move
G1 X12.0 Y9.0 F1500.0 ;horizontal move
G1 F18000.0; feed for start of next move
G1 E60.0; extruder dwell
G1 F1500.0; feed for start of next move
G1 F3500.0; feed for start of next move
G1 E85.0; extruder dwell
G1 F1500.0; feed for start of next move
G1 Y13.2 E89.2 F3500.0 ;horizontal move
G1 Y14.8 E90.8 ;horizontal move
G1 Y19.0 E95.0 F1500.0 ;horizontal move
G1 X11.0 E96.0 F2156.4 ;horizontal move
G1 X10.0 E97.0 F1500.0 ;horizontal move
G1 Y14.8 E101.2 F3500.0 ;horizontal move
G1 Y11.2 E104.8 ;horizontal move
G1 Y7.0 E109.0 F1500.0 ;horizontal move
G1 X14.2 E113.2 F3500.0 ;horizontal move
G1 X27.8 E126.8 ;horizontal move
G1 X32.0 E131.0 F1500.0 ;horizontal move
G1 Y8.0 E132.0 F2156.4 ;horizontal move
G1 Y9.0 E133.0 F1500.0 ;horizontal move
G1 X27.8 E137.2 F3500.0 ;horizontal move
G1 X16.2 E148.8 ;horizontal move
G1 X12.0 E153.0 F1500.0 ;horizontal move
G1 F18000.0; feed for start of next move
G1 E93.0; extruder retraction
G1 F1500.0; feed for start of next move
G1 X15.2 Y11.7 F3500.0 ;horizontal move
G1 X17.3 Y13.6 ;horizontal move
G1 X20.5 Y16.3 F1500.0 ;horizontal move
G1 F18000.0; feed for start of next move
G1 E153.0; extruder dwell
G1 F1500.0; feed for start of next move
G1 X18.4 Y14.2 E156.0 F3083.6 ;horizontal move
G1 X17.2 Y13.1 E157.6 F2369.9 ;horizontal move
G1 X15.3 Y12.3 E159.7 F801.6 ;horizontal move
G1 X19.2 E163.6 F3150.0 ;horizontal move
G1 X21.5 Y12.4 E165.9 ;horizontal move
G1 X24.7 E169.1 F1510.4 ;horizontal move
G1 X24.6 Y15.6 E172.3 F3150.0 ;horizontal move
G1 Y18.5 E175.2 ;horizontal move
G1 Y21.7 E178.4 F1510.7 ;horizontal move
G1 X21.4 E181.6 F3150.0 ;horizontal move
G1 X18.5 E184.5 ;horizontal move
G1 X15.3 E187.7 F1500.0 ;horizontal move
G1 Y18.5 E190.9 F3150.0 ;horizontal move
G1 Y15.8 E193.6 ;horizontal move
G1 Y12.3 E197.1 F1217.7 ;horizontal move
G1 X17.2 Y13.1 E199.1 F2541.0 ;horizontal move
G1 X18.3 Y14.1 E200.6 F3150.0 ;horizontal move
G1 F18000.0; feed for start of next move
G1 E140.6; extruder retraction
G1 F1500.0; feed for start of next move
G1 X20.5 Y16.3 F3500.0 ;horizontal move
G1 F1500.0; feed for start of next move
G1 X19.5 Y17.4 F2412.0 ;horizontal move
G1 X18.5 Y18.5 F1500.0 ;horizontal move
G1 F18000.0; feed for start of next move
G1 E200.6; extruder dwell
G1 F1500.0; feed for start of next move
G1 X20.5 Y20.4 E203.4 F2965.3 ;horizontal move
G1 X20.9 Y20.9 E204.0 F2681.2 ;horizontal move
G1 X21.2 E204.3 F2784.4 ;horizontal move
G1 X22.9 E206.0 F1888.2 ;horizontal move
G1 X24.1 Y21.2 E207.2 F772.4 ;horizontal move
G1 X20.2 E211.1 F3150.0 ;horizontal move
G1 X19.0 E212.3 ;horizontal move
G1 X15.8 E215.5 F1500.0 ;horizontal move
G1 Y18.0 E218.7 F3150.0 ;horizontal move
G1 Y16.0 E220.7 ;horizontal move
G1 Y12.8 E223.9 F1489.3 ;horizontal move
G1 X19.0 E227.1 F3150.0 ;horizontal move
G1 X21.0 Y12.9 E229.1 ;horizontal move
G1 X24.2 E232.3 F1511.6 ;horizontal move
G1 Y16.1 E235.5 F3150.0 ;horizontal move
G1 X24.1 Y17.8 E237.3 ;horizontal move
G1 Y21.2 E240.7 F1323.4 ;horizontal move
G1 X22.9 Y20.9 E241.9 F2172.5 ;horizontal move
G1 X21.4 E243.4 F2886.3 ;horizontal move
G1 X20.9 E243.9 F2681.2 ;horizontal move
G1 X20.5 Y20.4 E244.5 F2965.3 ;horizontal move
G1 F18000.0; feed for start of next move
G1 E184.5; extruder retraction
G1 F1500.0; feed for start of next move
G1 X18.5 Y18.5 F3500.0 ;horizontal move
G1 F1500.0; feed for start of next move
G1 X20.7 Y19.7 F2874.8 ;horizontal move
G1 X22.9 Y20.9 F1500.0 ;horizontal move
G1 F18000.0; feed for start of next move
G1 E244.5; extruder dwell
G1 F1500.0; feed for start of next move
G1 X20.0 Y17.9 E248.7 F3500.0 ;horizontal move
G1 X18.4 Y16.2 E251.0 ;horizontal move
G1 X16.1 Y13.9 E254.3 F2074.7 ;horizontal move
G1 Y13.1 E255.1 F1605.1 ;horizontal move
G1 X16.6 E255.6 F1945.0 ;horizontal move
G1 X17.2 E256.2 F1500.0 ;horizontal move
G1 F18000.0; feed for start of next move
G1 E196.2; extruder retraction
G1 F1500.0; feed for start of next move
G1 X18.9 Y14.7 F2786.8 ;horizontal move
G1 X20.5 Y16.3 F1500.0 ;horizontal move
G1 F18000.0; feed for start of next move
G1 E256.2; extruder dwell
G1 F1500.0; feed for start of next move
G1 X22.0 Y17.8 E258.3 F2679.1 ;horizontal move
G1 X23.9 Y19.6 E260.9 F977.0 ;horizontal move
G1 Y17.6 E262.9 F2388.8 ;horizontal move
G1 X22.4 Y16.0 E265.1 F3294.1 ;horizontal move
G1 X19.5 Y13.1 E269.2 F961.3 ;horizontal move
G1 X21.5 E271.2 F2412.9 ;horizontal move
G1 X22.0 Y13.5 E271.9 F2687.7 ;horizontal move
G1 X23.9 Y15.3 E274.5 F991.3 ;horizontal move
G1 Y13.9 E275.9 F2055.7 ;horizontal move
G1 Y13.6 E276.2 F1854.0 ;horizontal move
G1 X23.8 Y13.1 E276.7 F1500.0 ;horizontal move
G1 F18000.0; feed for start of next move
G1 E216.7; extruder retraction
G1 F1500.0; feed for start of next move
G1 X21.2 Y15.8 F3366.0 ;horizontal move
G1 X18.5 Y18.5 F1500.0 ;horizontal move
G1 F18000.0; feed for start of next move
G1 E276.7; extruder dwell
G1 F1500.0; feed for start of next move
G1 X17.5 Y17.5 E278.1 F2382.2 ;horizontal move
G1 X16.1 Y16.1 E280.1 F976.3 ;horizontal move
G1 Y18.1 E282.1 F2388.6 ;horizontal move
G1 X16.7 Y18.8 E283.0 F2806.1 ;horizontal move
G1 X18.7 Y20.9 E285.9 F987.8 ;horizontal move
G1 X17.0 E287.6 F2237.7 ;horizontal move
G1 X16.7 E287.9 F2070.4 ;horizontal move
G1 X16.1 Y20.3 E288.8 F1500.0 ;horizontal move
G1 F18000.0; feed for start of next move
G1 E228.8; extruder retraction
G1 F1500.0; feed for start of next move
;#!LAYER: 8/33
G28 X0 ;set x 0
G28 Y0 ;set y 0
G92 E0 ;zero the extruded length
G92 E0 ;zero the extruded length
G92 E0 ;zero the extruded length
T1; select new extruder
M113; set extruder to use pot for PWM
G92 E0 ;zero the extruded length
T0; select new extruder
M113; set extruder to use pot for PWM
G1 F50.0; feed for start of next move
G1 Z2.2 ;z move
T0; select new extruder
M113; set extruder to use pot for PWM
G1 F1500.0; feed for start of next move
G1 X3.3 Y2.5 F3500.0 ;horizontal move
G1 X8.7 Y6.5 ;horizontal move
G1 X12.0 Y9.0 F1500.0 ;horizontal move
G1 F18000.0; feed for start of next move
G1 E60.0; extruder dwell
G1 F1500.0; feed for start of next move
G1 F3500.0; feed for start of next move
G1 E85.0; extruder dwell
G1 F1500.0; feed for start of next move
G1 Y13.2 E89.2 F3500.0 ;horizontal move
G1 Y14.8 E90.8 ;horizontal move
G1 Y19.0 E95.0 F1500.0 ;horizontal move
G1 X11.0 E96.0 F2156.4 ;horizontal move
G1 X10.0 E97.0 F1500.0 ;horizontal move
G1 Y14.8 E101.2 F3500.0 ;horizontal move
G1 Y11.2 E104.8 ;horizontal move
G1 Y7.0 E109.0 F1500.0 ;horizontal move
G1 X14.2 E113.2 F3500.0 ;horizontal move
G1 X27.8 E126.8 ;horizontal move
G1 X32.0 E131.0 F1500.0 ;horizontal move
G1 Y8.0 E132.0 F2156.4 ;horizontal move
G1 Y9.0 E133.0 F1500.0 ;horizontal move
G1 X27.8 E137.2 F3500.0 ;horizontal move
G1 X16.2 E148.8 ;horizontal move
G1 X12.0 E153.0 F1500.0 ;horizontal move
G1 F18000.0; feed for start of next move
G1 E93.0; extruder retraction
G1 F1500.0; feed for start of next move
G1 X14.9 Y12.0 F3500.0 ;horizontal move
G1 X15.5 Y12.5 ;horizontal move
G1 X18.4 Y15.5 F1500.0 ;horizontal move
G1 F18000.0; feed for start of next move
G1 E153.0; extruder dwell
G1 F1500.0; feed for start of next move
G1 X16.5 Y17.5 E155.8 F2956.7 ;horizontal move
G1 X16.1 Y17.9 E156.3 F2681.4 ;horizontal move
G1 Y18.2 E156.6 F2796.8 ;horizontal move
G1 Y19.9 E158.3 F1924.1 ;horizontal move
G1 X15.8 Y21.2 E159.7 F770.4 ;horizontal move
G1 Y17.3 E163.6 F3150.0 ;horizontal move
G1 Y16.0 E164.9 ;horizontal move
G1 Y12.8 E168.1 F1489.3 ;horizontal move
G1 X19.0 E171.3 F3150.0 ;horizontal move
G1 X21.0 Y12.9 E173.3 ;horizontal move
G1 X24.2 E176.5 F1511.6 ;horizontal move
G1 Y16.1 E179.7 F3150.0 ;horizontal move
G1 X24.1 Y18.0 E181.6 ;horizontal move
G1 Y21.2 E184.8 F1512.0 ;horizontal move
G1 X20.9 E188.0 F3150.0 ;horizontal move
G1 X19.2 E189.7 ;horizontal move
G1 X15.8 E193.1 F1326.3 ;horizontal move
G1 X16.1 Y19.9 E194.4 F2206.3 ;horizontal move
G1 Y18.4 E195.9 F2899.1 ;horizontal move
G1 Y17.9 E196.4 F2681.4 ;horizontal move
G1 X16.5 Y17.5 E197.0 F2956.7 ;horizontal move
G1 F18000.0; feed for start of next move
G1 E137.0; extruder retraction
G1 F1500.0; feed for start of next move
G1 X18.4 Y15.5 F3500.0 ;horizontal move
G1 F1500.0; feed for start of next move
G1 X19.5 Y16.5 F2412.0 ;horizontal move
G1 X20.6 Y17.5 F1500.0 ;horizontal move
G1 F18000.0; feed for start of next move
G1 E197.0; extruder dwell
G1 F1500.0; feed for start of next move
G1 X22.7 Y15.4 E199.9 F3063.1 ;horizontal move
G1 X23.9 Y14.2 E201.6 F2316.1 ;horizontal move
G1 X24.7 Y12.4 E203.6 F809.9 ;horizontal move
G1 X24.6 Y16.3 E207.5 F3150.0 ;horizontal move
G1 Y18.5 E209.7 ;horizontal move
G1 Y21.7 E212.9 F1510.7 ;horizontal move
G1 X21.4 E216.1 F3150.0 ;horizontal move
G1 X18.5 E219.0 ;horizontal move
G1 X15.3 E222.2 F1500.0 ;horizontal move
G1 Y18.5 E225.4 F3150.0 ;horizontal move
G1 Y15.5 E228.4 ;horizontal move
G1 Y12.3 E231.6 F1490.4 ;horizontal move
G1 X18.5 E234.8 F3150.0 ;horizontal move
G1 X21.1 Y12.4 E237.4 ;horizontal move
G1 X24.7 E241.0 F1210.6 ;horizontal move
G1 X23.9 Y14.2 E243.0 F2484.7 ;horizontal move
G1 X22.8 Y15.3 E244.5 F3128.5 ;horizontal move
G1 F18000.0; feed for start of next move
G1 E184.5; extruder retraction
G1 F1500.0; feed for start of next move
G1 X20.6 Y17.5 F3500.0 ;horizontal move
G1 F1500.0; feed for start of next move
G1 X22.3 Y15.9 F2801.8 ;horizontal move
G1 X23.9 Y14.2 F1500.0 ;horizontal move
G1 F18000.0; feed for start of next move
G1 E244.5; extruder dwell
G1 F1500.0; feed for start of next move
G1 X23.8 Y13.6 E245.1 F1928.9 ;horizontal move
G1 Y13.1 E245.6 F1610.9 ;horizontal move
G1 X23.0 E246.4 F2113.6 ;horizontal move
G1 X20.7 Y15.4 E249.7 F3500.0 ;horizontal move
G1 X19.1 Y17.0 E252.0 ;horizontal move
G1 X16.1 Y19.9 E256.1 F1500.0 ;horizontal move
G1 F18000.0; feed for start of next move
G1 E196.1; extruder retraction
G1 F1500.0; feed for start of next move
G1 X17.3 Y17.7 F2864.9 ;horizontal move
G1 X18.4 Y15.5 F1500.0 ;horizontal move
G1 F18000.0; feed for start of next move
G1 E256.1; extruder dwell
G1 F1500.0; feed for start of next move
G1 X19.4 Y14.5 E257.5 F2375.0 ;horizontal move
G1 X20.8 Y13.1 E259.5 F993.5 ;horizontal move
G1 X18.8 E261.5 F2365.8 ;horizontal move
G1 X18.2 Y13.7 E262.4 F2796.5 ;horizontal move
G1 X16.1 Y15.7 E265.3 F987.8 ;horizontal move
G1 Y14.0 E267.0 F2237.7 ;horizontal move
G1 Y13.7 E267.3 F2070.4 ;horizontal move
G1 X16.7 Y13.1 E268.1 F1500.0 ;horizontal move
G1 F18000.0; feed for start of next move
G1 E208.1; extruder retraction
G1 F1500.0; feed for start of next move
G1 X18.7 Y15.3 F3050.5 ;horizontal move
G1 X20.6 Y17.5 F1500.0 ;horizontal move
G1 F18000.0; feed for start of next move
G1 E268.1; extruder dwell
G1 F1500.0; feed for start of next move
G1 X19.2 Y19.0 E270.2 F2679.1 ;horizontal move
G1 X17.4 Y20.9 E272.8 F977.0 ;horizontal move
G1 X19.4 E274.8 F2388.8 ;horizontal move
G1 X20.9 Y19.4 E276.9 F3296.4 ;horizontal move
G1 X23.9 Y16.5 E281.1 F976.9 ;horizontal move
G1 Y18.5 E283.1 F2388.8 ;horizontal move
G1 X23.4 Y19.0 E283.8 F2695.8 ;horizontal move
G1 X21.7 Y20.9 E286.3 F990.7 ;horizontal move
G1 X23.1 E287.7 F2081.0 ;horizontal move
G1 X23.5 E288.1 F1793.3 ;horizontal move
G1 X23.9 Y20.7 E288.6 F1500.0 ;horizontal move
G1 F18000.0; feed for start of next move
G1 E228.6; extruder retraction
G1 F1500.0; feed for start of next move
;#!LAYER: 9/33
G28 X0 ;set x 0
G28 Y0 ;set y 0
G92 E0 ;zero the extruded length
G92 E0 ;zero the extruded length
G92 E0 ;zero the extruded length
T1; select new extruder
M113; set extruder to use pot for PWM
G92 E0 ;zero the extruded length
T0; select new extruder
M113; set extruder to use pot for PWM
G1 F50.0; feed for start of next move
G1 Z2.5 ;z move
T0; select new extruder
M113; set extruder to use pot for PWM
G1 F1500.0; feed for start of next move
G1 X3.3 Y2.5 F3500.0 ;horizontal move
G1 X8.7 Y6.5 ;horizontal move
G1 X12.0 Y9.0 F1500.0 ;horizontal move
G1 F18000.0; feed for start of next move
G1 E60.0; extruder dwell
G1 F1500.0; feed for start of next move
G1 F3500.0; feed for start of next move
G1 E85.0; extruder dwell
G1 F1500.0; feed for start of next move
G1 Y13.2 E89.2 F3500.0 ;horizontal move
G1 Y14.8 E90.8 ;horizontal move
G1 Y19.0 E95.0 F1500.0 ;horizontal move
G1 X11.0 E96.0 F2156.4 ;horizontal move
G1 X10.0 E97.0 F1500.0 ;horizontal move
G1 Y14.8 E101.2 F3500.0 ;horizontal move
G1 Y11.2 E104.8 ;horizontal move
G1 Y7.0 E109.0 F1500.0 ;horizontal move
G1 X14.2 E113.2 F3500.0 ;horizontal move
G1 X27.8 E126.8 ;horizontal move
G1 X32.0 E131.0 F1500.0 ;horizontal move
G1 Y8.0 E132.0 F2156.4 ;horizontal move
G1 Y9.0 E133.0 F1500.0 ;horizontal move
G1 X27.8 E137.2 F3500.0 ;horizontal move
G1 X16.2 E148.8 ;horizontal move
G1 X12.0 E153.0 F1500.0 ;horizontal move
G1 F18000.0; feed for start of next move
G1 E93.0; extruder retraction
G1 F1500.0; feed for start of next move
G1 X14.8 Y12.1 F3500.0 ;horizontal move
G1 X16.7 Y14.3 ;horizontal move
G1 X19.5 Y17.4 F1500.0 ;horizontal move
G1 F18000.0; feed for start of next move
G1 E153.0; extruder dwell
G1 F1500.0; feed for start of next move
G1 X21.8 Y19.3 E156.0 F3090.5 ;horizontal move
G1 X24.6 Y21.7 E159.7 F926.1 ;horizontal move
G1 X20.8 E163.5 F3150.0 ;horizontal move
G1 X18.5 E165.8 ;horizontal move
G1 X15.3 E169.0 F1500.0 ;horizontal move
G1 Y18.5 E172.2 F3150.0 ;horizontal move
G1 Y15.5 E175.2 ;horizontal move
G1 Y12.3 E178.4 F1490.4 ;horizontal move
G1 X18.5 E181.6 F3150.0 ;horizontal move
G1 X21.5 Y12.4 E184.6 ;horizontal move
G1 X24.7 E187.8 F1510.4 ;horizontal move
G1 X24.6 Y15.6 E191.0 F3150.0 ;horizontal move
G1 Y18.0 E193.4 ;horizontal move
G1 Y21.7 E197.1 F1020.9 ;horizontal move
G1 X21.9 Y19.4 E200.6 F3105.4 ;horizontal move
G1 F18000.0; feed for start of next move
G1 E140.6; extruder retraction
G1 F1500.0; feed for start of next move
G1 X19.5 Y17.4 F3500.0 ;horizontal move
G1 F1500.0; feed for start of next move
G1 X20.0 Y16.9 F2008.5 ;horizontal move
G1 X20.5 Y16.3 F1500.0 ;horizontal move
G1 F18000.0; feed for start of next move
G1 E200.6; extruder dwell
G1 F1500.0; feed for start of next move
G1 X18.6 Y14.4 E203.3 F2959.2 ;horizontal move
G1 X17.2 Y13.1 E205.2 F2028.1 ;horizontal move
G1 X15.8 Y12.8 E206.7 F763.7 ;horizontal move
G1 X19.7 E210.6 F3150.0 ;horizontal move
G1 X21.0 Y12.9 E211.9 ;horizontal move
G1 X24.2 E215.1 F1511.6 ;horizontal move
G1 Y16.1 E218.3 F3150.0 ;horizontal move
G1 X24.1 Y18.0 E220.2 ;horizontal move
G1 Y21.2 E223.4 F1512.0 ;horizontal move
G1 X20.9 E226.6 F3150.0 ;horizontal move
G1 X19.0 E228.5 ;horizontal move
G1 X15.8 E231.7 F1500.0 ;horizontal move
G1 Y18.0 E234.9 F3150.0 ;horizontal move
G1 Y16.2 E236.7 ;horizontal move
G1 Y12.8 E240.1 F1347.0 ;horizontal move
G1 X17.2 Y13.1 E241.5 F2311.9 ;horizontal move
G1 X18.4 Y14.3 E243.2 F3061.5 ;horizontal move
G1 F18000.0; feed for start of next move
G1 E183.2; extruder retraction
G1 F1500.0; feed for start of next move
G1 X20.5 Y16.3 F3500.0 ;horizontal move
G1 F1500.0; feed for start of next move
G1 X18.9 Y14.7 F2786.8 ;horizontal move
G1 X17.2 Y13.1 F1500.0 ;horizontal move
G1 F18000.0; feed for start of next move
G1 E243.2; extruder dwell
G1 F1500.0; feed for start of next move
G1 X16.6 E243.8 F1945.0 ;horizontal move
G1 X16.1 E244.3 F1605.1 ;horizontal move
G1 Y13.9 E245.1 F2074.7 ;horizontal move
G1 X17.5 Y15.3 E247.1 F3026.2 ;horizontal move
G1 X19.5 Y17.4 E250.0 F1500.0 ;horizontal move
G1 F18000.0; feed for start of next move
G1 E190.0; extruder retraction
G1 F1500.0; feed for start of next move
G1 F18000.0; feed for start of next move
G1 E250.0; extruder dwell
G1 F1500.0; feed for start of next move
G1 X21.0 Y18.9 E252.1 F2735.4 ;horizontal move
G1 X22.9 Y20.9 E254.8 F976.6 ;horizontal move
G1 X20.9 E256.8 F2388.7 ;horizontal move
G1 X19.2 Y19.2 E259.2 F3387.6 ;horizontal move
G1 X16.1 Y16.1 E263.6 F976.3 ;horizontal move
G1 Y18.1 E265.6 F2388.6 ;horizontal move
G1 X16.7 Y18.8 E266.6 F2806.1 ;horizontal move
G1 X18.7 Y20.9 E269.5 F987.8 ;horizontal move
G1 X17.0 E271.2 F2237.7 ;horizontal move
G1 X16.7 E271.5 F2070.4 ;horizontal move
G1 X16.1 Y20.3 E272.3 F1500.0 ;horizontal move
G1 F18000.0; feed for start of next move
G1 E212.3; extruder retraction
G1 F1500.0; feed for start of next move
G1 X18.3 Y18.3 F3063.6 ;horizontal move
G1 X20.5 Y16.3 F1500.0 ;horizontal move
G1 F18000.0; feed for start of next move
G1 E272.3; extruder dwell
G1 F1500.0; feed for start of next move
G1 X22.0 Y17.8 E274.4 F2679.1 ;horizontal move
G1 X23.9 Y19.6 E277.0 F977.0 ;horizontal move
G1 Y17.6 E279.0 F2388.8 ;horizontal move
G1 X22.4 Y16.0 E281.2 F3294.1 ;horizontal move
G1 X19.5 Y13.1 E285.3 F961.3 ;horizontal move
G1 X21.5 E287.3 F2412.9 ;horizontal move
G1 X22.0 Y13.5 E288.0 F2687.7 ;horizontal move
G1 X23.9 Y15.3 E290.6 F991.3 ;horizontal move
G1 Y13.9 E292.0 F2055.7 ;horizontal move
G1 Y13.6 E292.3 F1854.0 ;horizontal move
G1 X23.8 Y13.1 E292.8 F1500.0 ;horizontal move
G1 F18000.0; feed for start of next move
G1 E232.8; extruder retraction
G1 F1500.0; feed for start of next move
;#!LAYER: 10/33
G28 X0 ;set x 0
G28 Y0 ;set y 0
G92 E0 ;zero the extruded length
G92 E0 ;zero the extruded length
G92 E0 ;zero the extruded length
T1; select new extruder
M113; set extruder to use pot for PWM
G92 E0 ;zero the extruded length
T0; select new extruder
M113; set extruder to use pot for PWM
G1 F50.0; feed for start of next move
G1 Z2.8 ;z move
T0; select new extruder
M113; set extruder to use pot for PWM
G1 F1500.0; feed for start of next move
G1 X3.3 Y2.5 F3500.0 ;horizontal move
G1 X8.7 Y6.5 ;horizontal move
G1 X12.0 Y9.0 F1500.0 ;horizontal move
G1 F18000.0; feed for start of next move
G1 E60.0; extruder dwell
G1 F1500.0; feed for start of next move
G1 F3500.0; feed for start of next move
G1 E85.0; extruder dwell
G1 F1500.0; feed for start of next move
G1 Y13.2 E89.2 F3500.0 ;horizontal move
G1 Y14.8 E90.8 ;horizontal move
G1 Y19.0 E95.0 F1500.0 ;horizontal move
G1 X11.0 E96.0 F2156.4 ;horizontal move
G1 X10.0 E97.0 F1500.0 ;horizontal move
G1 Y14.8 E101.2 F3500.0 ;horizontal move
G1 Y11.2 E104.8 ;horizontal move
G1 Y7.0 E109.0 F1500.0 ;horizontal move
G1 X14.2 E113.2 F3500.0 ;horizontal move
G1 X27.8 E126.8 ;horizontal move
G1 X32.0 E131.0 F1500.0 ;horizontal move
G1 Y8.0 E132.0 F2156.4 ;horizontal move
G1 Y9.0 E133.0 F1500.0 ;horizontal move
G1 X27.8 E137.2 F3500.0 ;horizontal move
G1 X16.2 E148.8 ;horizontal move
G1 X12.0 E153.0 F1500.0 ;horizontal move
G1 F18000.0; feed for start of next move
G1 E93.0; extruder retraction
G1 F1500.0; feed for start of next move
G1 X15.0 Y11.9 F3500.0 ;horizontal move
G1 X16.6 Y13.6 ;horizontal move
G1 X19.6 Y16.5 F1500.0 ;horizontal move
G1 F18000.0; feed for start of next move
G1 E153.0; extruder dwell
G1 F1500.0; feed for start of next move
G1 X17.6 Y18.9 E156.1 F3090.8 ;horizontal move
G1 X15.3 Y21.7 E159.7 F923.0 ;horizontal move
G1 Y17.9 E163.5 F3150.0 ;horizontal move
G1 Y15.5 E165.9 ;horizontal move
G1 Y12.3 E169.1 F1490.4 ;horizontal move
G1 X18.5 E172.3 F3150.0 ;horizontal move
G1 X21.5 Y12.4 E175.3 ;horizontal move
G1 X24.7 E178.5 F1510.4 ;horizontal move
G1 X24.6 Y15.6 E181.8 F3150.0 ;horizontal move
G1 Y18.5 E184.7 ;horizontal move
G1 Y21.7 E187.9 F1510.7 ;horizontal move
G1 X21.4 E191.1 F3150.0 ;horizontal move
G1 X19.0 E193.5 ;horizontal move
G1 X15.3 E197.2 F1020.9 ;horizontal move
G1 X17.6 Y18.9 E200.8 F3106.1 ;horizontal move
G1 F18000.0; feed for start of next move
G1 E140.8; extruder retraction
G1 F1500.0; feed for start of next move
G1 X19.6 Y16.5 F3500.0 ;horizontal move
G1 F1500.0; feed for start of next move
G1 X20.1 Y17.0 F1986.7 ;horizontal move
G1 X20.6 Y17.5 F1500.0 ;horizontal move
G1 F18000.0; feed for start of next move
G1 E200.8; extruder dwell
G1 F1500.0; feed for start of next move
G1 X22.5 Y15.6 E203.5 F2935.9 ;horizontal move
G1 X23.9 Y14.2 E205.4 F1959.0 ;horizontal move
G1 X24.2 Y12.9 E206.8 F767.5 ;horizontal move
G1 Y16.8 E210.7 F3150.0 ;horizontal move
G1 X24.1 Y18.0 E211.9 ;horizontal move
G1 Y21.2 E215.1 F1512.0 ;horizontal move
G1 X20.9 E218.3 F3150.0 ;horizontal move
G1 X19.0 E220.2 ;horizontal move
G1 X15.8 E223.4 F1500.0 ;horizontal move
G1 Y18.0 E226.6 F3150.0 ;horizontal move
G1 Y16.0 E228.6 ;horizontal move
G1 Y12.8 E231.8 F1489.3 ;horizontal move
G1 X19.0 E235.0 F3150.0 ;horizontal move
G1 X20.8 Y12.9 E236.8 ;horizontal move
G1 X24.2 E240.2 F1344.2 ;horizontal move
G1 X23.9 Y14.2 E241.5 F2248.5 ;horizontal move
G1 X22.7 Y15.5 E243.3 F3037.8 ;horizontal move
G1 F18000.0; feed for start of next move
G1 E183.3; extruder retraction
G1 F1500.0; feed for start of next move
G1 X20.6 Y17.5 F3500.0 ;horizontal move
G1 F1500.0; feed for start of next move
G1 X22.3 Y15.9 F2801.8 ;horizontal move
G1 X23.9 Y14.2 F1500.0 ;horizontal move
G1 F18000.0; feed for start of next move
G1 E243.3; extruder dwell
G1 F1500.0; feed for start of next move
G1 X23.8 Y13.6 E243.9 F1928.9 ;horizontal move
G1 Y13.1 E244.4 F1610.9 ;horizontal move
G1 X23.0 E245.2 F2113.6 ;horizontal move
G1 X21.6 Y14.5 E247.2 F3031.2 ;horizontal move
G1 X19.6 Y16.5 E250.0 F1500.0 ;horizontal move
G1 F18000.0; feed for start of next move
G1 E190.0; extruder retraction
G1 F1500.0; feed for start of next move
G1 F18000.0; feed for start of next move
G1 E250.0; extruder dwell
G1 F1500.0; feed for start of next move
G1 X18.0 Y18.0 E252.2 F2726.1 ;horizontal move
G1 X16.1 Y19.9 E254.9 F976.7 ;horizontal move
G1 Y17.9 E256.9 F2388.7 ;horizontal move
G1 X17.7 Y16.2 E259.2 F3375.1 ;horizontal move
G1 X20.8 Y13.1 E263.6 F993.5 ;horizontal move
G1 X18.8 E265.6 F2365.8 ;horizontal move
G1 X18.2 Y13.7 E266.4 F2796.5 ;horizontal move
G1 X16.1 Y15.7 E269.3 F987.8 ;horizontal move
G1 Y14.0 E271.0 F2237.7 ;horizontal move
G1 Y13.7 E271.3 F2070.4 ;horizontal move
G1 X16.7 Y13.1 E272.2 F1500.0 ;horizontal move
G1 F18000.0; feed for start of next move
G1 E212.2; extruder retraction
G1 F1500.0; feed for start of next move
G1 X18.7 Y15.3 F3050.5 ;horizontal move
G1 X20.6 Y17.5 F1500.0 ;horizontal move
G1 F18000.0; feed for start of next move
G1 E272.2; extruder dwell
G1 F1500.0; feed for start of next move
G1 X19.2 Y19.0 E274.2 F2679.1 ;horizontal move
G1 X17.4 Y20.9 E276.9 F977.0 ;horizontal move
G1 X19.4 E278.9 F2388.8 ;horizontal move
G1 X20.9 Y19.4 E281.0 F3296.4 ;horizontal move
G1 X23.9 Y16.5 E285.2 F976.9 ;horizontal move
G1 Y18.5 E287.2 F2388.8 ;horizontal move
G1 X23.4 Y19.0 E287.9 F2695.8 ;horizontal move
G1 X21.7 Y20.9 E290.4 F990.7 ;horizontal move
G1 X23.1 E291.8 F2081.0 ;horizontal move
G1 X23.5 E292.2 F1793.3 ;horizontal move
G1 X23.9 Y20.7 E292.7 F1500.0 ;horizontal move
G1 F18000.0; feed for start of next move
G1 E232.7; extruder retraction
G1 F1500.0; feed for start of next move
;#!LAYER: 11/33
G28 X0 ;set x 0
G28 Y0 ;set y 0
G92 E0 ;zero the extruded length
G92 E0 ;zero the extruded length
G92 E0 ;zero the extruded length
T1; select new extruder
M113; set extruder to use pot for PWM
G92 E0 ;zero the extruded length
T0; select new extruder
M113; set extruder to use pot for PWM
G1 F50.0; feed for start of next move
G1 Z3.1 ;z move
T0; select new extruder
M113; set extruder to use pot for PWM
G1 F1500.0; feed for start of next move
G1 X3.3 Y2.5 F3500.0 ;horizontal move
G1 X8.7 Y6.5 ;horizontal move
G1 X12.0 Y9.0 F1500.0 ;horizontal move
G1 F18000.0; feed for start of next move
G1 E60.0; extruder dwell
G1 F1500.0; feed for start of next move
G1 F3500.0; feed for start of next move
G1 E85.0; extruder dwell
G1 F1500.0; feed for start of next move
G1 Y13.2 E89.2 F3500.0 ;horizontal move
G1 Y14.8 E90.8 ;horizontal move
G1 Y19.0 E95.0 F1500.0 ;horizontal move
G1 X11.0 E96.0 F2156.4 ;horizontal move
G1 X10.0 E97.0 F1500.0 ;horizontal move
G1 Y14.8 E101.2 F3500.0 ;horizontal move
G1 Y11.2 E104.8 ;horizontal move
G1 Y7.0 E109.0 F1500.0 ;horizontal move
G1 X14.2 E113.2 F3500.0 ;horizontal move
G1 X27.8 E126.8 ;horizontal move
G1 X32.0 E131.0 F1500.0 ;horizontal move
G1 Y8.0 E132.0 F2156.4 ;horizontal move
G1 Y9.0 E133.0 F1500.0 ;horizontal move
G1 X27.8 E137.2 F3500.0 ;horizontal move
G1 X16.2 E148.8 ;horizontal move
G1 X12.0 E153.0 F1500.0 ;horizontal move
G1 F18000.0; feed for start of next move
G1 E93.0; extruder retraction
G1 F1500.0; feed for start of next move
G1 X15.2 Y11.7 F3500.0 ;horizontal move
G1 X17.3 Y13.6 ;horizontal move
G1 X20.5 Y16.3 F1500.0 ;horizontal move
G1 F18000.0; feed for start of next move
G1 E153.0; extruder dwell
G1 F1500.0; feed for start of next move
G1 X18.4 Y14.2 E156.0 F3083.6 ;horizontal move
G1 X17.2 Y13.1 E157.6 F2369.9 ;horizontal move
G1 X15.3 Y12.3 E159.7 F801.6 ;horizontal move
G1 X19.2 E163.6 F3150.0 ;horizontal move
G1 X21.5 Y12.4 E165.9 ;horizontal move
G1 X24.7 E169.1 F1510.4 ;horizontal move
G1 X24.6 Y15.6 E172.3 F3150.0 ;horizontal move
G1 Y18.5 E175.2 ;horizontal move
G1 Y21.7 E178.4 F1510.7 ;horizontal move
G1 X21.4 E181.6 F3150.0 ;horizontal move
G1 X18.5 E184.5 ;horizontal move
G1 X15.3 E187.7 F1500.0 ;horizontal move
G1 Y18.5 E190.9 F3150.0 ;horizontal move
G1 Y15.8 E193.6 ;horizontal move
G1 Y12.3 E197.1 F1217.7 ;horizontal move
G1 X17.2 Y13.1 E199.1 F2541.0 ;horizontal move
G1 X18.3 Y14.1 E200.6 F3150.0 ;horizontal move
G1 F18000.0; feed for start of next move
G1 E140.6; extruder retraction
G1 F1500.0; feed for start of next move
G1 X20.5 Y16.3 F3500.0 ;horizontal move
G1 F1500.0; feed for start of next move
G1 X19.5 Y17.4 F2412.0 ;horizontal move
G1 X18.5 Y18.5 F1500.0 ;horizontal move
G1 F18000.0; feed for start of next move
G1 E200.6; extruder dwell
G1 F1500.0; feed for start of next move
G1 X20.5 Y20.4 E203.4 F2965.3 ;horizontal move
G1 X20.9 Y20.9 E204.0 F2681.2 ;horizontal move
G1 X21.2 E204.3 F2784.4 ;horizontal move
G1 X22.9 E206.0 F1888.2 ;horizontal move
G1 X24.1 Y21.2 E207.2 F772.4 ;horizontal move
G1 X20.2 E211.1 F3150.0 ;horizontal move
G1 X19.0 E212.3 ;horizontal move
G1 X15.8 E215.5 F1500.0 ;horizontal move
G1 Y18.0 E218.7 F3150.0 ;horizontal move
G1 Y16.0 E220.7 ;horizontal move
G1 Y12.8 E223.9 F1489.3 ;horizontal move
G1 X19.0 E227.1 F3150.0 ;horizontal move
G1 X21.0 Y12.9 E229.1 ;horizontal move
G1 X24.2 E232.3 F1511.6 ;horizontal move
G1 Y16.1 E235.5 F3150.0 ;horizontal move
G1 X24.1 Y17.8 E237.3 ;horizontal move
G1 Y21.2 E240.7 F1323.4 ;horizontal move
G1 X22.9 Y20.9 E241.9 F2172.5 ;horizontal move
G1 X21.4 E243.4 F2886.3 ;horizontal move
G1 X20.9 E243.9 F2681.2 ;horizontal move
G1 X20.5 Y20.4 E244.5 F2965.3 ;horizontal move
G1 F18000.0; feed for start of next move
G1 E184.5; extruder retraction
G1 F1500.0; feed for start of next move
G1 X18.5 Y18.5 F3500.0 ;horizontal move
G1 F1500.0; feed for start of next move
G1 X20.7 Y19.7 F2874.8 ;horizontal move
G1 X22.9 Y20.9 F1500.0 ;horizontal move
G1 F18000.0; feed for start of next move
G1 E244.5; extruder dwell
G1 F1500.0; feed for start of next move
G1 X20.0 Y17.9 E248.7 F3500.0 ;horizontal move
G1 X18.4 Y16.2 E251.0 ;horizontal move
G1 X16.1 Y13.9 E254.3 F2074.7 ;horizontal move
G1 Y13.1 E255.1 F1605.1 ;horizontal move
G1 X16.6 E255.6 F1945.0 ;horizontal move
G1 X17.2 E256.2 F1500.0 ;horizontal move
G1 F18000.0; feed for start of next move
G1 E196.2; extruder retraction
G1 F1500.0; feed for start of next move
G1 X18.9 Y14.7 F2786.8 ;horizontal move
G1 X20.5 Y16.3 F1500.0 ;horizontal move
G1 F18000.0; feed for start of next move
G1 E256.2; extruder dwell
G1 F1500.0; feed for start of next move
G1 X22.0 Y17.8 E258.3 F2679.1 ;horizontal move
G1 X23.9 Y19.6 E260.9 F977.0 ;horizontal move
G1 Y17.6 E262.9 F2388.8 ;horizontal move
G1 X22.4 Y16.0 E265.1 F3294.1 ;horizontal move
G1 X19.5 Y13.1 E269.2 F961.3 ;horizontal move
G1 X21.5 E271.2 F2412.9 ;horizontal move
G1 X22.0 Y13.5 E271.9 F2687.7 ;horizontal move
G1 X23.9 Y15.3 E274.5 F991.3 ;horizontal move
G1 Y13.9 E275.9 F2055.7 ;horizontal move
G1 Y13.6 E276.2 F1854.0 ;horizontal move
G1 X23.8 Y13.1 E276.7 F1500.0 ;horizontal move
G1 F18000.0; feed for start of next move
G1 E216.7; extruder retraction
G1 F1500.0; feed for start of next move
G1 X21.2 Y15.8 F3366.0 ;horizontal move
G1 X18.5 Y18.5 F1500.0 ;horizontal move
G1 F18000.0; feed for start of next move
G1 E276.7; extruder dwell
G1 F1500.0; feed for start of next move
G1 X17.5 Y17.5 E278.1 F2382.2 ;horizontal move
G1 X16.1 Y16.1 E280.1 F976.3 ;horizontal move
G1 Y18.1 E282.1 F2388.6 ;horizontal move
G1 X16.7 Y18.8 E283.0 F2806.1 ;horizontal move
G1 X18.7 Y20.9 E285.9 F987.8 ;horizontal move
G1 X17.0 E287.6 F2237.7 ;horizontal move
G1 X16.7 E287.9 F2070.4 ;horizontal move
G1 X16.1 Y20.3 E288.8 F1500.0 ;horizontal move
G1 F18000.0; feed for start of next move
G1 E228.8; extruder retraction
G1 F1500.0; feed for start of next move
;#!LAYER: 12/33
G28 X0 ;set x 0
G28 Y0 ;set y 0
G92 E0 ;zero the extruded length
G92 E0 ;zero the extruded length
G92 E0 ;zero the extruded length
T1; select new extruder
M113; set extruder to use pot for PWM
G92 E0 ;zero the extruded length
T0; select new extruder
M113; set extruder to use pot for PWM
G1 F50.0; feed for start of next move
G1 Z3.4 ;z move
T0; select new extruder
M113; set extruder to use pot for PWM
G1 F1500.0; feed for start of next move
G1 X3.3 Y2.5 F3500.0 ;horizontal move
G1 X8.7 Y6.5 ;horizontal move
G1 X12.0 Y9.0 F1500.0 ;horizontal move
G1 F18000.0; feed for start of next move
G1 E60.0; extruder dwell
G1 F1500.0; feed for start of next move
G1 F3500.0; feed for start of next move
G1 E85.0; extruder dwell
G1 F1500.0; feed for start of next move
G1 Y13.2 E89.2 F3500.0 ;horizontal move
G1 Y14.8 E90.8 ;horizontal move
G1 Y19.0 E95.0 F1500.0 ;horizontal move
G1 X11.0 E96.0 F2156.4 ;horizontal move
G1 X10.0 E97.0 F1500.0 ;horizontal move
G1 Y14.8 E101.2 F3500.0 ;horizontal move
G1 Y11.2 E104.8 ;horizontal move
G1 Y7.0 E109.0 F1500.0 ;horizontal move
G1 X14.2 E113.2 F3500.0 ;horizontal move
G1 X27.8 E126.8 ;horizontal move
G1 X32.0 E131.0 F1500.0 ;horizontal move
G1 Y8.0 E132.0 F2156.4 ;horizontal move
G1 Y9.0 E133.0 F1500.0 ;horizontal move
G1 X27.8 E137.2 F3500.0 ;horizontal move
G1 X16.2 E148.8 ;horizontal move
G1 X12.0 E153.0 F1500.0 ;horizontal move
G1 F18000.0; feed for start of next move
G1 E93.0; extruder retraction
G1 F1500.0; feed for start of next move
G1 X14.9 Y12.0 F3500.0 ;horizontal move
G1 X15.5 Y12.5 ;horizontal move
G1 X18.4 Y15.5 F1500.0 ;horizontal move
G1 F18000.0; feed for start of next move
G1 E153.0; extruder dwell
G1 F1500.0; feed for start of next move
G1 X16.5 Y17.5 E155.8 F2956.7 ;horizontal move
G1 X16.1 Y17.9 E156.3 F2681.4 ;horizontal move
G1 Y18.2 E156.6 F2796.8 ;horizontal move
G1 Y19.9 E158.3 F1924.1 ;horizontal move
G1 X15.8 Y21.2 E159.7 F770.4 ;horizontal move
G1 Y17.3 E163.6 F3150.0 ;horizontal move
G1 Y16.0 E164.9 ;horizontal move
G1 Y12.8 E168.1 F1489.3 ;horizontal move
G1 X19.0 E171.3 F3150.0 ;horizontal move
G1 X21.0 Y12.9 E173.3 ;horizontal move
G1 X24.2 E176.5 F1511.6 ;horizontal move
G1 Y16.1 E179.7 F3150.0 ;horizontal move
G1 X24.1 Y18.0 E181.6 ;horizontal move
G1 Y21.2 E184.8 F1512.0 ;horizontal move
G1 X20.9 E188.0 F3150.0 ;horizontal move
G1 X19.2 E189.7 ;horizontal move
G1 X15.8 E193.1 F1326.3 ;horizontal move
G1 X16.1 Y19.9 E194.4 F2206.3 ;horizontal move
G1 Y18.4 E195.9 F2899.1 ;horizontal move
G1 Y17.9 E196.4 F2681.4 ;horizontal move
G1 X16.5 Y17.5 E197.0 F2956.7 ;horizontal move
G1 F18000.0; feed for start of next move
G1 E137.0; extruder retraction
G1 F1500.0; feed for start of next move
G1 X18.4 Y15.5 F3500.0 ;horizontal move
G1 F1500.0; feed for start of next move
G1 X19.5 Y16.5 F2412.0 ;horizontal move
G1 X20.6 Y17.5 F1500.0 ;horizontal move
G1 F18000.0; feed for start of next move
G1 E197.0; extruder dwell
G1 F1500.0; feed for start of next move
G1 X22.7 Y15.4 E199.9 F3063.1 ;horizontal move
G1 X23.9 Y14.2 E201.6 F2316.1 ;horizontal move
G1 X24.7 Y12.4 E203.6 F809.9 ;horizontal move
G1 X24.6 Y16.3 E207.5 F3150.0 ;horizontal move
G1 Y18.5 E209.7 ;horizontal move
G1 Y21.7 E212.9 F1510.7 ;horizontal move
G1 X21.4 E216.1 F3150.0 ;horizontal move
G1 X18.5 E219.0 ;horizontal move
G1 X15.3 E222.2 F1500.0 ;horizontal move
G1 Y18.5 E225.4 F3150.0 ;horizontal move
G1 Y15.5 E228.4 ;horizontal move
G1 Y12.3 E231.6 F1490.4 ;horizontal move
G1 X18.5 E234.8 F3150.0 ;horizontal move
G1 X21.1 Y12.4 E237.4 ;horizontal move
G1 X24.7 E241.0 F1210.6 ;horizontal move
G1 X23.9 Y14.2 E243.0 F2484.7 ;horizontal move
G1 X22.8 Y15.3 E244.5 F3128.5 ;horizontal move
G1 F18000.0; feed for start of next move
G1 E184.5; extruder retraction
G1 F1500.0; feed for start of next move
G1 X20.6 Y17.5 F3500.0 ;horizontal move
G1 F1500.0; feed for start of next move
G1 X22.3 Y15.9 F2801.8 ;horizontal move
G1 X23.9 Y14.2 F1500.0 ;horizontal move
G1 F18000.0; feed for start of next move
G1 E244.5; extruder dwell
G1 F1500.0; feed for start of next move
G1 X23.8 Y13.6 E245.1 F1928.9 ;horizontal move
G1 Y13.1 E245.6 F1610.9 ;horizontal move
G1 X23.0 E246.4 F2113.6 ;horizontal move
G1 X20.7 Y15.4 E249.7 F3500.0 ;horizontal move
G1 X19.1 Y17.0 E252.0 ;horizontal move
G1 X16.1 Y19.9 E256.1 F1500.0 ;horizontal move
G1 F18000.0; feed for start of next move
G1 E196.1; extruder retraction
G1 F1500.0; feed for start of next move
G1 X17.3 Y17.7 F2864.9 ;horizontal move
G1 X18.4 Y15.5 F1500.0 ;horizontal move
G1 F18000.0; feed for start of next move
G1 E256.1; extruder dwell
G1 F1500.0; feed for start of next move
G1 X19.4 Y14.5 E257.5 F2375.0 ;horizontal move
G1 X20.8 Y13.1 E259.5 F993.5 ;horizontal move
G1 X18.8 E261.5 F2365.8 ;horizontal move
G1 X18.2 Y13.7 E262.4 F2796.5 ;horizontal move
G1 X16.1 Y15.7 E265.3 F987.8 ;horizontal move
G1 Y14.0 E267.0 F2237.7 ;horizontal move
G1 Y13.7 E267.3 F2070.4 ;horizontal move
G1 X16.7 Y13.1 E268.1 F1500.0 ;horizontal move
G1 F18000.0; feed for start of next move
G1 E208.1; extruder retraction
G1 F1500.0; feed for start of next move
G1 X18.7 Y15.3 F3050.5 ;horizontal move
G1 X20.6 Y17.5 F1500.0 ;horizontal move
G1 F18000.0; feed for start of next move
G1 E268.1; extruder dwell
G1 F1500.0; feed for start of next move
G1 X19.2 Y19.0 E270.2 F2679.1 ;horizontal move
G1 X17.4 Y20.9 E272.8 F977.0 ;horizontal move
G1 X19.4 E274.8 F2388.8 ;horizontal move
G1 X20.9 Y19.4 E276.9 F3296.4 ;horizontal move
G1 X23.9 Y16.5 E281.1 F976.9 ;horizontal move
G1 Y18.5 E283.1 F2388.8 ;horizontal move
G1 X23.4 Y19.0 E283.8 F2695.8 ;horizontal move
G1 X21.7 Y20.9 E286.3 F990.7 ;horizontal move
G1 X23.1 E287.7 F2081.0 ;horizontal move
G1 X23.5 E288.1 F1793.3 ;horizontal move
G1 X23.9 Y20.7 E288.6 F1500.0 ;horizontal move
G1 F18000.0; feed for start of next move
G1 E228.6; extruder retraction
G1 F1500.0; feed for start of next move
;#!LAYER: 13/33
G28 X0 ;set x 0
G28 Y0 ;set y 0
G92 E0 ;zero the extruded length
G92 E0 ;zero the extruded length
G92 E0 ;zero the extruded length
T1; select new extruder
M113; set extruder to use pot for PWM
G92 E0 ;zero the extruded length
T0; select new extruder
M113; set extruder to use pot for PWM
G1 F50.0; feed for start of next move
G1 Z3.7 ;z move
T0; select new extruder
M113; set extruder to use pot for PWM
G1 F1500.0; feed for start of next move
G1 X3.3 Y2.5 F3500.0 ;horizontal move
G1 X8.7 Y6.5 ;horizontal move
G1 X12.0 Y9.0 F1500.0 ;horizontal move
G1 F18000.0; feed for start of next move
G1 E60.0; extruder dwell
G1 F1500.0; feed for start of next move
G1 F3500.0; feed for start of next move
G1 E85.0; extruder dwell
G1 F1500.0; feed for start of next move
G1 Y13.2 E89.2 F3500.0 ;horizontal move
G1 Y14.8 E90.8 ;horizontal move
G1 Y19.0 E95.0 F1500.0 ;horizontal move
G1 X11.0 E96.0 F2156.4 ;horizontal move
G1 X10.0 E97.0 F1500.0 ;horizontal move
G1 Y14.8 E101.2 F3500.0 ;horizontal move
G1 Y11.2 E104.8 ;horizontal move
G1 Y7.0 E109.0 F1500.0 ;horizontal move
G1 X14.2 E113.2 F3500.0 ;horizontal move
G1 X27.8 E126.8 ;horizontal move
G1 X32.0 E131.0 F1500.0 ;horizontal move
G1 Y8.0 E132.0 F2156.4 ;horizontal move
G1 Y9.0 E133.0 F1500.0 ;horizontal move
G1 X27.8 E137.2 F3500.0 ;horizontal move
G1 X16.2 E148.8 ;horizontal move
G1 X12.0 E153.0 F1500.0 ;horizontal move
G1 F18000.0; feed for start of next move
G1 E93.0; extruder retraction
G1 F1500.0; feed for start of next move
G1 X14.8 Y12.1 F3500.0 ;horizontal move
G1 X16.7 Y14.3 ;horizontal move
G1 X19.5 Y17.4 F1500.0 ;horizontal move
G1 F18000.0; feed for start of next move
G1 E153.0; extruder dwell
G1 F1500.0; feed for start of next move
G1 X21.8 Y19.3 E156.0 F3090.5 ;horizontal move
G1 X24.6 Y21.7 E159.7 F926.1 ;horizontal move
G1 X20.8 E163.5 F3150.0 ;horizontal move
G1 X18.5 E165.8 ;horizontal move
G1 X15.3 E169.0 F1500.0 ;horizontal move
G1 Y18.5 E172.2 F3150.0 ;horizontal move
G1 Y15.5 E175.2 ;horizontal move
G1 Y12.3 E178.4 F1490.4 ;horizontal move
G1 X18.5 E181.6 F3150.0 ;horizontal move
G1 X21.5 Y12.4 E184.6 ;horizontal move
G1 X24.7 E187.8 F1510.4 ;horizontal move
G1 X24.6 Y15.6 E191.0 F3150.0 ;horizontal move
G1 Y18.0 E193.4 ;horizontal move
G1 Y21.7 E197.1 F1020.9 ;horizontal move
G1 X21.9 Y19.4 E200.6 F3105.4 ;horizontal move
G1 F18000.0; feed for start of next move
G1 E140.6; extruder retraction
G1 F1500.0; feed for start of next move
G1 X19.5 Y17.4 F3500.0 ;horizontal move
G1 F1500.0; feed for start of next move
G1 X20.0 Y16.9 F2008.5 ;horizontal move
G1 X20.5 Y16.3 F1500.0 ;horizontal move
G1 F18000.0; feed for start of next move
G1 E200.6; extruder dwell
G1 F1500.0; feed for start of next move
G1 X18.6 Y14.4 E203.3 F2959.2 ;horizontal move
G1 X17.2 Y13.1 E205.2 F2028.1 ;horizontal move
G1 X15.8 Y12.8 E206.7 F763.7 ;horizontal move
G1 X19.7 E210.6 F3150.0 ;horizontal move
G1 X21.0 Y12.9 E211.9 ;horizontal move
G1 X24.2 E215.1 F1511.6 ;horizontal move
G1 Y16.1 E218.3 F3150.0 ;horizontal move
G1 X24.1 Y18.0 E220.2 ;horizontal move
G1 Y21.2 E223.4 F1512.0 ;horizontal move
G1 X20.9 E226.6 F3150.0 ;horizontal move
G1 X19.0 E228.5 ;horizontal move
G1 X15.8 E231.7 F1500.0 ;horizontal move
G1 Y18.0 E234.9 F3150.0 ;horizontal move
G1 Y16.2 E236.7 ;horizontal move
G1 Y12.8 E240.1 F1347.0 ;horizontal move
G1 X17.2 Y13.1 E241.5 F2311.9 ;horizontal move
G1 X18.4 Y14.3 E243.2 F3061.5 ;horizontal move
G1 F18000.0; feed for start of next move
G1 E183.2; extruder retraction
G1 F1500.0; feed for start of next move
G1 X20.5 Y16.3 F3500.0 ;horizontal move
G1 F1500.0; feed for start of next move
G1 X18.9 Y14.7 F2786.8 ;horizontal move
G1 X17.2 Y13.1 F1500.0 ;horizontal move
G1 F18000.0; feed for start of next move
G1 E243.2; extruder dwell
G1 F1500.0; feed for start of next move
G1 X16.6 E243.8 F1945.0 ;horizontal move
G1 X16.1 E244.3 F1605.1 ;horizontal move
G1 Y13.9 E245.1 F2074.7 ;horizontal move
G1 X17.5 Y15.3 E247.1 F3026.2 ;horizontal move
G1 X19.5 Y17.4 E250.0 F1500.0 ;horizontal move
G1 F18000.0; feed for start of next move
G1 E190.0; extruder retraction
G1 F1500.0; feed for start of next move
G1 F18000.0; feed for start of next move
G1 E250.0; extruder dwell
G1 F1500.0; feed for start of next move
G1 X21.0 Y18.9 E252.1 F2735.4 ;horizontal move
G1 X22.9 Y20.9 E254.8 F976.6 ;horizontal move
G1 X20.9 E256.8 F2388.7 ;horizontal move
G1 X19.2 Y19.2 E259.2 F3387.6 ;horizontal move
G1 X16.1 Y16.1 E263.6 F976.3 ;horizontal move
G1 Y18.1 E265.6 F2388.6 ;horizontal move
G1 X16.7 Y18.8 E266.6 F2806.1 ;horizontal move
G1 X18.7 Y20.9 E269.5 F987.8 ;horizontal move
G1 X17.0 E271.2 F2237.7 ;horizontal move
G1 X16.7 E271.5 F2070.4 ;horizontal move
G1 X16.1 Y20.3 E272.3 F1500.0 ;horizontal move
G1 F18000.0; feed for start of next move
G1 E212.3; extruder retraction
G1 F1500.0; feed for start of next move
G1 X18.3 Y18.3 F3063.6 ;horizontal move
G1 X20.5 Y16.3 F1500.0 ;horizontal move
G1 F18000.0; feed for start of next move
G1 E272.3; extruder dwell
G1 F1500.0; feed for start of next move
G1 X22.0 Y17.8 E274.4 F2679.1 ;horizontal move
G1 X23.9 Y19.6 E277.0 F977.0 ;horizontal move
G1 Y17.6 E279.0 F2388.8 ;horizontal move
G1 X22.4 Y16.0 E281.2 F3294.1 ;horizontal move
G1 X19.5 Y13.1 E285.3 F961.3 ;horizontal move
G1 X21.5 E287.3 F2412.9 ;horizontal move
G1 X22.0 Y13.5 E288.0 F2687.7 ;horizontal move
G1 X23.9 Y15.3 E290.6 F991.3 ;horizontal move
G1 Y13.9 E292.0 F2055.7 ;horizontal move
G1 Y13.6 E292.3 F1854.0 ;horizontal move
G1 X23.8 Y13.1 E292.8 F1500.0 ;horizontal move
G1 F18000.0; feed for start of next move
G1 E232.8; extruder retraction
G1 F1500.0; feed for start of next move
;#!LAYER: 14/33
G28 X0 ;set x 0
G28 Y0 ;set y 0
G92 E0 ;zero the extruded length
G92 E0 ;zero the extruded length
G92 E0 ;zero the extruded length
T1; select new extruder
M113; set extruder to use pot for PWM
G92 E0 ;zero the extruded length
T0; select new extruder
M113; set extruder to use pot for PWM
G1 F50.0; feed for start of next move
G1 Z4.0 ;z move
T0; select new extruder
M113; set extruder to use pot for PWM
G1 F1500.0; feed for start of next move
G1 X3.3 Y2.5 F3500.0 ;horizontal move
G1 X8.7 Y6.5 ;horizontal move
G1 X12.0 Y9.0 F1500.0 ;horizontal move
G1 F18000.0; feed for start of next move
G1 E60.0; extruder dwell
G1 F1500.0; feed for start of next move
G1 F3500.0; feed for start of next move
G1 E85.0; extruder dwell
G1 F1500.0; feed for start of next move
G1 Y13.2 E89.2 F3500.0 ;horizontal move
G1 Y14.8 E90.8 ;horizontal move
G1 Y19.0 E95.0 F1500.0 ;horizontal move
G1 X11.0 E96.0 F2156.4 ;horizontal move
G1 X10.0 E97.0 F1500.0 ;horizontal move
G1 Y14.8 E101.2 F3500.0 ;horizontal move
G1 Y11.2 E104.8 ;horizontal move
G1 Y7.0 E109.0 F1500.0 ;horizontal move
G1 X14.2 E113.2 F3500.0 ;horizontal move
G1 X27.8 E126.8 ;horizontal move
G1 X32.0 E131.0 F1500.0 ;horizontal move
G1 Y8.0 E132.0 F2156.4 ;horizontal move
G1 Y9.0 E133.0 F1500.0 ;horizontal move
G1 X27.8 E137.2 F3500.0 ;horizontal move
G1 X16.2 E148.8 ;horizontal move
G1 X12.0 E153.0 F1500.0 ;horizontal move
G1 F18000.0; feed for start of next move
G1 E93.0; extruder retraction
G1 F1500.0; feed for start of next move
G1 X15.0 Y11.9 F3500.0 ;horizontal move
G1 X16.6 Y13.6 ;horizontal move
G1 X19.6 Y16.5 F1500.0 ;horizontal move
G1 F18000.0; feed for start of next move
G1 E153.0; extruder dwell
G1 F1500.0; feed for start of next move
G1 X17.6 Y18.9 E156.1 F3090.8 ;horizontal move
G1 X15.3 Y21.7 E159.7 F923.0 ;horizontal move
G1 Y17.9 E163.5 F3150.0 ;horizontal move
G1 Y15.5 E165.9 ;horizontal move
G1 Y12.3 E169.1 F1490.4 ;horizontal move
G1 X18.5 E172.3 F3150.0 ;horizontal move
G1 X21.5 Y12.4 E175.3 ;horizontal move
G1 X24.7 E178.5 F1510.4 ;horizontal move
G1 X24.6 Y15.6 E181.8 F3150.0 ;horizontal move
G1 Y18.5 E184.7 ;horizontal move
G1 Y21.7 E187.9 F1510.7 ;horizontal move
G1 X21.4 E191.1 F3150.0 ;horizontal move
G1 X19.0 E193.5 ;horizontal move
G1 X15.3 E197.2 F1020.9 ;horizontal move
G1 X17.6 Y18.9 E200.8 F3106.1 ;horizontal move
G1 F18000.0; feed for start of next move
G1 E140.8; extruder retraction
G1 F1500.0; feed for start of next move
G1 X19.6 Y16.5 F3500.0 ;horizontal move
G1 F1500.0; feed for start of next move
G1 X20.1 Y17.0 F1986.7 ;horizontal move
G1 X20.6 Y17.5 F1500.0 ;horizontal move
G1 F18000.0; feed for start of next move
G1 E200.8; extruder dwell
G1 F1500.0; feed for start of next move
G1 X22.5 Y15.6 E203.5 F2935.9 ;horizontal move
G1 X23.9 Y14.2 E205.4 F1959.0 ;horizontal move
G1 X24.2 Y12.9 E206.8 F767.5 ;horizontal move
G1 Y16.8 E210.7 F3150.0 ;horizontal move
G1 X24.1 Y18.0 E211.9 ;horizontal move
G1 Y21.2 E215.1 F1512.0 ;horizontal move
G1 X20.9 E218.3 F3150.0 ;horizontal move
G1 X19.0 E220.2 ;horizontal move
G1 X15.8 E223.4 F1500.0 ;horizontal move
G1 Y18.0 E226.6 F3150.0 ;horizontal move
G1 Y16.0 E228.6 ;horizontal move
G1 Y12.8 E231.8 F1489.3 ;horizontal move
G1 X19.0 E235.0 F3150.0 ;horizontal move
G1 X20.8 Y12.9 E236.8 ;horizontal move
G1 X24.2 E240.2 F1344.2 ;horizontal move
G1 X23.9 Y14.2 E241.5 F2248.5 ;horizontal move
G1 X22.7 Y15.5 E243.3 F3037.8 ;horizontal move
G1 F18000.0; feed for start of next move
G1 E183.3; extruder retraction
G1 F1500.0; feed for start of next move
G1 X20.6 Y17.5 F3500.0 ;horizontal move
G1 F1500.0; feed for start of next move
G1 X22.3 Y15.9 F2801.8 ;horizontal move
G1 X23.9 Y14.2 F1500.0 ;horizontal move
G1 F18000.0; feed for start of next move
G1 E243.3; extruder dwell
G1 F1500.0; feed for start of next move
G1 X23.8 Y13.6 E243.9 F1928.9 ;horizontal move
G1 Y13.1 E244.4 F1610.9 ;horizontal move
G1 X23.0 E245.2 F2113.6 ;horizontal move
G1 X21.6 Y14.5 E247.2 F3031.2 ;horizontal move
G1 X19.6 Y16.5 E250.0 F1500.0 ;horizontal move
G1 F18000.0; feed for start of next move
G1 E190.0; extruder retraction
G1 F1500.0; feed for start of next move
G1 F18000.0; feed for start of next move
G1 E250.0; extruder dwell
G1 F1500.0; feed for start of next move
G1 X18.0 Y18.0 E252.2 F2726.1 ;horizontal move
G1 X16.1 Y19.9 E254.9 F976.7 ;horizontal move
G1 Y17.9 E256.9 F2388.7 ;horizontal move
G1 X17.7 Y16.2 E259.2 F3375.1 ;horizontal move
G1 X20.8 Y13.1 E263.6 F993.5 ;horizontal move
G1 X18.8 E265.6 F2365.8 ;horizontal move
G1 X18.2 Y13.7 E266.4 F2796.5 ;horizontal move
G1 X16.1 Y15.7 E269.3 F987.8 ;horizontal move
G1 Y14.0 E271.0 F2237.7 ;horizontal move
G1 Y13.7 E271.3 F2070.4 ;horizontal move
G1 X16.7 Y13.1 E272.2 F1500.0 ;horizontal move
G1 F18000.0; feed for start of next move
G1 E212.2; extruder retraction
G1 F1500.0; feed for start of next move
G1 X18.7 Y15.3 F3050.5 ;horizontal move
G1 X20.6 Y17.5 F1500.0 ;horizontal move
G1 F18000.0; feed for start of next move
G1 E272.2; extruder dwell
G1 F1500.0; feed for start of next move
G1 X19.2 Y19.0 E274.2 F2679.1 ;horizontal move
G1 X17.4 Y20.9 E276.9 F977.0 ;horizontal move
G1 X19.4 E278.9 F2388.8 ;horizontal move
G1 X20.9 Y19.4 E281.0 F3296.4 ;horizontal move
G1 X23.9 Y16.5 E285.2 F976.9 ;horizontal move
G1 Y18.5 E287.2 F2388.8 ;horizontal move
G1 X23.4 Y19.0 E287.9 F2695.8 ;horizontal move
G1 X21.7 Y20.9 E290.4 F990.7 ;horizontal move
G1 X23.1 E291.8 F2081.0 ;horizontal move
G1 X23.5 E292.2 F1793.3 ;horizontal move
G1 X23.9 Y20.7 E292.7 F1500.0 ;horizontal move
G1 F18000.0; feed for start of next move
G1 E232.7; extruder retraction
G1 F1500.0; feed for start of next move
;#!LAYER: 15/33
G28 X0 ;set x 0
G28 Y0 ;set y 0
G92 E0 ;zero the extruded length
G92 E0 ;zero the extruded length
G92 E0 ;zero the extruded length
T1; select new extruder
M113; set extruder to use pot for PWM
G92 E0 ;zero the extruded length
T0; select new extruder
M113; set extruder to use pot for PWM
G1 F50.0; feed for start of next move
G1 Z4.3 ;z move
T0; select new extruder
M113; set extruder to use pot for PWM
G1 F1500.0; feed for start of next move
G1 X3.3 Y2.5 F3500.0 ;horizontal move
G1 X8.7 Y6.5 ;horizontal move
G1 X12.0 Y9.0 F1500.0 ;horizontal move
G1 F18000.0; feed for start of next move
G1 E60.0; extruder dwell
G1 F1500.0; feed for start of next move
G1 F3500.0; feed for start of next move
G1 E85.0; extruder dwell
G1 F1500.0; feed for start of next move
G1 Y13.2 E89.2 F3500.0 ;horizontal move
G1 Y14.8 E90.8 ;horizontal move
G1 Y19.0 E95.0 F1500.0 ;horizontal move
G1 X11.0 E96.0 F2156.4 ;horizontal move
G1 X10.0 E97.0 F1500.0 ;horizontal move
G1 Y14.8 E101.2 F3500.0 ;horizontal move
G1 Y11.2 E104.8 ;horizontal move
G1 Y7.0 E109.0 F1500.0 ;horizontal move
G1 X14.2 E113.2 F3500.0 ;horizontal move
G1 X27.8 E126.8 ;horizontal move
G1 X32.0 E131.0 F1500.0 ;horizontal move
G1 Y8.0 E132.0 F2156.4 ;horizontal move
G1 Y9.0 E133.0 F1500.0 ;horizontal move
G1 X27.8 E137.2 F3500.0 ;horizontal move
G1 X16.2 E148.8 ;horizontal move
G1 X12.0 E153.0 F1500.0 ;horizontal move
G1 F18000.0; feed for start of next move
G1 E93.0; extruder retraction
G1 F1500.0; feed for start of next move
G1 X15.2 Y11.7 F3500.0 ;horizontal move
G1 X17.3 Y13.6 ;horizontal move
G1 X20.5 Y16.3 F1500.0 ;horizontal move
G1 F18000.0; feed for start of next move
G1 E153.0; extruder dwell
G1 F1500.0; feed for start of next move
G1 X18.4 Y14.2 E156.0 F3083.6 ;horizontal move
G1 X17.2 Y13.1 E157.6 F2369.9 ;horizontal move
G1 X15.3 Y12.3 E159.7 F801.6 ;horizontal move
G1 X19.2 E163.6 F3150.0 ;horizontal move
G1 X21.5 Y12.4 E165.9 ;horizontal move
G1 X24.7 E169.1 F1510.4 ;horizontal move
G1 X24.6 Y15.6 E172.3 F3150.0 ;horizontal move
G1 Y18.5 E175.2 ;horizontal move
G1 Y21.7 E178.4 F1510.7 ;horizontal move
G1 X21.4 E181.6 F3150.0 ;horizontal move
G1 X18.5 E184.5 ;horizontal move
G1 X15.3 E187.7 F1500.0 ;horizontal move
G1 Y18.5 E190.9 F3150.0 ;horizontal move
G1 Y15.8 E193.6 ;horizontal move
G1 Y12.3 E197.1 F1217.7 ;horizontal move
G1 X17.2 Y13.1 E199.1 F2541.0 ;horizontal move
G1 X18.3 Y14.1 E200.6 F3150.0 ;horizontal move
G1 F18000.0; feed for start of next move
G1 E140.6; extruder retraction
G1 F1500.0; feed for start of next move
G1 X20.5 Y16.3 F3500.0 ;horizontal move
G1 F1500.0; feed for start of next move
G1 X19.5 Y17.4 F2412.0 ;horizontal move
G1 X18.5 Y18.5 F1500.0 ;horizontal move
G1 F18000.0; feed for start of next move
G1 E200.6; extruder dwell
G1 F1500.0; feed for start of next move
G1 X20.5 Y20.4 E203.4 F2965.3 ;horizontal move
G1 X20.9 Y20.9 E204.0 F2681.2 ;horizontal move
G1 X21.2 E204.3 F2784.4 ;horizontal move
G1 X22.9 E206.0 F1888.2 ;horizontal move
G1 X24.1 Y21.2 E207.2 F772.4 ;horizontal move
G1 X20.2 E211.1 F3150.0 ;horizontal move
G1 X19.0 E212.3 ;horizontal move
G1 X15.8 E215.5 F1500.0 ;horizontal move
G1 Y18.0 E218.7 F3150.0 ;horizontal move
G1 Y16.0 E220.7 ;horizontal move
G1 Y12.8 E223.9 F1489.3 ;horizontal move
G1 X19.0 E227.1 F3150.0 ;horizontal move
G1 X21.0 Y12.9 E229.1 ;horizontal move
G1 X24.2 E232.3 F1511.6 ;horizontal move
G1 Y16.1 E235.5 F3150.0 ;horizontal move
G1 X24.1 Y17.8 E237.3 ;horizontal move
G1 Y21.2 E240.7 F1323.4 ;horizontal move
G1 X22.9 Y20.9 E241.9 F2172.5 ;horizontal move
G1 X21.4 E243.4 F2886.3 ;horizontal move
G1 X20.9 E243.9 F2681.2 ;horizontal move
G1 X20.5 Y20.4 E244.5 F2965.3 ;horizontal move
G1 F18000.0; feed for start of next move
G1 E184.5; extruder retraction
G1 F1500.0; feed for start of next move
G1 X18.5 Y18.5 F3500.0 ;horizontal move
G1 F1500.0; feed for start of next move
G1 X20.7 Y19.7 F2874.8 ;horizontal move
G1 X22.9 Y20.9 F1500.0 ;horizontal move
G1 F18000.0; feed for start of next move
G1 E244.5; extruder dwell
G1 F1500.0; feed for start of next move
G1 X20.0 Y17.9 E248.7 F3500.0 ;horizontal move
G1 X18.4 Y16.2 E251.0 ;horizontal move
G1 X16.1 Y13.9 E254.3 F2074.7 ;horizontal move
G1 Y13.1 E255.1 F1605.1 ;horizontal move
G1 X16.6 E255.6 F1945.0 ;horizontal move
G1 X17.2 E256.2 F1500.0 ;horizontal move
G1 F18000.0; feed for start of next move
G1 E196.2; extruder retraction
G1 F1500.0; feed for start of next move
G1 X18.9 Y14.7 F2786.8 ;horizontal move
G1 X20.5 Y16.3 F1500.0 ;horizontal move
G1 F18000.0; feed for start of next move
G1 E256.2; extruder dwell
G1 F1500.0; feed for start of next move
G1 X22.0 Y17.8 E258.3 F2679.1 ;horizontal move
G1 X23.9 Y19.6 E260.9 F977.0 ;horizontal move
G1 Y17.6 E262.9 F2388.8 ;horizontal move
G1 X22.4 Y16.0 E265.1 F3294.1 ;horizontal move
G1 X19.5 Y13.1 E269.2 F961.3 ;horizontal move
G1 X21.5 E271.2 F2412.9 ;horizontal move
G1 X22.0 Y13.5 E271.9 F2687.7 ;horizontal move
G1 X23.9 Y15.3 E274.5 F991.3 ;horizontal move
G1 Y13.9 E275.9 F2055.7 ;horizontal move
G1 Y13.6 E276.2 F1854.0 ;horizontal move
G1 X23.8 Y13.1 E276.7 F1500.0 ;horizontal move
G1 F18000.0; feed for start of next move
G1 E216.7; extruder retraction
G1 F1500.0; feed for start of next move
G1 X21.2 Y15.8 F3366.0 ;horizontal move
G1 X18.5 Y18.5 F1500.0 ;horizontal move
G1 F18000.0; feed for start of next move
G1 E276.7; extruder dwell
G1 F1500.0; feed for start of next move
G1 X17.5 Y17.5 E278.1 F2382.2 ;horizontal move
G1 X16.1 Y16.1 E280.1 F976.3 ;horizontal move
G1 Y18.1 E282.1 F2388.6 ;horizontal move
G1 X16.7 Y18.8 E283.0 F2806.1 ;horizontal move
G1 X18.7 Y20.9 E285.9 F987.8 ;horizontal move
G1 X17.0 E287.6 F2237.7 ;horizontal move
G1 X16.7 E287.9 F2070.4 ;horizontal move
G1 X16.1 Y20.3 E288.8 F1500.0 ;horizontal move
G1 F18000.0; feed for start of next move
G1 E228.8; extruder retraction
G1 F1500.0; feed for start of next move
;#!LAYER: 16/33
G28 X0 ;set x 0
G28 Y0 ;set y 0
G92 E0 ;zero the extruded length
G92 E0 ;zero the extruded length
G92 E0 ;zero the extruded length
T1; select new extruder
M113; set extruder to use pot for PWM
G92 E0 ;zero the extruded length
T0; select new extruder
M113; set extruder to use pot for PWM
G1 F50.0; feed for start of next move
G1 Z4.6 ;z move
T0; select new extruder
M113; set extruder to use pot for PWM
G1 F1500.0; feed for start of next move
G1 X3.3 Y2.5 F3500.0 ;horizontal move
G1 X8.7 Y6.5 ;horizontal move
G1 X12.0 Y9.0 F1500.0 ;horizontal move
G1 F18000.0; feed for start of next move
G1 E60.0; extruder dwell
G1 F1500.0; feed for start of next move
G1 F3500.0; feed for start of next move
G1 E85.0; extruder dwell
G1 F1500.0; feed for start of next move
G1 Y13.2 E89.2 F3500.0 ;horizontal move
G1 Y14.8 E90.8 ;horizontal move
G1 Y19.0 E95.0 F1500.0 ;horizontal move
G1 X11.0 E96.0 F2156.4 ;horizontal move
G1 X10.0 E97.0 F1500.0 ;horizontal move
G1 Y14.8 E101.2 F3500.0 ;horizontal move
G1 Y11.2 E104.8 ;horizontal move
G1 Y7.0 E109.0 F1500.0 ;horizontal move
G1 X14.2 E113.2 F3500.0 ;horizontal move
G1 X27.8 E126.8 ;horizontal move
G1 X32.0 E131.0 F1500.0 ;horizontal move
G1 Y8.0 E132.0 F2156.4 ;horizontal move
G1 Y9.0 E133.0 F1500.0 ;horizontal move
G1 X27.8 E137.2 F3500.0 ;horizontal move
G1 X16.2 E148.8 ;horizontal move
G1 X12.0 E153.0 F1500.0 ;horizontal move
G1 F18000.0; feed for start of next move
G1 E93.0; extruder retraction
G1 F1500.0; feed for start of next move
G1 X14.9 Y12.0 F3500.0 ;horizontal move
G1 X15.5 Y12.5 ;horizontal move
G1 X18.4 Y15.5 F1500.0 ;horizontal move
G1 F18000.0; feed for start of next move
G1 E153.0; extruder dwell
G1 F1500.0; feed for start of next move
G1 X16.5 Y17.5 E155.8 F2956.7 ;horizontal move
G1 X16.1 Y17.9 E156.3 F2681.4 ;horizontal move
G1 Y18.2 E156.6 F2796.8 ;horizontal move
G1 Y19.9 E158.3 F1924.1 ;horizontal move
G1 X15.8 Y21.2 E159.7 F770.4 ;horizontal move
G1 Y17.3 E163.6 F3150.0 ;horizontal move
G1 Y16.0 E164.9 ;horizontal move
G1 Y12.8 E168.1 F1489.3 ;horizontal move
G1 X19.0 E171.3 F3150.0 ;horizontal move
G1 X21.0 Y12.9 E173.3 ;horizontal move
G1 X24.2 E176.5 F1511.6 ;horizontal move
G1 Y16.1 E179.7 F3150.0 ;horizontal move
G1 X24.1 Y18.0 E181.6 ;horizontal move
G1 Y21.2 E184.8 F1512.0 ;horizontal move
G1 X20.9 E188.0 F3150.0 ;horizontal move
G1 X19.2 E189.7 ;horizontal move
G1 X15.8 E193.1 F1326.3 ;horizontal move
G1 X16.1 Y19.9 E194.4 F2206.3 ;horizontal move
G1 Y18.4 E195.9 F2899.1 ;horizontal move
G1 Y17.9 E196.4 F2681.4 ;horizontal move
G1 X16.5 Y17.5 E197.0 F2956.7 ;horizontal move
G1 F18000.0; feed for start of next move
G1 E137.0; extruder retraction
G1 F1500.0; feed for start of next move
G1 X18.4 Y15.5 F3500.0 ;horizontal move
G1 F1500.0; feed for start of next move
G1 X19.5 Y16.5 F2412.0 ;horizontal move
G1 X20.6 Y17.5 F1500.0 ;horizontal move
G1 F18000.0; feed for start of next move
G1 E197.0; extruder dwell
G1 F1500.0; feed for start of next move
G1 X22.7 Y15.4 E199.9 F3063.1 ;horizontal move
G1 X23.9 Y14.2 E201.6 F2316.1 ;horizontal move
G1 X24.7 Y12.4 E203.6 F809.9 ;horizontal move
G1 X24.6 Y16.3 E207.5 F3150.0 ;horizontal move
G1 Y18.5 E209.7 ;horizontal move
G1 Y21.7 E212.9 F1510.7 ;horizontal move
G1 X21.4 E216.1 F3150.0 ;horizontal move
G1 X18.5 E219.0 ;horizontal move
G1 X15.3 E222.2 F1500.0 ;horizontal move
G1 Y18.5 E225.4 F3150.0 ;horizontal move
G1 Y15.5 E228.4 ;horizontal move
G1 Y12.3 E231.6 F1490.4 ;horizontal move
G1 X18.5 E234.8 F3150.0 ;horizontal move
G1 X21.1 Y12.4 E237.4 ;horizontal move
G1 X24.7 E241.0 F1210.6 ;horizontal move
G1 X23.9 Y14.2 E243.0 F2484.7 ;horizontal move
G1 X22.8 Y15.3 E244.5 F3128.5 ;horizontal move
G1 F18000.0; feed for start of next move
G1 E184.5; extruder retraction
G1 F1500.0; feed for start of next move
G1 X20.6 Y17.5 F3500.0 ;horizontal move
G1 F1500.0; feed for start of next move
G1 X22.3 Y15.9 F2801.8 ;horizontal move
G1 X23.9 Y14.2 F1500.0 ;horizontal move
G1 F18000.0; feed for start of next move
G1 E244.5; extruder dwell
G1 F1500.0; feed for start of next move
G1 X23.8 Y13.6 E245.1 F1928.9 ;horizontal move
G1 Y13.1 E245.6 F1610.9 ;horizontal move
G1 X23.0 E246.4 F2113.6 ;horizontal move
G1 X20.7 Y15.4 E249.7 F3500.0 ;horizontal move
G1 X19.1 Y17.0 E252.0 ;horizontal move
G1 X16.1 Y19.9 E256.1 F1500.0 ;horizontal move
G1 F18000.0; feed for start of next move
G1 E196.1; extruder retraction
G1 F1500.0; feed for start of next move
G1 X17.3 Y17.7 F2864.9 ;horizontal move
G1 X18.4 Y15.5 F1500.0 ;horizontal move
G1 F18000.0; feed for start of next move
G1 E256.1; extruder dwell
G1 F1500.0; feed for start of next move
G1 X19.4 Y14.5 E257.5 F2375.0 ;horizontal move
G1 X20.8 Y13.1 E259.5 F993.5 ;horizontal move
G1 X18.8 E261.5 F2365.8 ;horizontal move
G1 X18.2 Y13.7 E262.4 F2796.5 ;horizontal move
G1 X16.1 Y15.7 E265.3 F987.8 ;horizontal move
G1 Y14.0 E267.0 F2237.7 ;horizontal move
G1 Y13.7 E267.3 F2070.4 ;horizontal move
G1 X16.7 Y13.1 E268.1 F1500.0 ;horizontal move
G1 F18000.0; feed for start of next move
G1 E208.1; extruder retraction
G1 F1500.0; feed for start of next move
G1 X18.7 Y15.3 F3050.5 ;horizontal move
G1 X20.6 Y17.5 F1500.0 ;horizontal move
G1 F18000.0; feed for start of next move
G1 E268.1; extruder dwell
G1 F1500.0; feed for start of next move
G1 X19.2 Y19.0 E270.2 F2679.1 ;horizontal move
G1 X17.4 Y20.9 E272.8 F977.0 ;horizontal move
G1 X19.4 E274.8 F2388.8 ;horizontal move
G1 X20.9 Y19.4 E276.9 F3296.4 ;horizontal move
G1 X23.9 Y16.5 E281.1 F976.9 ;horizontal move
G1 Y18.5 E283.1 F2388.8 ;horizontal move
G1 X23.4 Y19.0 E283.8 F2695.8 ;horizontal move
G1 X21.7 Y20.9 E286.3 F990.7 ;horizontal move
G1 X23.1 E287.7 F2081.0 ;horizontal move
G1 X23.5 E288.1 F1793.3 ;horizontal move
G1 X23.9 Y20.7 E288.6 F1500.0 ;horizontal move
G1 F18000.0; feed for start of next move
G1 E228.6; extruder retraction
G1 F1500.0; feed for start of next move
;#!LAYER: 17/33
G28 X0 ;set x 0
G28 Y0 ;set y 0
G92 E0 ;zero the extruded length
G92 E0 ;zero the extruded length
G92 E0 ;zero the extruded length
T1; select new extruder
M113; set extruder to use pot for PWM
G92 E0 ;zero the extruded length
T0; select new extruder
M113; set extruder to use pot for PWM
G1 F50.0; feed for start of next move
G1 Z4.9 ;z move
T0; select new extruder
M113; set extruder to use pot for PWM
G1 F1500.0; feed for start of next move
G1 X3.3 Y2.5 F3500.0 ;horizontal move
G1 X8.7 Y6.5 ;horizontal move
G1 X12.0 Y9.0 F1500.0 ;horizontal move
G1 F18000.0; feed for start of next move
G1 E60.0; extruder dwell
G1 F1500.0; feed for start of next move
G1 F3500.0; feed for start of next move
G1 E85.0; extruder dwell
G1 F1500.0; feed for start of next move
G1 Y13.2 E89.2 F3500.0 ;horizontal move
G1 Y14.8 E90.8 ;horizontal move
G1 Y19.0 E95.0 F1500.0 ;horizontal move
G1 X11.0 E96.0 F2156.4 ;horizontal move
G1 X10.0 E97.0 F1500.0 ;horizontal move
G1 Y14.8 E101.2 F3500.0 ;horizontal move
G1 Y11.2 E104.8 ;horizontal move
G1 Y7.0 E109.0 F1500.0 ;horizontal move
G1 X14.2 E113.2 F3500.0 ;horizontal move
G1 X27.8 E126.8 ;horizontal move
G1 X32.0 E131.0 F1500.0 ;horizontal move
G1 Y8.0 E132.0 F2156.4 ;horizontal move
G1 Y9.0 E133.0 F1500.0 ;horizontal move
G1 X27.8 E137.2 F3500.0 ;horizontal move
G1 X16.2 E148.8 ;horizontal move
G1 X12.0 E153.0 F1500.0 ;horizontal move
G1 F18000.0; feed for start of next move
G1 E93.0; extruder retraction
G1 F1500.0; feed for start of next move
G1 X14.8 Y12.1 F3500.0 ;horizontal move
G1 X16.7 Y14.3 ;horizontal move
G1 X19.5 Y17.4 F1500.0 ;horizontal move
G1 F18000.0; feed for start of next move
G1 E153.0; extruder dwell
G1 F1500.0; feed for start of next move
G1 X21.8 Y19.3 E156.0 F3090.5 ;horizontal move
G1 X24.6 Y21.7 E159.7 F926.1 ;horizontal move
G1 X20.8 E163.5 F3150.0 ;horizontal move
G1 X18.5 E165.8 ;horizontal move
G1 X15.3 E169.0 F1500.0 ;horizontal move
G1 Y18.5 E172.2 F3150.0 ;horizontal move
G1 Y15.5 E175.2 ;horizontal move
G1 Y12.3 E178.4 F1490.4 ;horizontal move
G1 X18.5 E181.6 F3150.0 ;horizontal move
G1 X21.5 Y12.4 E184.6 ;horizontal move
G1 X24.7 E187.8 F1510.4 ;horizontal move
G1 X24.6 Y15.6 E191.0 F3150.0 ;horizontal move
G1 Y18.0 E193.4 ;horizontal move
G1 Y21.7 E197.1 F1020.9 ;horizontal move
G1 X21.9 Y19.4 E200.6 F3105.4 ;horizontal move
G1 F18000.0; feed for start of next move
G1 E140.6; extruder retraction
G1 F1500.0; feed for start of next move
G1 X19.5 Y17.4 F3500.0 ;horizontal move
G1 F1500.0; feed for start of next move
G1 X20.0 Y16.9 F2008.5 ;horizontal move
G1 X20.5 Y16.3 F1500.0 ;horizontal move
G1 F18000.0; feed for start of next move
G1 E200.6; extruder dwell
G1 F1500.0; feed for start of next move
G1 X18.6 Y14.4 E203.3 F2959.2 ;horizontal move
G1 X17.2 Y13.1 E205.2 F2028.1 ;horizontal move
G1 X15.8 Y12.8 E206.7 F763.7 ;horizontal move
G1 X19.7 E210.6 F3150.0 ;horizontal move
G1 X21.0 Y12.9 E211.9 ;horizontal move
G1 X24.2 E215.1 F1511.6 ;horizontal move
G1 Y16.1 E218.3 F3150.0 ;horizontal move
G1 X24.1 Y18.0 E220.2 ;horizontal move
G1 Y21.2 E223.4 F1512.0 ;horizontal move
G1 X20.9 E226.6 F3150.0 ;horizontal move
