; GCode generated by RepRap Java Host Software
; Created: 2011-06-07:07-23-49
;#!RECTANGLE: <BOX x:[l:-6.0, h:7.0], y:[l:-6.000000014901161, h:6.999999985098839]>
M110 ; Reset the line numbers
G21 ;metric is good!
G90 ;absolute positioning
M140 S65.0 ;set bed temperature and return
T0; select new extruder
M113; set extruder to use pot for PWM
G92 E0 ;zero the extruded length
G28 X0 ;set x 0
G28 Y0 ;set y 0
G1 F1500.0; feed for start of next move
G1 X4.2 Y0.1 F3500.0 ;horizontal move
G1 X138.8 Y4.9 ;horizontal move
G1 X143.0 Y5.0 F1500.0 ;horizontal move
G28 Z0 ;set z 0
M109 S205.0 ;set temperature and wait
G1 F3500.0; feed for start of next move
G1 E1750.0; extruder dwell
G1 F1500.0; feed for start of next move
G1 F18000.0; feed for start of next move
G1 E1690.0; extruder retraction
G1 F1500.0; feed for start of next move
G92 E0 ;zero the extruded length
;#!LAYER: 1/3
G92 E0 ;zero the extruded length
G92 E0 ;zero the extruded length
G92 E0 ;zero the extruded length
T1; select new extruder
M113; set extruder to use pot for PWM
G92 E0 ;zero the extruded length
T0; select new extruder
M113; set extruder to use pot for PWM
G1 F50.0; feed for start of next move
G1 Z0.1 ;z move
T0; select new extruder
M113; set extruder to use pot for PWM
G1 F1500.0; feed for start of next move
G1 X-1.3 Y-1.3 F2832.4 ;horizontal move
G1 X0.3 Y0.5 F1500.0 ;horizontal move
G1 F18000.0; feed for start of next move
G1 E60.0; extruder dwell
G1 F1500.0; feed for start of next move
G1 F3500.0; feed for start of next move
G1 E85.0; extruder dwell
G1 F1500.0; feed for start of next move
G1 Y0.3 E85.2 F1262.8 ;horizontal move
G1 X0.7 Y0.4 E85.6 F1582.9 ;horizontal move
G1 X0.6 Y0.7 E85.9 F1398.7 ;horizontal move
G1 X0.4 Y0.6 E86.2 F1565.6 ;horizontal move
G1 F18000.0; feed for start of next move
G1 E26.2; extruder retraction
G1 F1500.0; feed for start of next move
G1 X0.3 Y0.5 F3500.0 ;horizontal move
G1 F1500.0; feed for start of next move
G1 X-1.3 Y-1.2 F2832.4 ;horizontal move
G1 X-3.0 Y-3.0 F1500.0 ;horizontal move
G1 F18000.0; feed for start of next move
G1 E86.2; extruder dwell
G1 F1500.0; feed for start of next move
G1 Y1.2 E90.4 F3500.0 ;horizontal move
G1 Y2.8 E92.0 ;horizontal move
G1 Y7.0 E96.2 F1500.0 ;horizontal move
G1 X-4.0 E97.2 F2156.4 ;horizontal move
G1 X-5.0 E98.2 F1500.0 ;horizontal move
G1 Y2.8 E102.4 F3500.0 ;horizontal move
G1 Y-0.8 E106.0 ;horizontal move
G1 Y-5.0 E110.2 F1500.0 ;horizontal move
G1 X-0.8 E114.4 F3500.0 ;horizontal move
G1 X12.8 E128.0 ;horizontal move
G1 X17.0 E132.2 F1500.0 ;horizontal move
G1 Y-4.0 E133.2 F2156.4 ;horizontal move
G1 Y-3.0 E134.2 F1500.0 ;horizontal move
G1 X12.8 E138.4 F3500.0 ;horizontal move
G1 X1.2 E150.0 ;horizontal move
G1 X-3.0 E154.2 F1500.0 ;horizontal move
G1 F18000.0; feed for start of next move
G1 E94.2; extruder retraction
G1 F1500.0; feed for start of next move
;#!LAYER: 2/3
G28 X0 ;set x 0
G28 Y0 ;set y 0
G92 E0 ;zero the extruded length
G92 E0 ;zero the extruded length
G92 E0 ;zero the extruded length
T1; select new extruder
M113; set extruder to use pot for PWM
G92 E0 ;zero the extruded length
T0; select new extruder
M113; set extruder to use pot for PWM
G1 F50.0; feed for start of next move
G1 Z0.4 ;z move
T0; select new extruder
M113; set extruder to use pot for PWM
G1 F1500.0; feed for start of next move
G1 X0.3 Y0.4 F1832.0 ;horizontal move
G1 X0.6 Y0.7 F1500.0 ;horizontal move
G1 F18000.0; feed for start of next move
G1 E60.0; extruder dwell
G1 F1500.0; feed for start of next move
G1 F3500.0; feed for start of next move
G1 E85.0; extruder dwell
G1 F1500.0; feed for start of next move
G1 X0.5 Y0.6 E85.1 F1611.9 ;horizontal move
G1 X0.3 Y0.5 E85.4 F1473.3 ;horizontal move
G1 Y0.3 E85.6 F1262.8 ;horizontal move
G1 X0.7 Y0.4 E86.0 F1582.9 ;horizontal move
G1 X0.6 Y0.5 E86.1 F1635.4 ;horizontal move
G1 F18000.0; feed for start of next move
G1 E26.1; extruder retraction
G1 F1500.0; feed for start of next move
G1 Y0.7 F3500.0 ;horizontal move
G1 F1500.0; feed for start of next move
G1 X-1.2 Y-1.2 F2906.0 ;horizontal move
G1 X-3.0 Y-3.0 F1500.0 ;horizontal move
G1 F18000.0; feed for start of next move
G1 E86.1; extruder dwell
G1 F1500.0; feed for start of next move
G1 Y1.2 E90.3 F3500.0 ;horizontal move
G1 Y2.8 E91.9 ;horizontal move
G1 Y7.0 E96.1 F1500.0 ;horizontal move
G1 X-4.0 E97.1 F2156.4 ;horizontal move
G1 X-5.0 E98.1 F1500.0 ;horizontal move
G1 Y2.8 E102.3 F3500.0 ;horizontal move
G1 Y-0.8 E105.9 ;horizontal move
G1 Y-5.0 E110.1 F1500.0 ;horizontal move
G1 X-0.8 E114.3 F3500.0 ;horizontal move
G1 X12.8 E127.9 ;horizontal move
G1 X17.0 E132.1 F1500.0 ;horizontal move
G1 Y-4.0 E133.1 F2156.4 ;horizontal move
G1 Y-3.0 E134.1 F1500.0 ;horizontal move
G1 X12.8 E138.3 F3500.0 ;horizontal move
G1 X1.2 E149.9 ;horizontal move
G1 X-3.0 E154.1 F1500.0 ;horizontal move
G1 F18000.0; feed for start of next move
G1 E94.1; extruder retraction
G1 F1500.0; feed for start of next move
;#!LAYER: 3/3
G28 X0 ;set x 0
G28 Y0 ;set y 0
G92 E0 ;zero the extruded length
G92 E0 ;zero the extruded length
G92 E0 ;zero the extruded length
T1; select new extruder
M113; set extruder to use pot for PWM
G92 E0 ;zero the extruded length
T0; select new extruder
M113; set extruder to use pot for PWM
G1 F50.0; feed for start of next move
G1 Z0.7 ;z move
T0; select new extruder
M113; set extruder to use pot for PWM
G1 F1500.0; feed for start of next move
G1 X0.2 Y0.3 F1717.5 ;horizontal move
G1 X0.3 Y0.5 F1500.0 ;horizontal move
G1 F18000.0; feed for start of next move
G1 E60.0; extruder dwell
G1 F1500.0; feed for start of next move
G1 F3500.0; feed for start of next move
G1 E85.0; extruder dwell
G1 F1500.0; feed for start of next move
G1 Y0.3 E85.2 F1262.8 ;horizontal move
G1 X0.7 Y0.4 E85.6 F1582.9 ;horizontal move
G1 X0.6 Y0.7 E85.9 F1398.7 ;horizontal move
G1 X0.4 Y0.6 E86.2 F1565.6 ;horizontal move
G1 F18000.0; feed for start of next move
G1 E26.2; extruder retraction
G1 F1500.0; feed for start of next move
G1 X0.3 Y0.5 F3500.0 ;horizontal move
G1 F1500.0; feed for start of next move
G1 X-1.3 Y-1.2 F2832.4 ;horizontal move
G1 X-3.0 Y-3.0 F1500.0 ;horizontal move
G1 F18000.0; feed for start of next move
G1 E86.2; extruder dwell
G1 F1500.0; feed for start of next move
G1 Y1.2 E90.4 F3500.0 ;horizontal move
G1 Y2.8 E92.0 ;horizontal move
G1 Y7.0 E96.2 F1500.0 ;horizontal move
G1 X-4.0 E97.2 F2156.4 ;horizontal move
G1 X-5.0 E98.2 F1500.0 ;horizontal move
G1 Y2.8 E102.4 F3500.0 ;horizontal move
G1 Y-0.8 E106.0 ;horizontal move
G1 Y-5.0 E110.2 F1500.0 ;horizontal move
G1 X-0.8 E114.4 F3500.0 ;horizontal move
G1 X12.8 E128.0 ;horizontal move
G1 X17.0 E132.2 F1500.0 ;horizontal move
G1 Y-4.0 E133.2 F2156.4 ;horizontal move
G1 Y-3.0 E134.2 F1500.0 ;horizontal move
G1 X12.8 E138.4 F3500.0 ;horizontal move
G1 X1.2 E150.0 ;horizontal move
G1 X-3.0 E154.2 F1500.0 ;horizontal move
G1 F18000.0; feed for start of next move
G1 E94.2; extruder retraction
G1 F1500.0; feed for start of next move
;#!LAYER: 4/3
G28 X0 ;set x 0
G28 Y0 ;set y 0
G92 E0 ;zero the extruded length
G92 E0 ;zero the extruded length
G92 E0 ;zero the extruded length
T1; select new extruder
M113; set extruder to use pot for PWM
G92 E0 ;zero the extruded length
T0; select new extruder
M113; set extruder to use pot for PWM
G1 F50.0; feed for start of next move
G1 Z1.0 ;z move
G1 F50.0; feed for start of next move
G1 Z2.0 ;z move
G1 F1500.0; feed for start of next move
G1 X0.2 Y4.2 F3500.0 ;horizontal move
G1 X9.8 Y185.8 ;horizontal move
G1 X10.0 Y190.0 F1500.0 ;horizontal move
M0 ;shut RepRap down
